; Generated with MatterSlice 1.0
; filamentDiameter = 1.75
; extrusionWidth = 0.5
; firstLayerExtrusionWidth = 0.4
; layerThickness = 0.2
; firstLayerThickness = 0.3
; automatic settings before start_gcode
G21 ; set units to millimeters
M107 ; fan off
T0 ; set the active extruder to 0
; settings from start_gcode
M104 S190
M190 S60
M109 S190
G28
; automatic settings after start_gcode
T0 ; set the active extruder to 0
G90 ; use absolute coordinates
G92 E0 ; reset the expected extruder position
M82 ; use absolute distance for extrusion
; Layer count: 57
; LAYER:0
M107
G0 F6000 X36.63 Y-33.124 Z0.3
; TYPE:SKIRT
G1 Z0.3
G1 F6600 E0
G1 F720 X37.437 Y-32.849 E0.04252
G1 X38.091 Y-32.527 E0.07887
G1 X38.706 Y-32.118 E0.11569
G1 X39.252 Y-31.636 E0.15199
G1 X39.735 Y-31.091 E0.18828
G1 X40.146 Y-30.473 E0.22527
G1 X40.466 Y-29.825 E0.26128
G1 X40.743 Y-29.02 E0.30371
G1 X40.889 Y-27.913 E0.35936
G1 X40.89 Y27.905 E3.14408
G1 X40.747 Y28.994 E3.19888
G1 X40.477 Y29.8 E3.24129
G1 X40.151 Y30.466 E3.27828
G1 X39.741 Y31.081 E3.31516
G1 X39.264 Y31.624 E3.35122
G1 X38.711 Y32.115 E3.38811
G1 X38.091 Y32.528 E3.42528
G1 X37.437 Y32.85 E3.46165
G1 X36.63 Y33.125 E3.50418
G1 X35.525 Y33.27 E3.55978
G1 X-35.524 Y33.27 E7.10443
G1 X-36.629 Y33.125 E7.16008
G1 X-37.436 Y32.85 E7.20266
G1 X-38.093 Y32.526 E7.23926
G1 X-38.703 Y32.119 E7.27588
G1 X-39.251 Y31.637 E7.31233
G1 X-39.734 Y31.09 E7.34877
G1 X-40.143 Y30.477 E7.38556
G1 X-40.465 Y29.826 E7.42182
G1 X-40.742 Y29.021 E7.46431
G1 X-40.888 Y27.914 E7.52002
G1 X-40.889 Y-27.904 E10.30479
G1 X-40.746 Y-28.993 E10.35963
G1 X-40.476 Y-29.799 E10.40207
G1 X-40.152 Y-30.462 E10.43891
G1 X-39.74 Y-31.082 E10.47606
G1 X-39.257 Y-31.629 E10.51247
G1 X-38.709 Y-32.114 E10.54898
G1 X-38.093 Y-32.525 E10.58591
G1 X-37.436 Y-32.849 E10.62244
G1 X-36.629 Y-33.124 E10.66494
G1 X-35.524 Y-33.269 E10.7205
G1 X35.525 Y-33.269 E14.2651
G1 X36.63 Y-33.124 E14.32069
G0 F6000 X36.538 Y-32.733
G1 F720 X37.284 Y-32.479 E14.35999
G1 X37.891 Y-32.179 E14.39375
G1 X38.462 Y-31.8 E14.42791
G1 X38.969 Y-31.352 E14.46163
G1 X39.417 Y-30.846 E14.49531
G1 X39.798 Y-30.273 E14.5296
G1 X40.096 Y-29.671 E14.56307
G1 X40.351 Y-28.928 E14.60221
G1 X40.489 Y-27.887 E14.65455
G1 X40.49 Y27.879 E17.43668
G1 X40.356 Y28.903 E17.4882
G1 X40.106 Y29.648 E17.52741
G1 X39.804 Y30.266 E17.56173
G1 X39.423 Y30.837 E17.59597
G1 X38.98 Y31.341 E17.62945
G1 X38.467 Y31.797 E17.66369
G1 X37.891 Y32.18 E17.6982
G1 X37.284 Y32.48 E17.73198
G1 X36.538 Y32.734 E17.7713
G1 X35.499 Y32.87 E17.82358
G1 X-35.498 Y32.87 E21.36563
G1 X-36.537 Y32.734 E21.41796
G1 X-37.283 Y32.48 E21.45732
G1 X-37.893 Y32.179 E21.4913
G1 X-38.459 Y31.801 E21.5253
G1 X-38.968 Y31.353 E21.55917
G1 X-39.416 Y30.846 E21.59296
G1 X-39.796 Y30.277 E21.62712
G1 X-40.095 Y29.672 E21.66081
G1 X-40.35 Y28.929 E21.70002
G1 X-40.488 Y27.888 E21.75241
G1 X-40.489 Y-27.878 E24.53459
G1 X-40.355 Y-28.902 E24.58616
G1 X-40.105 Y-29.647 E24.62539
G1 X-39.804 Y-30.262 E24.65958
G1 X-39.422 Y-30.838 E24.69407
G1 X-38.973 Y-31.346 E24.7279
G1 X-38.464 Y-31.796 E24.76179
G1 X-37.893 Y-32.178 E24.79605
G1 X-37.283 Y-32.479 E24.82997
G1 X-36.537 Y-32.733 E24.86925
G1 X-35.498 Y-32.869 E24.92149
G1 X35.499 Y-32.869 E28.46349
G1 X36.538 Y-32.733 E28.51576
G0 F6000 X35.763 Y-29.405
; TYPE:WALL-OUTER
G1 F720 X35.976 Y-29.333 E28.52697
G1 X36.186 Y-29.23 E28.53861
G1 X36.39 Y-29.094 E28.55082
G1 X36.559 Y-28.945 E28.56203
G1 X36.716 Y-28.768 E28.57379
G1 X36.849 Y-28.568 E28.58573
G1 X36.951 Y-28.36 E28.59725
G1 X37.026 Y-28.143 E28.60865
G1 X37.089 Y-27.665 E28.63266
G1 X37.09 Y27.659 E31.39273
G1 X37.028 Y28.133 E31.41658
G1 X36.954 Y28.355 E31.42826
G1 X36.848 Y28.571 E31.44026
G1 X36.721 Y28.761 E31.45166
G1 X36.564 Y28.94 E31.46354
G1 X36.39 Y29.095 E31.47517
G1 X36.186 Y29.231 E31.4874
G1 X35.976 Y29.334 E31.49907
G1 X35.763 Y29.406 E31.51029
G1 X35.279 Y29.47 E31.53464
G1 X-35.278 Y29.47 E35.05475
G1 X-35.762 Y29.406 E35.07915
G1 X-35.975 Y29.334 E35.09042
G1 X-36.19 Y29.228 E35.10242
G1 X-36.383 Y29.099 E35.11405
G1 X-36.562 Y28.942 E35.12596
G1 X-36.716 Y28.767 E35.13762
G1 X-36.845 Y28.574 E35.14923
G1 X-36.95 Y28.361 E35.1611
G1 X-37.025 Y28.144 E35.17257
G1 X-37.088 Y27.666 E35.19663
G1 X-37.089 Y-27.658 E37.95676
G1 X-37.027 Y-28.132 E37.98065
G1 X-36.953 Y-28.354 E37.99236
G1 X-36.849 Y-28.565 E38.00412
G1 X-36.716 Y-28.766 E38.01616
G1 X-36.563 Y-28.939 E38.02768
G1 X-36.383 Y-29.098 E38.03966
G1 X-36.19 Y-29.227 E38.05123
G1 X-35.975 Y-29.333 E38.06317
G1 X-35.762 Y-29.405 E38.07435
G1 X-35.278 Y-29.469 E38.09867
G1 X35.279 Y-29.469 E41.61872
G1 X35.763 Y-29.405 E41.64307
G0 F6000 X35.672 Y-29.014
; TYPE:WALL-INNER
G1 F720 X35.823 Y-28.962 E41.65102
G1 X35.99 Y-28.88 E41.66028
G1 X36.142 Y-28.779 E41.66936
G1 X36.28 Y-28.657 E41.67852
G1 X36.398 Y-28.524 E41.68735
G1 X36.499 Y-28.372 E41.69641
G1 X36.583 Y-28.202 E41.70583
G1 X36.633 Y-28.055 E41.71353
G1 X36.689 Y-27.635 E41.73462
G1 X36.69 Y27.63 E44.49175
G1 X36.635 Y28.047 E44.51273
G1 X36.583 Y28.202 E44.52089
G1 X36.502 Y28.369 E44.53015
G1 X36.403 Y28.516 E44.53899
G1 X36.278 Y28.659 E44.54847
G1 X36.142 Y28.779 E44.55752
G1 X35.99 Y28.881 E44.56665
G1 X35.823 Y28.963 E44.57593
G1 X35.672 Y29.015 E44.5839
G1 X35.25 Y29.07 E44.60513
G1 X-35.249 Y29.07 E48.12234
G1 X-35.671 Y29.015 E48.14362
G1 X-35.822 Y28.963 E48.15164
G1 X-35.99 Y28.88 E48.16103
G1 X-36.138 Y28.781 E48.16995
G1 X-36.279 Y28.658 E48.17933
G1 X-36.398 Y28.522 E48.18838
G1 X-36.497 Y28.374 E48.19729
G1 X-36.582 Y28.203 E48.20684
G1 X-36.632 Y28.056 E48.2146
G1 X-36.688 Y27.636 E48.23574
G1 X-36.689 Y-27.629 E50.99293
G1 X-36.634 Y-28.046 E51.01395
G1 X-36.582 Y-28.201 E51.02214
G1 X-36.501 Y-28.367 E51.03138
G1 X-36.401 Y-28.518 E51.04043
G1 X-36.276 Y-28.66 E51.04987
G1 X-36.142 Y-28.777 E51.05874
G1 X-35.99 Y-28.879 E51.06786
G1 X-35.822 Y-28.962 E51.07719
G1 X-35.671 Y-29.014 E51.08513
G1 X-35.249 Y-29.069 E51.10631
G1 X35.25 Y-29.069 E54.62347
G1 X35.672 Y-29.014 E54.6447
G0 F6000 X35.831 Y-28.8
; TYPE:FILL
G1 F720 X-35.833 Y-28.799 E58.22003
G0 F6000 X-36.311 Y-28.399
G1 F720 X36.312 Y-28.4 E61.84316
G0 F6000 X36.5 Y-28
G1 F720 X-36.499 Y-27.999 E65.48509
G0 F6000 X-36.549 Y-27.599
G1 F720 X36.549 Y-27.6 E69.13192
G0 F6000 X36.549 Y-27.2
G1 F720 X-36.549 Y-27.199 E72.77879
G0 F6000 X-36.549 Y-26.799
G1 F720 X36.549 Y-26.8 E76.42561
G0 F6000 X36.549 Y-26.4
G1 F720 X-36.549 Y-26.399 E80.07249
G0 F6000 X-36.549 Y-25.999
G1 F720 X36.549 Y-26 E83.71931
G0 F6000 X36.549 Y-25.6
G1 F720 X-36.549 Y-25.599 E87.36619
G0 F6000 X-36.549 Y-25.199
G1 F720 X36.549 Y-25.2 E91.01301
G0 F6000 X36.549 Y-24.8
G1 F720 X-36.549 Y-24.799 E94.65989
G0 F6000 X-36.549 Y-24.399
G1 F720 X36.549 Y-24.4 E98.30671
G0 F6000 X36.549 Y-24
G1 F720 X-36.549 Y-23.999 E101.95358
G0 F6000 X-36.549 Y-23.599
G1 F720 X36.549 Y-23.6 E105.60041
G0 F6000 X36.549 Y-23.2
G1 F720 X-36.549 Y-23.199 E109.24728
G0 F6000 X-36.549 Y-22.799
G1 F720 X36.549 Y-22.8 E112.89411
G0 F6000 X36.549 Y-22.4
G1 F720 X-36.549 Y-22.399 E116.54098
G0 F6000 X-36.549 Y-21.999
G1 F720 X36.549 Y-22 E120.1878
G0 F6000 X36.549 Y-21.6
G1 F720 X-36.549 Y-21.599 E123.83468
G0 F6000 X-36.549 Y-21.199
G1 F720 X36.549 Y-21.2 E127.4815
G0 F6000 X36.549 Y-20.8
G1 F720 X-36.549 Y-20.799 E131.12838
G0 F6000 X-36.549 Y-20.399
G1 F720 X36.549 Y-20.4 E134.7752
G0 F6000 X36.549 Y-20
G1 F720 X-36.549 Y-19.999 E138.42207
G0 F6000 X-36.549 Y-19.599
G1 F720 X36.549 Y-19.6 E142.0689
G0 F6000 X36.549 Y-19.2
G1 F720 X-36.549 Y-19.199 E145.71577
G0 F6000 X-36.549 Y-18.799
G1 F720 X36.549 Y-18.8 E149.3626
G0 F6000 X36.549 Y-18.4
G1 F720 X-36.549 Y-18.399 E153.00947
G0 F6000 X-36.549 Y-17.999
G1 F720 X36.549 Y-18 E156.65629
G0 F6000 X36.549 Y-17.6
G1 F720 X-36.549 Y-17.599 E160.30317
G0 F6000 X-36.549 Y-17.199
G1 F720 X36.549 Y-17.2 E163.94999
G0 F6000 X36.549 Y-16.8
G1 F720 X-36.549 Y-16.799 E167.59687
G0 F6000 X-36.549 Y-16.399
G1 F720 X36.549 Y-16.4 E171.24369
G0 F6000 X36.549 Y-16
G1 F720 X-36.549 Y-15.999 E174.89056
G0 F6000 X-36.549 Y-15.599
G1 F720 X36.549 Y-15.6 E178.53739
G0 F6000 X36.549 Y-15.2
G1 F720 X-36.549 Y-15.199 E182.18426
G0 F6000 X-36.549 Y-14.799
G1 F720 X36.549 Y-14.8 E185.83109
G0 F6000 X36.549 Y-14.4
G1 F720 X-36.549 Y-14.399 E189.47796
G0 F6000 X-36.549 Y-13.999
G1 F720 X36.549 Y-14 E193.12479
G0 F6000 X36.549 Y-13.6
G1 F720 X-36.549 Y-13.599 E196.77166
G0 F6000 X-36.549 Y-13.199
G1 F720 X36.549 Y-13.2 E200.41848
G0 F6000 X36.549 Y-12.8
G1 F720 X-36.549 Y-12.799 E204.06536
G0 F6000 X-36.549 Y-12.399
G1 F720 X36.549 Y-12.4 E207.71218
G0 F6000 X36.549 Y-12
G1 F720 X-36.549 Y-11.999 E211.35906
G0 F6000 X-36.549 Y-11.599
G1 F720 X36.549 Y-11.6 E215.00588
G0 F6000 X36.549 Y-11.2
G1 F720 X-36.549 Y-11.199 E218.65275
G0 F6000 X-36.549 Y-10.799
G1 F720 X36.549 Y-10.8 E222.29958
G0 F6000 X36.549 Y-10.4
G1 F720 X-36.549 Y-10.399 E225.94645
G0 F6000 X-36.549 Y-9.999
G1 F720 X36.549 Y-10 E229.59328
G0 F6000 X36.549 Y-9.6
G1 F720 X-36.549 Y-9.599 E233.24015
G0 F6000 X-36.549 Y-9.199
G1 F720 X36.549 Y-9.2 E236.88697
G0 F6000 X36.549 Y-8.8
G1 F720 X-36.549 Y-8.799 E240.53385
G0 F6000 X-36.549 Y-8.399
G1 F720 X36.549 Y-8.4 E244.18067
G0 F6000 X36.549 Y-8
G1 F720 X-36.549 Y-7.999 E247.82755
G0 F6000 X-36.549 Y-7.599
G1 F720 X36.549 Y-7.6 E251.47437
G0 F6000 X36.549 Y-7.2
G1 F720 X-36.549 Y-7.199 E255.12124
G0 F6000 X-36.549 Y-6.799
G1 F720 X36.549 Y-6.8 E258.76807
G0 F6000 X36.549 Y-6.4
G1 F720 X-36.549 Y-6.399 E262.41494
G0 F6000 X-36.549 Y-5.999
G1 F720 X36.549 Y-6 E266.06177
G0 F6000 X36.549 Y-5.6
G1 F720 X-36.549 Y-5.599 E269.70864
G0 F6000 X-36.549 Y-5.199
G1 F720 X36.549 Y-5.2 E273.35547
G0 F6000 X36.549 Y-4.8
G1 F720 X-36.549 Y-4.799 E277.00234
G0 F6000 X-36.549 Y-4.399
G1 F720 X36.549 Y-4.4 E280.64916
G0 F6000 X36.549 Y-4
G1 F720 X-36.549 Y-3.999 E284.29604
G0 F6000 X-36.549 Y-3.599
G1 F720 X36.549 Y-3.6 E287.94286
G0 F6000 X36.549 Y-3.2
G1 F720 X-36.549 Y-3.199 E291.58974
G0 F6000 X-36.549 Y-2.799
G1 F720 X36.549 Y-2.8 E295.23656
G0 F6000 X36.549 Y-2.4
G1 F720 X-36.549 Y-2.399 E298.88343
G0 F6000 X-36.549 Y-1.999
G1 F720 X36.549 Y-2 E302.53026
G0 F6000 X36.549 Y-1.6
G1 F720 X-36.549 Y-1.599 E306.17713
G0 F6000 X-36.549 Y-1.199
G1 F720 X36.549 Y-1.2 E309.82396
G0 F6000 X36.549 Y-0.8
G1 F720 X-36.549 Y-0.799 E313.47083
G0 F6000 X-36.549 Y-0.399
G1 F720 X36.549 Y-0.4 E317.11765
G0 F6000 X36.55 Y0
G1 F720 X-36.549 Y0 E320.76458
G0 F6000 X-36.548 Y0.4
G1 F720 X36.55 Y0.399 E324.4114
G0 F6000 X36.55 Y0.799
G1 F720 X-36.548 Y0.8 E328.05828
G0 F6000 X-36.548 Y1.2
G1 F720 X36.55 Y1.199 E331.7051
G0 F6000 X36.55 Y1.599
G1 F720 X-36.548 Y1.6 E335.35197
G0 F6000 X-36.548 Y2
G1 F720 X36.55 Y1.999 E338.9988
G0 F6000 X36.55 Y2.399
G1 F720 X-36.548 Y2.4 E342.64567
G0 F6000 X-36.548 Y2.8
G1 F720 X36.55 Y2.799 E346.2925
G0 F6000 X36.55 Y3.199
G1 F720 X-36.548 Y3.2 E349.93937
G0 F6000 X-36.548 Y3.6
G1 F720 X36.55 Y3.599 E353.58619
G0 F6000 X36.55 Y3.999
G1 F720 X-36.548 Y4 E357.23307
G0 F6000 X-36.548 Y4.4
G1 F720 X36.55 Y4.399 E360.87989
G0 F6000 X36.55 Y4.799
G1 F720 X-36.548 Y4.8 E364.52677
G0 F6000 X-36.548 Y5.2
G1 F720 X36.55 Y5.199 E368.17359
G0 F6000 X36.55 Y5.599
G1 F720 X-36.548 Y5.6 E371.82047
G0 F6000 X-36.548 Y6
G1 F720 X36.55 Y5.999 E375.46729
G0 F6000 X36.55 Y6.399
G1 F720 X-36.548 Y6.4 E379.11416
G0 F6000 X-36.548 Y6.8
G1 F720 X36.55 Y6.799 E382.76099
G0 F6000 X36.55 Y7.199
G1 F720 X-36.548 Y7.2 E386.40786
G0 F6000 X-36.548 Y7.6
G1 F720 X36.55 Y7.599 E390.05469
G0 F6000 X36.55 Y7.999
G1 F720 X-36.548 Y8 E393.70156
G0 F6000 X-36.548 Y8.4
G1 F720 X36.55 Y8.399 E397.34838
G0 F6000 X36.55 Y8.799
G1 F720 X-36.548 Y8.8 E400.99526
G0 F6000 X-36.548 Y9.2
G1 F720 X36.55 Y9.199 E404.64208
G0 F6000 X36.55 Y9.599
G1 F720 X-36.548 Y9.6 E408.28896
G0 F6000 X-36.548 Y10
G1 F720 X36.55 Y9.999 E411.93578
G0 F6000 X36.55 Y10.399
G1 F720 X-36.548 Y10.4 E415.58265
G0 F6000 X-36.548 Y10.8
G1 F720 X36.55 Y10.799 E419.22948
G0 F6000 X36.55 Y11.199
G1 F720 X-36.548 Y11.2 E422.87635
G0 F6000 X-36.548 Y11.6
G1 F720 X36.55 Y11.599 E426.52318
G0 F6000 X36.55 Y11.999
G1 F720 X-36.548 Y12 E430.17005
G0 F6000 X-36.548 Y12.4
G1 F720 X36.55 Y12.399 E433.81687
G0 F6000 X36.55 Y12.799
G1 F720 X-36.548 Y12.8 E437.46375
G0 F6000 X-36.548 Y13.2
G1 F720 X36.55 Y13.199 E441.11057
G0 F6000 X36.55 Y13.599
G1 F720 X-36.548 Y13.6 E444.75745
G0 F6000 X-36.548 Y14
G1 F720 X36.55 Y13.999 E448.40427
G0 F6000 X36.55 Y14.399
G1 F720 X-36.548 Y14.4 E452.05115
G0 F6000 X-36.548 Y14.8
G1 F720 X36.55 Y14.799 E455.69797
G0 F6000 X36.55 Y15.199
G1 F720 X-36.548 Y15.2 E459.34484
G0 F6000 X-36.548 Y15.6
G1 F720 X36.55 Y15.599 E462.99167
G0 F6000 X36.55 Y15.999
G1 F720 X-36.548 Y16 E466.63854
G0 F6000 X-36.548 Y16.4
G1 F720 X36.55 Y16.399 E470.28537
G0 F6000 X36.55 Y16.799
G1 F720 X-36.548 Y16.8 E473.93224
G0 F6000 X-36.548 Y17.2
G1 F720 X36.55 Y17.199 E477.57906
G0 F6000 X36.55 Y17.599
G1 F720 X-36.548 Y17.6 E481.22594
G0 F6000 X-36.548 Y18
G1 F720 X36.55 Y17.999 E484.87276
G0 F6000 X36.55 Y18.399
G1 F720 X-36.548 Y18.4 E488.51964
G0 F6000 X-36.548 Y18.8
G1 F720 X36.55 Y18.799 E492.16646
G0 F6000 X36.55 Y19.199
G1 F720 X-36.548 Y19.2 E495.81333
G0 F6000 X-36.548 Y19.6
G1 F720 X36.55 Y19.599 E499.46016
G0 F6000 X36.55 Y19.999
G1 F720 X-36.548 Y20 E503.10703
G0 F6000 X-36.548 Y20.4
G1 F720 X36.55 Y20.399 E506.75386
G0 F6000 X36.55 Y20.799
G1 F720 X-36.548 Y20.8 E510.40073
G0 F6000 X-36.548 Y21.2
G1 F720 X36.55 Y21.199 E514.04755
G0 F6000 X36.55 Y21.599
G1 F720 X-36.548 Y21.6 E517.69443
G0 F6000 X-36.548 Y22
G1 F720 X36.55 Y21.999 E521.34125
G0 F6000 X36.55 Y22.399
G1 F720 X-36.548 Y22.4 E524.98813
G0 F6000 X-36.548 Y22.8
G1 F720 X36.55 Y22.799 E528.63495
G0 F6000 X36.55 Y23.199
G1 F720 X-36.548 Y23.2 E532.28182
G0 F6000 X-36.548 Y23.6
G1 F720 X36.55 Y23.599 E535.92865
G0 F6000 X36.55 Y23.999
G1 F720 X-36.548 Y24 E539.57552
G0 F6000 X-36.548 Y24.4
G1 F720 X36.55 Y24.399 E543.22235
G0 F6000 X36.55 Y24.799
G1 F720 X-36.548 Y24.8 E546.86922
G0 F6000 X-36.548 Y25.2
G1 F720 X36.55 Y25.199 E550.51605
G0 F6000 X36.55 Y25.599
G1 F720 X-36.548 Y25.6 E554.16292
G0 F6000 X-36.548 Y26
G1 F720 X36.55 Y25.999 E557.80974
G0 F6000 X36.55 Y26.399
G1 F720 X-36.548 Y26.4 E561.45662
G0 F6000 X-36.548 Y26.8
G1 F720 X36.55 Y26.799 E565.10344
G0 F6000 X36.55 Y27.199
G1 F720 X-36.548 Y27.2 E568.75032
G0 F6000 X-36.548 Y27.6
G1 F720 X36.55 Y27.599 E572.39714
G0 F6000 X36.501 Y27.999
G1 F720 X-36.499 Y28 E576.03912
G0 F6000 X-36.312 Y28.4
G1 F720 X36.312 Y28.399 E579.6623
G0 F6000 X35.835 Y28.799
G1 F720 X-35.833 Y28.8 E583.23783
; LAYER:1
G0 F6000 X-35.912 Y28.751 Z0.5
; TYPE:WALL-INNER
G1 F2400 X-36.049 Y28.66 E583.2447
G1 X-36.176 Y28.548 E583.25178
G1 X-36.367 Y28.299 E583.26485
G1 X-36.44 Y28.153 E583.27165
G1 X-36.485 Y28.021 E583.27746
G1 X-36.539 Y27.622 E583.29421
G1 X-36.539 Y-27.617 E585.59078
G1 X-36.486 Y-28.017 E585.60759
G1 X-36.372 Y-28.289 E585.61988
G1 X-36.285 Y-28.42 E585.62643
G1 X-36.161 Y-28.561 E585.63424
G1 X-36.053 Y-28.656 E585.64021
G1 X-35.912 Y-28.75 E585.64725
G1 X-35.767 Y-28.822 E585.65396
G1 X-35.626 Y-28.868 E585.6601
G1 X-35.236 Y-28.919 E585.67642
G1 X35.255 Y-28.917 E588.60705
G1 X35.64 Y-28.866 E588.62319
G1 X35.762 Y-28.825 E588.62853
G1 X35.922 Y-28.746 E588.63593
G1 X36.049 Y-28.661 E588.64226
G1 X36.277 Y-28.433 E588.65563
G1 X36.369 Y-28.296 E588.66246
G1 X36.486 Y-28.02 E588.67489
G1 X36.54 Y-27.621 E588.69158
G1 X36.54 Y27.618 E590.98811
G1 X36.487 Y28.018 E591.00489
G1 X36.373 Y28.29 E591.01715
G1 X36.283 Y28.425 E591.0239
G1 X36.177 Y28.547 E591.03062
G1 X36.045 Y28.665 E591.03798
G1 X35.922 Y28.747 E591.04412
G1 X35.768 Y28.823 E591.05126
G1 X35.627 Y28.869 E591.05743
G1 X35.237 Y28.92 E591.07378
G1 X-35.254 Y28.918 E594.00446
G1 X-35.639 Y28.867 E594.02064
G1 X-35.912 Y28.751 E594.03301
G0 F6000 X-36.162 Y29.186
; TYPE:WALL-OUTER
G1 F2100 X-36.354 Y29.058 E594.04264
G1 X-36.526 Y28.907 E594.05219
G1 X-36.673 Y28.74 E594.06147
G1 X-36.799 Y28.552 E594.0709
G1 X-36.904 Y28.342 E594.08068
G1 X-36.973 Y28.141 E594.08953
G1 X-37.039 Y27.652 E594.11005
G1 X-37.039 Y-27.651 E596.40928
G1 X-36.976 Y-28.128 E596.42932
G1 X-36.907 Y-28.331 E596.43826
G1 X-36.807 Y-28.537 E596.4478
G1 X-36.68 Y-28.728 E596.45735
G1 X-36.519 Y-28.912 E596.46752
G1 X-36.353 Y-29.057 E596.47668
G1 X-36.162 Y-29.185 E596.48622
G1 X-35.961 Y-29.284 E596.49552
G1 X-35.734 Y-29.358 E596.50542
G1 X-35.271 Y-29.419 E596.5248
G1 X35.29 Y-29.417 E599.45834
G1 X35.751 Y-29.356 E599.47767
G1 X35.96 Y-29.285 E599.48683
G1 X36.168 Y-29.183 E599.49645
G1 X36.357 Y-29.057 E599.50587
G1 X36.523 Y-28.91 E599.51506
G1 X36.673 Y-28.741 E599.52442
G1 X36.8 Y-28.552 E599.53386
G1 X36.904 Y-28.344 E599.54349
G1 X36.974 Y-28.14 E599.55241
G1 X37.04 Y-27.651 E599.57289
G1 X37.04 Y27.652 E601.87208
G1 X36.977 Y28.129 E601.89208
G1 X36.909 Y28.33 E601.9009
G1 X36.808 Y28.537 E601.91048
G1 X36.678 Y28.734 E601.92029
G1 X36.537 Y28.896 E601.92922
G1 X36.353 Y29.061 E601.9395
G1 X36.168 Y29.184 E601.94873
G1 X35.962 Y29.285 E601.95827
G1 X35.735 Y29.359 E601.9682
G1 X35.272 Y29.42 E601.98761
G1 X-35.289 Y29.418 E604.9212
G1 X-35.75 Y29.357 E604.94057
G1 X-35.959 Y29.286 E604.94979
G1 X-36.162 Y29.186 E604.95923
G0 F6000 X-36 Y28.446
; TYPE:FILL
G1 F2400 X-36 Y-28.446 E607.32453
G0 F6000 X-35.5 Y-28.691
G1 F2400 X-35.5 Y28.692 E609.7102
G0 F6000 X-35 Y28.727
G1 F2400 X-35 Y-28.728 E612.0989
G0 F6000 X-34.5 Y-28.728
G1 F2400 X-34.5 Y28.727 E614.48756
G0 F6000 X-34 Y28.727
G1 F2400 X-34 Y-28.728 E616.87626
G0 F6000 X-33.5 Y-28.728
G1 F2400 X-33.5 Y28.727 E619.26492
G0 F6000 X-33 Y28.727
G1 F2400 X-33 Y-28.728 E621.65362
G0 F6000 X-32.5 Y-28.728
G1 F2400 X-32.499 Y28.727 E624.04228
G0 F6000 X-31.999 Y28.727
G1 F2400 X-32 Y-28.728 E626.43098
G0 F6000 X-31.5 Y-28.728
G1 F2400 X-31.499 Y28.727 E628.81964
G0 F6000 X-30.999 Y28.727
G1 F2400 X-31 Y-28.728 E631.20834
G0 F6000 X-30.5 Y-28.728
G1 F2400 X-30.499 Y28.727 E633.597
G0 F6000 X-29.999 Y28.727
G1 F2400 X-30 Y-28.728 E635.9857
G0 F6000 X-29.5 Y-28.728
G1 F2400 X-29.499 Y28.727 E638.37436
G0 F6000 X-28.999 Y28.727
G1 F2400 X-29 Y-28.728 E640.76306
G0 F6000 X-28.5 Y-28.728
G1 F2400 X-28.499 Y28.727 E643.15172
G0 F6000 X-27.999 Y28.727
G1 F2400 X-28 Y-28.728 E645.54042
G0 F6000 X-27.5 Y-28.728
G1 F2400 X-27.499 Y28.727 E647.92908
G0 F6000 X-26.999 Y28.727
G1 F2400 X-27 Y-28.728 E650.31779
G0 F6000 X-26.5 Y-28.728
G1 F2400 X-26.499 Y28.727 E652.70645
G0 F6000 X-25.999 Y28.727
G1 F2400 X-26 Y-28.728 E655.09515
G0 F6000 X-25.5 Y-28.728
G1 F2400 X-25.499 Y28.727 E657.48381
G0 F6000 X-24.999 Y28.727
G1 F2400 X-25 Y-28.728 E659.87251
G0 F6000 X-24.5 Y-28.728
G1 F2400 X-24.499 Y28.727 E662.26117
G0 F6000 X-23.999 Y28.727
G1 F2400 X-24 Y-28.728 E664.64987
G0 F6000 X-23.5 Y-28.728
G1 F2400 X-23.499 Y28.727 E667.03853
G0 F6000 X-22.999 Y28.728
G1 F2400 X-23 Y-28.727 E669.42723
G0 F6000 X-22.5 Y-28.727
G1 F2400 X-22.499 Y28.728 E671.81589
G0 F6000 X-21.999 Y28.728
G1 F2400 X-22 Y-28.727 E674.20459
G0 F6000 X-21.5 Y-28.727
G1 F2400 X-21.499 Y28.728 E676.59325
G0 F6000 X-20.999 Y28.728
G1 F2400 X-21 Y-28.727 E678.98195
G0 F6000 X-20.5 Y-28.727
G1 F2400 X-20.499 Y28.728 E681.37061
G0 F6000 X-19.999 Y28.728
G1 F2400 X-20 Y-28.727 E683.75931
G0 F6000 X-19.5 Y-28.727
G1 F2400 X-19.499 Y28.728 E686.14797
G0 F6000 X-18.999 Y28.728
G1 F2400 X-19 Y-28.727 E688.53667
G0 F6000 X-18.5 Y-28.727
G1 F2400 X-18.499 Y28.728 E690.92533
G0 F6000 X-17.999 Y28.728
G1 F2400 X-18 Y-28.727 E693.31404
G0 F6000 X-17.5 Y-28.727
G1 F2400 X-17.499 Y28.728 E695.70269
G0 F6000 X-16.999 Y28.728
G1 F2400 X-17 Y-28.727 E698.0914
G0 F6000 X-16.5 Y-28.727
G1 F2400 X-16.499 Y28.728 E700.48006
G0 F6000 X-15.999 Y28.728
G1 F2400 X-16 Y-28.727 E702.86876
G0 F6000 X-15.5 Y-28.727
G1 F2400 X-15.499 Y28.728 E705.25742
G0 F6000 X-14.999 Y28.728
G1 F2400 X-15 Y-28.727 E707.64612
G0 F6000 X-14.5 Y-28.728
G1 F2400 X-14.499 Y28.728 E710.03482
G0 F6000 X-13.999 Y28.728
G1 F2400 X-14 Y-28.728 E712.42356
G0 F6000 X-13.5 Y-28.728
G1 F2400 X-13.499 Y28.728 E714.81226
G0 F6000 X-12.999 Y28.728
G1 F2400 X-13 Y-28.728 E717.20101
G0 F6000 X-12.5 Y-28.728
G1 F2400 X-12.499 Y28.728 E719.58971
G0 F6000 X-11.999 Y28.728
G1 F2400 X-12 Y-28.728 E721.97845
G0 F6000 X-11.5 Y-28.728
G1 F2400 X-11.499 Y28.728 E724.36715
G0 F6000 X-10.999 Y28.728
G1 F2400 X-11 Y-28.728 E726.7559
G0 F6000 X-10.5 Y-28.728
G1 F2400 X-10.499 Y28.728 E729.1446
G0 F6000 X-9.999 Y28.728
G1 F2400 X-10 Y-28.728 E731.53334
G0 F6000 X-9.5 Y-28.728
G1 F2400 X-9.499 Y28.728 E733.92204
G0 F6000 X-8.999 Y28.728
G1 F2400 X-9 Y-28.728 E736.31078
G0 F6000 X-8.5 Y-28.728
G1 F2400 X-8.499 Y28.728 E738.69949
G0 F6000 X-7.999 Y28.728
G1 F2400 X-8 Y-28.728 E741.08823
G0 F6000 X-7.5 Y-28.728
G1 F2400 X-7.499 Y28.728 E743.47693
G0 F6000 X-6.999 Y28.728
G1 F2400 X-7 Y-28.728 E745.86567
G0 F6000 X-6.5 Y-28.728
G1 F2400 X-6.499 Y28.728 E748.25437
G0 F6000 X-5.999 Y28.728
G1 F2400 X-6 Y-28.728 E750.64312
G0 F6000 X-5.5 Y-28.728
G1 F2400 X-5.499 Y28.728 E753.03182
G0 F6000 X-4.999 Y28.728
G1 F2400 X-5 Y-28.728 E755.42056
G0 F6000 X-4.5 Y-28.728
G1 F2400 X-4.499 Y28.728 E757.80926
G0 F6000 X-3.999 Y28.728
G1 F2400 X-4 Y-28.728 E760.198
G0 F6000 X-3.5 Y-28.728
G1 F2400 X-3.499 Y28.728 E762.58671
G0 F6000 X-2.999 Y28.728
G1 F2400 X-3 Y-28.728 E764.97545
G0 F6000 X-2.5 Y-28.728
G1 F2400 X-2.499 Y28.728 E767.36415
G0 F6000 X-1.999 Y28.728
G1 F2400 X-2 Y-28.728 E769.75289
G0 F6000 X-1.5 Y-28.728
G1 F2400 X-1.499 Y28.728 E772.14159
G0 F6000 X-0.999 Y28.728
G1 F2400 X-1 Y-28.728 E774.53034
G0 F6000 X-0.5 Y-28.728
G1 F2400 X-0.499 Y28.728 E776.91904
G0 F6000 X0 Y28.729
G1 F2400 X0 Y-28.728 E779.30782
G0 F6000 X0.499 Y-28.727
G1 F2400 X0.5 Y28.729 E781.69652
G0 F6000 X1 Y28.729
G1 F2400 X0.999 Y-28.727 E784.08527
G0 F6000 X1.499 Y-28.727
G1 F2400 X1.5 Y28.729 E786.47397
G0 F6000 X2 Y28.729
G1 F2400 X1.999 Y-28.727 E788.86271
G0 F6000 X2.499 Y-28.727
G1 F2400 X2.5 Y28.729 E791.25141
G0 F6000 X3 Y28.729
G1 F2400 X2.999 Y-28.727 E793.64016
G0 F6000 X3.499 Y-28.727
G1 F2400 X3.5 Y28.729 E796.02886
G0 F6000 X4 Y28.729
G1 F2400 X3.999 Y-28.727 E798.4176
G0 F6000 X4.499 Y-28.727
G1 F2400 X4.5 Y28.729 E800.8063
G0 F6000 X5 Y28.729
G1 F2400 X4.999 Y-28.727 E803.19504
G0 F6000 X5.499 Y-28.727
G1 F2400 X5.5 Y28.729 E805.58375
G0 F6000 X6 Y28.729
G1 F2400 X5.999 Y-28.727 E807.97249
G0 F6000 X6.499 Y-28.727
G1 F2400 X6.5 Y28.729 E810.36119
G0 F6000 X7 Y28.729
G1 F2400 X6.999 Y-28.727 E812.74993
G0 F6000 X7.499 Y-28.727
G1 F2400 X7.5 Y28.729 E815.13863
G0 F6000 X8 Y28.729
G1 F2400 X7.999 Y-28.727 E817.52738
G0 F6000 X8.499 Y-28.727
G1 F2400 X8.5 Y28.729 E819.91608
G0 F6000 X9 Y28.729
G1 F2400 X8.999 Y-28.727 E822.30482
G0 F6000 X9.499 Y-28.727
G1 F2400 X9.5 Y28.729 E824.69352
G0 F6000 X10 Y28.729
G1 F2400 X9.999 Y-28.727 E827.08227
G0 F6000 X10.499 Y-28.727
G1 F2400 X10.5 Y28.729 E829.47097
G0 F6000 X11 Y28.729
G1 F2400 X10.999 Y-28.727 E831.85971
G0 F6000 X11.499 Y-28.727
G1 F2400 X11.5 Y28.729 E834.24841
G0 F6000 X12 Y28.729
G1 F2400 X11.999 Y-28.727 E836.63715
G0 F6000 X12.499 Y-28.727
G1 F2400 X12.5 Y28.729 E839.02586
G0 F6000 X13 Y28.729
G1 F2400 X12.999 Y-28.727 E841.4146
G0 F6000 X13.499 Y-28.727
G1 F2400 X13.5 Y28.729 E843.8033
G0 F6000 X14 Y28.729
G1 F2400 X13.999 Y-28.727 E846.19204
G0 F6000 X14.499 Y-28.727
G1 F2400 X14.5 Y28.729 E848.58074
G0 F6000 X15 Y28.728
G1 F2400 X14.999 Y-28.727 E850.96945
G0 F6000 X15.499 Y-28.727
G1 F2400 X15.5 Y28.728 E853.3581
G0 F6000 X16 Y28.728
G1 F2400 X15.999 Y-28.727 E855.74681
G0 F6000 X16.499 Y-28.727
G1 F2400 X16.5 Y28.728 E858.13547
G0 F6000 X17 Y28.728
G1 F2400 X16.999 Y-28.727 E860.52417
G0 F6000 X17.499 Y-28.727
G1 F2400 X17.5 Y28.728 E862.91283
G0 F6000 X18 Y28.728
G1 F2400 X17.999 Y-28.727 E865.30153
G0 F6000 X18.499 Y-28.727
G1 F2400 X18.5 Y28.728 E867.69019
G0 F6000 X19 Y28.728
G1 F2400 X18.999 Y-28.727 E870.07889
G0 F6000 X19.499 Y-28.727
G1 F2400 X19.5 Y28.728 E872.46755
G0 F6000 X20 Y28.728
G1 F2400 X19.999 Y-28.727 E874.85625
G0 F6000 X20.499 Y-28.727
G1 F2400 X20.5 Y28.728 E877.24491
G0 F6000 X21 Y28.728
G1 F2400 X20.999 Y-28.727 E879.63361
G0 F6000 X21.499 Y-28.727
G1 F2400 X21.5 Y28.728 E882.02227
G0 F6000 X22 Y28.728
G1 F2400 X21.999 Y-28.727 E884.41097
G0 F6000 X22.499 Y-28.727
G1 F2400 X22.5 Y28.728 E886.79963
G0 F6000 X23 Y28.728
G1 F2400 X22.999 Y-28.727 E889.18833
G0 F6000 X23.499 Y-28.726
G1 F2400 X23.5 Y28.729 E891.57699
G0 F6000 X24 Y28.729
G1 F2400 X23.999 Y-28.726 E893.96569
G0 F6000 X24.499 Y-28.726
G1 F2400 X24.5 Y28.729 E896.35435
G0 F6000 X25 Y28.729
G1 F2400 X24.999 Y-28.726 E898.74306
G0 F6000 X25.499 Y-28.726
G1 F2400 X25.5 Y28.729 E901.13172
G0 F6000 X26 Y28.729
G1 F2400 X25.999 Y-28.726 E903.52042
G0 F6000 X26.499 Y-28.726
G1 F2400 X26.5 Y28.729 E905.90908
G0 F6000 X27 Y28.729
G1 F2400 X26.999 Y-28.726 E908.29778
G0 F6000 X27.499 Y-28.726
G1 F2400 X27.5 Y28.729 E910.68644
G0 F6000 X28 Y28.729
G1 F2400 X27.999 Y-28.726 E913.07514
G0 F6000 X28.499 Y-28.726
G1 F2400 X28.5 Y28.729 E915.4638
G0 F6000 X29 Y28.729
G1 F2400 X28.999 Y-28.726 E917.8525
G0 F6000 X29.499 Y-28.726
G1 F2400 X29.5 Y28.729 E920.24116
G0 F6000 X30 Y28.729
G1 F2400 X29.999 Y-28.726 E922.62986
G0 F6000 X30.499 Y-28.726
G1 F2400 X30.5 Y28.729 E925.01852
G0 F6000 X31 Y28.729
G1 F2400 X30.999 Y-28.726 E927.40722
G0 F6000 X31.499 Y-28.726
G1 F2400 X31.5 Y28.729 E929.79588
G0 F6000 X32 Y28.729
G1 F2400 X31.999 Y-28.726 E932.18458
G0 F6000 X32.499 Y-28.726
G1 F2400 X32.5 Y28.729 E934.57324
G0 F6000 X33 Y28.729
G1 F2400 X33 Y-28.726 E936.96194
G0 F6000 X33.5 Y-28.726
G1 F2400 X33.5 Y28.729 E939.3506
G0 F6000 X34 Y28.729
G1 F2400 X34 Y-28.726 E941.73931
G0 F6000 X34.5 Y-28.726
G1 F2400 X34.5 Y28.729 E944.12797
G0 F6000 X35 Y28.729
G1 F2400 X35 Y-28.726 E946.51667
G0 F6000 X35.5 Y-28.691
G1 F2400 X35.5 Y28.692 E948.90233
G0 F6000 X36 Y28.445
G1 F2400 X36 Y-28.44 E951.26734
; LAYER:2
M106 S153
G0 F6000 X36.056 Y-28.654 Z0.7
; TYPE:WALL-INNER
G1 F2400 X36.282 Y-28.428 E951.28059
G1 X36.367 Y-28.301 E951.28691
G1 X36.446 Y-28.141 E951.2943
G1 X36.487 Y-28.019 E951.29961
G1 X36.54 Y-27.617 E951.31642
G1 X36.54 Y27.618 E953.61279
G1 X36.487 Y28.02 E953.62964
G1 X36.371 Y28.293 E953.64198
G1 X36.28 Y28.43 E953.64881
G1 X36.173 Y28.551 E953.65553
G1 X36.04 Y28.668 E953.66289
G1 X35.766 Y28.823 E953.67598
G1 X35.617 Y28.871 E953.68249
G1 X35.239 Y28.92 E953.69834
G1 X-35.268 Y28.916 E956.62968
G1 X-35.642 Y28.866 E956.64541
G1 X-35.925 Y28.743 E956.65827
G1 X-36.171 Y28.552 E956.67125
G1 X-36.279 Y28.43 E956.67806
G1 X-36.37 Y28.293 E956.68492
G1 X-36.486 Y28.02 E956.69727
G1 X-36.539 Y27.618 E956.71413
G1 X-36.539 Y-27.617 E959.01053
G1 X-36.486 Y-28.019 E959.02743
G1 X-36.445 Y-28.141 E959.0328
G1 X-36.366 Y-28.301 E959.04024
G1 X-36.284 Y-28.424 E959.0464
G1 X-36.165 Y-28.558 E959.05385
G1 X-36.04 Y-28.666 E959.06072
G1 X-35.906 Y-28.754 E959.06737
G1 X-35.765 Y-28.822 E959.07386
G1 X-35.616 Y-28.87 E959.08034
G1 X-35.238 Y-28.919 E959.09615
G1 X35.269 Y-28.915 E962.02745
G1 X35.643 Y-28.865 E962.04313
G1 X35.771 Y-28.82 E962.04876
G1 X36.056 Y-28.654 E962.06245
G0 F6000 X36.363 Y-29.05
; TYPE:WALL-OUTER
G1 F2100 X36.53 Y-28.903 E962.07168
G1 X36.678 Y-28.736 E962.08092
G1 X36.804 Y-28.547 E962.09033
G1 X36.906 Y-28.339 E962.09992
G1 X36.977 Y-28.13 E962.10906
G1 X37.04 Y-27.651 E962.12911
G1 X37.04 Y27.652 E964.4283
G1 X36.977 Y28.131 E964.44838
G1 X36.906 Y28.34 E964.45756
G1 X36.806 Y28.543 E964.46697
G1 X36.678 Y28.735 E964.47656
G1 X36.527 Y28.907 E964.48608
G1 X36.344 Y29.066 E964.49616
G1 X36.156 Y29.189 E964.5055
G1 X35.95 Y29.289 E964.51502
G1 X35.726 Y29.361 E964.5248
G1 X35.273 Y29.42 E964.54379
G1 X-35.298 Y29.416 E967.47779
G1 X-35.761 Y29.353 E967.49726
G1 X-35.969 Y29.281 E967.50645
G1 X-36.174 Y29.178 E967.51603
G1 X-36.361 Y29.051 E967.52546
G1 X-36.526 Y28.907 E967.5346
G1 X-36.677 Y28.735 E967.54414
G1 X-36.805 Y28.543 E967.55376
G1 X-36.905 Y28.34 E967.56318
G1 X-36.976 Y28.131 E967.57237
G1 X-37.039 Y27.652 E967.59246
G1 X-37.039 Y-27.651 E969.8917
G1 X-36.976 Y-28.13 E969.91182
G1 X-36.905 Y-28.339 E969.92102
G1 X-36.803 Y-28.547 E969.93067
G1 X-36.68 Y-28.731 E969.93988
G1 X-36.518 Y-28.913 E969.95002
G1 X-36.342 Y-29.066 E969.95971
G1 X-36.154 Y-29.189 E969.96904
G1 X-35.949 Y-29.288 E969.97848
G1 X-35.725 Y-29.36 E969.98824
G1 X-35.272 Y-29.419 E970.0072
G1 X35.299 Y-29.415 E972.94116
G1 X35.762 Y-29.352 E972.96058
G1 X35.97 Y-29.28 E972.96971
G1 X36.175 Y-29.176 E972.97925
G1 X36.363 Y-29.05 E972.98864
G0 F6000 X35.94 Y-28.5
; TYPE:FILL
G1 F2400 X-35.93 Y-28.499 E975.97665
G0 F6000 X-36.29 Y-27.999
G1 F2400 X36.293 Y-28 E978.99425
G0 F6000 X36.35 Y-27.5
G1 F2400 X-36.349 Y-27.499 E982.01673
G0 F6000 X-36.349 Y-26.999
G1 F2400 X36.35 Y-27 E985.03916
G0 F6000 X36.35 Y-26.5
G1 F2400 X-36.349 Y-26.499 E988.06163
G0 F6000 X-36.349 Y-25.999
G1 F2400 X36.35 Y-26 E991.08406
G0 F6000 X36.35 Y-25.5
G1 F2400 X-36.349 Y-25.499 E994.10654
G0 F6000 X-36.349 Y-24.999
G1 F2400 X36.35 Y-25 E997.12897
G0 F6000 X36.35 Y-24.5
G1 F2400 X-36.349 Y-24.499 E1000.15144
G0 F6000 X-36.349 Y-23.999
G1 F2400 X36.35 Y-24 E1003.17387
G0 F6000 X36.35 Y-23.5
G1 F2400 X-36.349 Y-23.499 E1006.19635
G0 F6000 X-36.349 Y-22.999
G1 F2400 X36.35 Y-23 E1009.21878
G0 F6000 X36.35 Y-22.5
G1 F2400 X-36.349 Y-22.499 E1012.24125
G0 F6000 X-36.349 Y-21.999
G1 F2400 X36.35 Y-22 E1015.26368
G0 F6000 X36.35 Y-21.5
G1 F2400 X-36.349 Y-21.499 E1018.28616
G0 F6000 X-36.349 Y-20.999
G1 F2400 X36.35 Y-21 E1021.30859
G0 F6000 X36.35 Y-20.5
G1 F2400 X-36.349 Y-20.499 E1024.33106
G0 F6000 X-36.349 Y-19.999
G1 F2400 X36.35 Y-20 E1027.35349
G0 F6000 X36.35 Y-19.5
G1 F2400 X-36.349 Y-19.499 E1030.37597
G0 F6000 X-36.349 Y-18.999
G1 F2400 X36.35 Y-19 E1033.3984
G0 F6000 X36.35 Y-18.5
G1 F2400 X-36.349 Y-18.499 E1036.42087
G0 F6000 X-36.349 Y-17.999
G1 F2400 X36.35 Y-18 E1039.4433
G0 F6000 X36.35 Y-17.5
G1 F2400 X-36.349 Y-17.499 E1042.46578
G0 F6000 X-36.349 Y-16.999
G1 F2400 X36.35 Y-17 E1045.48821
G0 F6000 X36.35 Y-16.5
G1 F2400 X-36.349 Y-16.499 E1048.51068
G0 F6000 X-36.349 Y-15.999
G1 F2400 X36.35 Y-16 E1051.53311
G0 F6000 X36.35 Y-15.5
G1 F2400 X-36.349 Y-15.499 E1054.55559
G0 F6000 X-36.349 Y-14.999
G1 F2400 X36.35 Y-15 E1057.57802
G0 F6000 X36.35 Y-14.5
G1 F2400 X-36.349 Y-14.499 E1060.60049
G0 F6000 X-36.349 Y-13.999
G1 F2400 X36.35 Y-14 E1063.62292
G0 F6000 X36.35 Y-13.5
G1 F2400 X-36.349 Y-13.499 E1066.6454
G0 F6000 X-36.349 Y-12.999
G1 F2400 X36.35 Y-13 E1069.66783
G0 F6000 X36.35 Y-12.5
G1 F2400 X-36.349 Y-12.499 E1072.6903
G0 F6000 X-36.349 Y-11.999
G1 F2400 X36.35 Y-12 E1075.71273
G0 F6000 X36.35 Y-11.5
G1 F2400 X-36.349 Y-11.499 E1078.73521
G0 F6000 X-36.349 Y-10.999
G1 F2400 X36.35 Y-11 E1081.75764
G0 F6000 X36.35 Y-10.5
G1 F2400 X-36.349 Y-10.499 E1084.78011
G0 F6000 X-36.349 Y-9.999
G1 F2400 X36.35 Y-10 E1087.80254
G0 F6000 X36.35 Y-9.5
G1 F2400 X-36.349 Y-9.499 E1090.82501
G0 F6000 X-36.349 Y-8.999
G1 F2400 X36.35 Y-9 E1093.84745
G0 F6000 X36.35 Y-8.5
G1 F2400 X-36.349 Y-8.499 E1096.86992
G0 F6000 X-36.349 Y-7.999
G1 F2400 X36.35 Y-8 E1099.89235
G0 F6000 X36.35 Y-7.5
G1 F2400 X-36.349 Y-7.499 E1102.91482
G0 F6000 X-36.349 Y-6.999
G1 F2400 X36.35 Y-7 E1105.93726
G0 F6000 X36.35 Y-6.5
G1 F2400 X-36.349 Y-6.499 E1108.95973
G0 F6000 X-36.349 Y-5.999
G1 F2400 X36.35 Y-6 E1111.98216
G0 F6000 X36.35 Y-5.5
G1 F2400 X-36.349 Y-5.499 E1115.00463
G0 F6000 X-36.349 Y-4.999
G1 F2400 X36.35 Y-5 E1118.02707
G0 F6000 X36.35 Y-4.5
G1 F2400 X-36.349 Y-4.499 E1121.04954
G0 F6000 X-36.349 Y-3.999
G1 F2400 X36.35 Y-4 E1124.07197
G0 F6000 X36.35 Y-3.5
G1 F2400 X-36.349 Y-3.499 E1127.09444
G0 F6000 X-36.349 Y-2.999
G1 F2400 X36.35 Y-3 E1130.11688
G0 F6000 X36.35 Y-2.5
G1 F2400 X-36.349 Y-2.499 E1133.13935
G0 F6000 X-36.349 Y-1.999
G1 F2400 X36.35 Y-2 E1136.16178
G0 F6000 X36.35 Y-1.5
G1 F2400 X-36.349 Y-1.499 E1139.18425
G0 F6000 X-36.349 Y-0.999
G1 F2400 X36.35 Y-1 E1142.20669
G0 F6000 X36.35 Y-0.5
G1 F2400 X-36.349 Y-0.499 E1145.22916
G0 F6000 X-36.349 Y0
G1 F2400 X36.35 Y0 E1148.25159
G0 F6000 X36.35 Y0.499
G1 F2400 X-36.349 Y0.5 E1151.27406
G0 F6000 X-36.349 Y1
G1 F2400 X36.35 Y0.999 E1154.29649
G0 F6000 X36.35 Y1.499
G1 F2400 X-36.349 Y1.5 E1157.31897
G0 F6000 X-36.349 Y2
G1 F2400 X36.35 Y1.999 E1160.3414
G0 F6000 X36.35 Y2.499
G1 F2400 X-36.349 Y2.5 E1163.36387
G0 F6000 X-36.349 Y3
G1 F2400 X36.35 Y2.999 E1166.3863
G0 F6000 X36.35 Y3.499
G1 F2400 X-36.349 Y3.5 E1169.40878
G0 F6000 X-36.349 Y4
G1 F2400 X36.35 Y3.999 E1172.43121
G0 F6000 X36.35 Y4.499
G1 F2400 X-36.349 Y4.5 E1175.45368
G0 F6000 X-36.349 Y5
G1 F2400 X36.35 Y4.999 E1178.47611
G0 F6000 X36.35 Y5.499
G1 F2400 X-36.349 Y5.5 E1181.49859
G0 F6000 X-36.349 Y6
G1 F2400 X36.35 Y5.999 E1184.52102
G0 F6000 X36.35 Y6.499
G1 F2400 X-36.349 Y6.5 E1187.54349
G0 F6000 X-36.349 Y7
G1 F2400 X36.35 Y6.999 E1190.56592
G0 F6000 X36.35 Y7.499
G1 F2400 X-36.349 Y7.5 E1193.5884
G0 F6000 X-36.349 Y8
G1 F2400 X36.35 Y7.999 E1196.61083
G0 F6000 X36.35 Y8.499
G1 F2400 X-36.349 Y8.5 E1199.6333
G0 F6000 X-36.349 Y9
G1 F2400 X36.35 Y8.999 E1202.65573
G0 F6000 X36.35 Y9.499
G1 F2400 X-36.349 Y9.5 E1205.67821
G0 F6000 X-36.349 Y10
G1 F2400 X36.35 Y9.999 E1208.70064
G0 F6000 X36.35 Y10.499
G1 F2400 X-36.349 Y10.5 E1211.72311
G0 F6000 X-36.349 Y11
G1 F2400 X36.35 Y10.999 E1214.74554
G0 F6000 X36.35 Y11.499
G1 F2400 X-36.349 Y11.5 E1217.76802
G0 F6000 X-36.349 Y12
G1 F2400 X36.35 Y11.999 E1220.79045
G0 F6000 X36.35 Y12.499
G1 F2400 X-36.349 Y12.5 E1223.81292
G0 F6000 X-36.349 Y13
G1 F2400 X36.35 Y12.999 E1226.83535
G0 F6000 X36.35 Y13.499
G1 F2400 X-36.349 Y13.5 E1229.85783
G0 F6000 X-36.349 Y14
G1 F2400 X36.35 Y13.999 E1232.88026
G0 F6000 X36.35 Y14.499
G1 F2400 X-36.349 Y14.5 E1235.90273
G0 F6000 X-36.349 Y15
G1 F2400 X36.35 Y14.999 E1238.92516
G0 F6000 X36.35 Y15.499
G1 F2400 X-36.349 Y15.5 E1241.94764
G0 F6000 X-36.349 Y16
G1 F2400 X36.35 Y15.999 E1244.97007
G0 F6000 X36.35 Y16.499
G1 F2400 X-36.349 Y16.5 E1247.99254
G0 F6000 X-36.349 Y17
G1 F2400 X36.35 Y16.999 E1251.01497
G0 F6000 X36.35 Y17.499
G1 F2400 X-36.349 Y17.5 E1254.03745
G0 F6000 X-36.349 Y18
G1 F2400 X36.35 Y17.999 E1257.05988
G0 F6000 X36.35 Y18.499
G1 F2400 X-36.349 Y18.5 E1260.08235
G0 F6000 X-36.349 Y19
G1 F2400 X36.35 Y18.999 E1263.10478
G0 F6000 X36.35 Y19.499
G1 F2400 X-36.349 Y19.5 E1266.12725
G0 F6000 X-36.349 Y20
G1 F2400 X36.35 Y19.999 E1269.14969
G0 F6000 X36.35 Y20.499
G1 F2400 X-36.349 Y20.5 E1272.17216
G0 F6000 X-36.349 Y21
G1 F2400 X36.35 Y20.999 E1275.19459
G0 F6000 X36.35 Y21.499
G1 F2400 X-36.349 Y21.5 E1278.21706
G0 F6000 X-36.349 Y22
G1 F2400 X36.35 Y21.999 E1281.2395
G0 F6000 X36.35 Y22.499
G1 F2400 X-36.349 Y22.5 E1284.26197
G0 F6000 X-36.349 Y23
G1 F2400 X36.35 Y22.999 E1287.2844
G0 F6000 X36.35 Y23.499
G1 F2400 X-36.349 Y23.5 E1290.30687
G0 F6000 X-36.349 Y24
G1 F2400 X36.35 Y23.999 E1293.32931
G0 F6000 X36.35 Y24.499
G1 F2400 X-36.349 Y24.5 E1296.35178
G0 F6000 X-36.349 Y25
G1 F2400 X36.35 Y24.999 E1299.37421
G0 F6000 X36.35 Y25.499
G1 F2400 X-36.349 Y25.5 E1302.39668
G0 F6000 X-36.349 Y26
G1 F2400 X36.35 Y25.999 E1305.41912
G0 F6000 X36.35 Y26.499
G1 F2400 X-36.349 Y26.5 E1308.44159
G0 F6000 X-36.349 Y27
G1 F2400 X36.35 Y26.999 E1311.46402
G0 F6000 X36.35 Y27.499
G1 F2400 X-36.349 Y27.5 E1314.48649
G0 F6000 X-36.287 Y28
G1 F2400 X36.288 Y27.999 E1317.50377
G0 F6000 X35.944 Y28.499
G1 F2400 X-35.928 Y28.5 E1320.49186
; LAYER:3
G0 F6000 X-35.925 Y28.743 Z0.9
; TYPE:WALL-INNER
G1 F2400 X-36.167 Y28.557 E1320.50458
G1 X-36.279 Y28.43 E1320.51165
G1 X-36.37 Y28.293 E1320.51851
G1 X-36.486 Y28.02 E1320.53086
G1 X-36.539 Y27.618 E1320.54772
G1 X-36.539 Y-27.617 E1322.84413
G1 X-36.486 Y-28.019 E1322.86102
G1 X-36.445 Y-28.141 E1322.8664
G1 X-36.366 Y-28.301 E1322.87384
G1 X-36.284 Y-28.424 E1322.87999
G1 X-36.164 Y-28.557 E1322.88744
G1 X-36.036 Y-28.668 E1322.89448
G1 X-35.902 Y-28.756 E1322.90114
G1 X-35.763 Y-28.823 E1322.90753
G1 X-35.612 Y-28.87 E1322.91408
G1 X-35.238 Y-28.919 E1322.92973
G1 X35.274 Y-28.914 E1325.86123
G1 X35.648 Y-28.862 E1325.87693
G1 X35.775 Y-28.818 E1325.8825
G1 X35.925 Y-28.742 E1325.88947
G1 X36.061 Y-28.65 E1325.89628
G1 X36.282 Y-28.428 E1325.90927
G1 X36.367 Y-28.301 E1325.91559
G1 X36.446 Y-28.141 E1325.92297
G1 X36.487 Y-28.019 E1325.92828
G1 X36.54 Y-27.617 E1325.9451
G1 X36.54 Y27.618 E1328.24146
G1 X36.487 Y28.02 E1328.25832
G1 X36.371 Y28.293 E1328.27065
G1 X36.28 Y28.43 E1328.27749
G1 X36.172 Y28.553 E1328.2843
G1 X36.04 Y28.667 E1328.29155
G1 X35.764 Y28.824 E1328.30475
G1 X35.613 Y28.871 E1328.31132
G1 X35.239 Y28.92 E1328.32701
G1 X-35.273 Y28.915 E1331.25855
G1 X-35.647 Y28.863 E1331.27429
G1 X-35.925 Y28.743 E1331.28692
G0 F6000 X-36.174 Y29.178
; TYPE:WALL-OUTER
G1 F2100 X-36.368 Y29.045 E1331.29673
G1 X-36.526 Y28.907 E1331.30549
G1 X-36.677 Y28.735 E1331.31503
G1 X-36.805 Y28.543 E1331.32465
G1 X-36.905 Y28.34 E1331.33407
G1 X-36.976 Y28.131 E1331.34326
G1 X-37.039 Y27.652 E1331.36336
G1 X-37.039 Y-27.651 E1333.66259
G1 X-36.976 Y-28.13 E1333.68271
G1 X-36.905 Y-28.339 E1333.69191
G1 X-36.803 Y-28.547 E1333.70156
G1 X-36.68 Y-28.732 E1333.71081
G1 X-36.512 Y-28.918 E1333.72123
G1 X-36.342 Y-29.065 E1333.73057
G1 X-36.15 Y-29.191 E1333.74011
G1 X-35.946 Y-29.289 E1333.7495
G1 X-35.716 Y-29.361 E1333.75949
G1 X-35.272 Y-29.419 E1333.77807
G1 X35.306 Y-29.414 E1336.71232
G1 X35.767 Y-29.35 E1336.73167
G1 X35.974 Y-29.278 E1336.74077
G1 X36.179 Y-29.175 E1336.75029
G1 X36.368 Y-29.047 E1336.75975
G1 X36.531 Y-28.902 E1336.7688
G1 X36.678 Y-28.736 E1336.77798
G1 X36.804 Y-28.547 E1336.78739
G1 X36.906 Y-28.339 E1336.79699
G1 X36.977 Y-28.13 E1336.80612
G1 X37.04 Y-27.651 E1336.82617
G1 X37.04 Y27.652 E1339.12536
G1 X36.977 Y28.131 E1339.14544
G1 X36.906 Y28.34 E1339.15462
G1 X36.806 Y28.543 E1339.16403
G1 X36.678 Y28.735 E1339.17362
G1 X36.528 Y28.906 E1339.18308
G1 X36.34 Y29.068 E1339.1934
G1 X36.152 Y29.191 E1339.20274
G1 X35.947 Y29.29 E1339.2122
G1 X35.717 Y29.362 E1339.22222
G1 X35.273 Y29.42 E1339.24084
G1 X-35.305 Y29.415 E1342.17513
G1 X-35.766 Y29.351 E1342.19452
G1 X-35.973 Y29.279 E1342.20367
G1 X-36.174 Y29.178 E1342.21306
G0 F6000 X-36 Y28.445
; TYPE:FILL
G1 F2400 X-36 Y-28.444 E1344.57823
G0 F6000 X-35.5 Y-28.692
G1 F2400 X-35.5 Y28.69 E1346.96386
G0 F6000 X-35 Y28.724
G1 F2400 X-35 Y-28.728 E1349.35243
G0 F6000 X-34.5 Y-28.728
G1 F2400 X-34.5 Y28.724 E1351.74097
G0 F6000 X-34 Y28.724
G1 F2400 X-34 Y-28.728 E1354.12955
G0 F6000 X-33.5 Y-28.728
G1 F2400 X-33.5 Y28.724 E1356.51808
G0 F6000 X-33 Y28.724
G1 F2400 X-33 Y-28.728 E1358.90666
G0 F6000 X-32.5 Y-28.728
G1 F2400 X-32.499 Y28.724 E1361.29519
G0 F6000 X-31.999 Y28.724
G1 F2400 X-32 Y-28.728 E1363.68377
G0 F6000 X-31.5 Y-28.728
G1 F2400 X-31.499 Y28.724 E1366.0723
G0 F6000 X-30.999 Y28.724
G1 F2400 X-31 Y-28.728 E1368.46088
G0 F6000 X-30.5 Y-28.728
G1 F2400 X-30.499 Y28.724 E1370.84942
G0 F6000 X-29.999 Y28.724
G1 F2400 X-30 Y-28.728 E1373.23799
G0 F6000 X-29.5 Y-28.728
G1 F2400 X-29.499 Y28.724 E1375.62653
G0 F6000 X-28.999 Y28.725
G1 F2400 X-29 Y-28.727 E1378.0151
G0 F6000 X-28.5 Y-28.727
G1 F2400 X-28.499 Y28.725 E1380.40364
G0 F6000 X-27.999 Y28.725
G1 F2400 X-28 Y-28.727 E1382.79222
G0 F6000 X-27.5 Y-28.727
G1 F2400 X-27.499 Y28.725 E1385.18075
G0 F6000 X-26.999 Y28.725
G1 F2400 X-27 Y-28.727 E1387.56933
G0 F6000 X-26.5 Y-28.727
G1 F2400 X-26.499 Y28.725 E1389.95786
G0 F6000 X-25.999 Y28.725
G1 F2400 X-26 Y-28.727 E1392.34644
G0 F6000 X-25.5 Y-28.727
G1 F2400 X-25.499 Y28.725 E1394.73497
G0 F6000 X-24.999 Y28.725
G1 F2400 X-25 Y-28.727 E1397.12355
G0 F6000 X-24.5 Y-28.727
G1 F2400 X-24.499 Y28.725 E1399.51209
G0 F6000 X-23.999 Y28.725
G1 F2400 X-24 Y-28.727 E1401.90066
G0 F6000 X-23.5 Y-28.727
G1 F2400 X-23.499 Y28.725 E1404.2892
G0 F6000 X-22.999 Y28.725
G1 F2400 X-23 Y-28.727 E1406.67777
G0 F6000 X-22.5 Y-28.727
G1 F2400 X-22.499 Y28.725 E1409.06631
G0 F6000 X-21.999 Y28.725
G1 F2400 X-22 Y-28.727 E1411.45489
G0 F6000 X-21.5 Y-28.727
G1 F2400 X-21.499 Y28.725 E1413.84342
G0 F6000 X-20.999 Y28.725
G1 F2400 X-21 Y-28.727 E1416.232
G0 F6000 X-20.5 Y-28.727
G1 F2400 X-20.499 Y28.725 E1418.62053
G0 F6000 X-19.999 Y28.725
G1 F2400 X-20 Y-28.727 E1421.00911
G0 F6000 X-19.5 Y-28.727
G1 F2400 X-19.499 Y28.725 E1423.39764
G0 F6000 X-18.999 Y28.725
G1 F2400 X-19 Y-28.727 E1425.78622
G0 F6000 X-18.5 Y-28.727
G1 F2400 X-18.499 Y28.725 E1428.17476
G0 F6000 X-17.999 Y28.725
G1 F2400 X-18 Y-28.727 E1430.56333
G0 F6000 X-17.5 Y-28.726
G1 F2400 X-17.499 Y28.726 E1432.95187
G0 F6000 X-16.999 Y28.726
G1 F2400 X-17 Y-28.726 E1435.34044
G0 F6000 X-16.5 Y-28.726
G1 F2400 X-16.499 Y28.726 E1437.72898
G0 F6000 X-15.999 Y28.726
G1 F2400 X-16 Y-28.726 E1440.11756
G0 F6000 X-15.5 Y-28.726
G1 F2400 X-15.499 Y28.726 E1442.50609
G0 F6000 X-14.999 Y28.726
G1 F2400 X-15 Y-28.726 E1444.89467
G0 F6000 X-14.5 Y-28.727
G1 F2400 X-14.499 Y28.726 E1447.28324
G0 F6000 X-13.999 Y28.726
G1 F2400 X-14 Y-28.727 E1449.67186
G0 F6000 X-13.5 Y-28.727
G1 F2400 X-13.499 Y28.726 E1452.06044
G0 F6000 X-12.999 Y28.726
G1 F2400 X-13 Y-28.727 E1454.44906
G0 F6000 X-12.5 Y-28.727
G1 F2400 X-12.499 Y28.726 E1456.83763
G0 F6000 X-11.999 Y28.726
G1 F2400 X-12 Y-28.727 E1459.22625
G0 F6000 X-11.5 Y-28.727
G1 F2400 X-11.499 Y28.726 E1461.61483
G0 F6000 X-10.999 Y28.726
G1 F2400 X-11 Y-28.727 E1464.00345
G0 F6000 X-10.5 Y-28.727
G1 F2400 X-10.499 Y28.726 E1466.39202
G0 F6000 X-9.999 Y28.726
G1 F2400 X-10 Y-28.727 E1468.78064
G0 F6000 X-9.5 Y-28.727
G1 F2400 X-9.499 Y28.726 E1471.16922
G0 F6000 X-8.999 Y28.726
G1 F2400 X-9 Y-28.727 E1473.55784
G0 F6000 X-8.5 Y-28.727
G1 F2400 X-8.499 Y28.726 E1475.94641
G0 F6000 X-7.999 Y28.726
G1 F2400 X-8 Y-28.727 E1478.33503
G0 F6000 X-7.5 Y-28.727
G1 F2400 X-7.499 Y28.726 E1480.72361
G0 F6000 X-6.999 Y28.726
G1 F2400 X-7 Y-28.727 E1483.11223
G0 F6000 X-6.5 Y-28.727
G1 F2400 X-6.499 Y28.726 E1485.5008
G0 F6000 X-5.999 Y28.726
G1 F2400 X-6 Y-28.727 E1487.88942
G0 F6000 X-5.5 Y-28.726
G1 F2400 X-5.499 Y28.727 E1490.278
G0 F6000 X-4.999 Y28.727
G1 F2400 X-5 Y-28.726 E1492.66661
G0 F6000 X-4.5 Y-28.726
G1 F2400 X-4.499 Y28.727 E1495.05519
G0 F6000 X-3.999 Y28.727
G1 F2400 X-4 Y-28.726 E1497.44381
G0 F6000 X-3.5 Y-28.726
G1 F2400 X-3.499 Y28.727 E1499.83239
G0 F6000 X-2.999 Y28.727
G1 F2400 X-3 Y-28.726 E1502.221
G0 F6000 X-2.5 Y-28.726
G1 F2400 X-2.499 Y28.727 E1504.60958
G0 F6000 X-1.999 Y28.727
G1 F2400 X-2 Y-28.726 E1506.9982
G0 F6000 X-1.5 Y-28.726
G1 F2400 X-1.499 Y28.727 E1509.38678
G0 F6000 X-0.999 Y28.727
G1 F2400 X-1 Y-28.726 E1511.77539
G0 F6000 X-0.5 Y-28.726
G1 F2400 X-0.499 Y28.727 E1514.16397
G0 F6000 X0 Y28.727
G1 F2400 X0 Y-28.726 E1516.55259
G0 F6000 X0.499 Y-28.726
G1 F2400 X0.5 Y28.727 E1518.94117
G0 F6000 X1 Y28.727
G1 F2400 X0.999 Y-28.726 E1521.32978
G0 F6000 X1.499 Y-28.726
G1 F2400 X1.5 Y28.727 E1523.71836
G0 F6000 X2 Y28.727
G1 F2400 X1.999 Y-28.726 E1526.10698
G0 F6000 X2.499 Y-28.726
G1 F2400 X2.5 Y28.727 E1528.49555
G0 F6000 X3 Y28.727
G1 F2400 X2.999 Y-28.726 E1530.88417
G0 F6000 X3.499 Y-28.726
G1 F2400 X3.5 Y28.727 E1533.27275
G0 F6000 X4 Y28.727
G1 F2400 X3.999 Y-28.726 E1535.66137
G0 F6000 X4.499 Y-28.726
G1 F2400 X4.5 Y28.727 E1538.04994
G0 F6000 X5 Y28.727
G1 F2400 X4.999 Y-28.726 E1540.43856
G0 F6000 X5.499 Y-28.726
G1 F2400 X5.5 Y28.727 E1542.82714
G0 F6000 X6 Y28.728
G1 F2400 X5.999 Y-28.725 E1545.21576
G0 F6000 X6.499 Y-28.725
G1 F2400 X6.5 Y28.728 E1547.60433
G0 F6000 X7 Y28.728
G1 F2400 X6.999 Y-28.725 E1549.99295
G0 F6000 X7.499 Y-28.725
G1 F2400 X7.5 Y28.728 E1552.38153
G0 F6000 X8 Y28.728
G1 F2400 X7.999 Y-28.725 E1554.77015
G0 F6000 X8.499 Y-28.725
G1 F2400 X8.5 Y28.728 E1557.15872
G0 F6000 X9 Y28.728
G1 F2400 X8.999 Y-28.725 E1559.54734
G0 F6000 X9.499 Y-28.725
G1 F2400 X9.5 Y28.728 E1561.93592
G0 F6000 X10 Y28.728
G1 F2400 X9.999 Y-28.725 E1564.32454
G0 F6000 X10.499 Y-28.725
G1 F2400 X10.5 Y28.728 E1566.71311
G0 F6000 X11 Y28.728
G1 F2400 X10.999 Y-28.725 E1569.10173
G0 F6000 X11.499 Y-28.725
G1 F2400 X11.5 Y28.728 E1571.49031
G0 F6000 X12 Y28.728
G1 F2400 X11.999 Y-28.725 E1573.87893
G0 F6000 X12.499 Y-28.725
G1 F2400 X12.5 Y28.728 E1576.2675
G0 F6000 X13 Y28.728
G1 F2400 X12.999 Y-28.725 E1578.65612
G0 F6000 X13.499 Y-28.725
G1 F2400 X13.5 Y28.728 E1581.0447
G0 F6000 X14 Y28.728
G1 F2400 X13.999 Y-28.725 E1583.43332
G0 F6000 X14.499 Y-28.725
G1 F2400 X14.5 Y28.728 E1585.82189
G0 F6000 X15 Y28.727
G1 F2400 X14.999 Y-28.725 E1588.21047
G0 F6000 X15.499 Y-28.725
G1 F2400 X15.5 Y28.727 E1590.599
G0 F6000 X16 Y28.727
G1 F2400 X15.999 Y-28.725 E1592.98758
G0 F6000 X16.499 Y-28.725
G1 F2400 X16.5 Y28.727 E1595.37612
G0 F6000 X17 Y28.727
G1 F2400 X16.999 Y-28.725 E1597.76469
G0 F6000 X17.499 Y-28.725
G1 F2400 X17.5 Y28.727 E1600.15323
G0 F6000 X18 Y28.728
G1 F2400 X17.999 Y-28.724 E1602.5418
G0 F6000 X18.499 Y-28.724
G1 F2400 X18.5 Y28.728 E1604.93034
G0 F6000 X19 Y28.728
G1 F2400 X18.999 Y-28.724 E1607.31891
G0 F6000 X19.499 Y-28.724
G1 F2400 X19.5 Y28.728 E1609.70745
G0 F6000 X20 Y28.728
G1 F2400 X19.999 Y-28.724 E1612.09603
G0 F6000 X20.499 Y-28.724
G1 F2400 X20.5 Y28.728 E1614.48456
G0 F6000 X21 Y28.728
G1 F2400 X20.999 Y-28.724 E1616.87314
G0 F6000 X21.499 Y-28.724
G1 F2400 X21.5 Y28.728 E1619.26167
G0 F6000 X22 Y28.728
G1 F2400 X21.999 Y-28.724 E1621.65025
G0 F6000 X22.499 Y-28.724
G1 F2400 X22.5 Y28.728 E1624.03878
G0 F6000 X23 Y28.728
G1 F2400 X22.999 Y-28.724 E1626.42736
G0 F6000 X23.499 Y-28.724
G1 F2400 X23.5 Y28.728 E1628.8159
G0 F6000 X24 Y28.728
G1 F2400 X23.999 Y-28.724 E1631.20447
G0 F6000 X24.499 Y-28.724
G1 F2400 X24.5 Y28.728 E1633.59301
G0 F6000 X25 Y28.728
G1 F2400 X24.999 Y-28.724 E1635.98158
G0 F6000 X25.499 Y-28.724
G1 F2400 X25.5 Y28.728 E1638.37012
G0 F6000 X26 Y28.728
G1 F2400 X25.999 Y-28.724 E1640.7587
G0 F6000 X26.499 Y-28.724
G1 F2400 X26.5 Y28.728 E1643.14723
G0 F6000 X27 Y28.728
G1 F2400 X26.999 Y-28.724 E1645.53581
G0 F6000 X27.499 Y-28.724
G1 F2400 X27.5 Y28.728 E1647.92434
G0 F6000 X28 Y28.728
G1 F2400 X27.999 Y-28.724 E1650.31292
G0 F6000 X28.499 Y-28.724
G1 F2400 X28.5 Y28.728 E1652.70145
G0 F6000 X29 Y28.728
G1 F2400 X28.999 Y-28.724 E1655.09003
G0 F6000 X29.499 Y-28.723
G1 F2400 X29.5 Y28.729 E1657.47857
G0 F6000 X30 Y28.729
G1 F2400 X29.999 Y-28.723 E1659.86714
G0 F6000 X30.499 Y-28.723
G1 F2400 X30.5 Y28.729 E1662.25568
G0 F6000 X31 Y28.729
G1 F2400 X30.999 Y-28.723 E1664.64425
G0 F6000 X31.499 Y-28.723
G1 F2400 X31.5 Y28.729 E1667.03279
G0 F6000 X32 Y28.729
G1 F2400 X31.999 Y-28.723 E1669.42137
G0 F6000 X32.499 Y-28.723
G1 F2400 X32.5 Y28.729 E1671.8099
G0 F6000 X33 Y28.729
G1 F2400 X33 Y-28.723 E1674.19848
G0 F6000 X33.5 Y-28.723
G1 F2400 X33.5 Y28.729 E1676.58701
G0 F6000 X34 Y28.729
G1 F2400 X34 Y-28.723 E1678.97559
G0 F6000 X34.5 Y-28.723
G1 F2400 X34.5 Y28.729 E1681.36412
G0 F6000 X35 Y28.729
G1 F2400 X35 Y-28.723 E1683.7527
G0 F6000 X35.5 Y-28.689
G1 F2400 X35.5 Y28.693 E1686.13833
G0 F6000 X36 Y28.45
G1 F2400 X36 Y-28.441 E1688.50358
; LAYER:4
G0 F6000 X36.067 Y-28.646 Z1.1
; TYPE:WALL-INNER
G1 F2400 X36.282 Y-28.428 E1688.51628
G1 X36.367 Y-28.301 E1688.5226
G1 X36.446 Y-28.141 E1688.52998
G1 X36.487 Y-28.019 E1688.53529
G1 X36.54 Y-27.617 E1688.55211
G1 X36.54 Y27.618 E1690.84847
G1 X36.487 Y28.02 E1690.86533
G1 X36.371 Y28.293 E1690.87766
G1 X36.28 Y28.43 E1690.8845
G1 X36.172 Y28.552 E1690.89127
G1 X36.036 Y28.67 E1690.89876
G1 X35.763 Y28.824 E1690.91179
G1 X35.605 Y28.872 E1690.91865
G1 X35.239 Y28.92 E1690.934
G1 X-35.28 Y28.914 E1693.86584
G1 X-35.651 Y28.862 E1693.88146
G1 X-35.774 Y28.819 E1693.88691
G1 X-35.929 Y28.74 E1693.89418
G1 X-36.171 Y28.552 E1693.90696
G1 X-36.279 Y28.43 E1693.91376
G1 X-36.37 Y28.293 E1693.92062
G1 X-36.486 Y28.02 E1693.93297
G1 X-36.539 Y27.618 E1693.94983
G1 X-36.539 Y-27.617 E1696.24624
G1 X-36.486 Y-28.019 E1696.26313
G1 X-36.445 Y-28.141 E1696.26851
G1 X-36.366 Y-28.301 E1696.27594
G1 X-36.284 Y-28.424 E1696.2821
G1 X-36.163 Y-28.558 E1696.28961
G1 X-36.031 Y-28.672 E1696.29686
G1 X-35.762 Y-28.823 E1696.30967
G1 X-35.604 Y-28.871 E1696.31651
G1 X-35.238 Y-28.919 E1696.33182
G1 X35.281 Y-28.913 E1699.26362
G1 X35.652 Y-28.861 E1699.27918
G1 X35.775 Y-28.818 E1699.28459
G1 X35.929 Y-28.739 E1699.29177
G1 X36.067 Y-28.646 E1699.29866
G0 F6000 X36.378 Y-29.038
; TYPE:WALL-OUTER
G1 F2100 X36.527 Y-28.906 E1699.30691
G1 X36.678 Y-28.736 E1699.31633
G1 X36.804 Y-28.547 E1699.32574
G1 X36.906 Y-28.339 E1699.33533
G1 X36.977 Y-28.13 E1699.34447
G1 X37.04 Y-27.651 E1699.36452
G1 X37.04 Y27.652 E1701.66371
G1 X36.977 Y28.131 E1701.68379
G1 X36.906 Y28.34 E1701.69297
G1 X36.806 Y28.543 E1701.70238
G1 X36.678 Y28.735 E1701.71197
G1 X36.528 Y28.906 E1701.72143
G1 X36.338 Y29.07 E1701.73186
G1 X36.143 Y29.196 E1701.74152
G1 X35.945 Y29.291 E1701.75065
G1 X35.711 Y29.363 E1701.76083
G1 X35.273 Y29.42 E1701.77919
G1 X-35.313 Y29.414 E1704.71381
G1 X-35.77 Y29.35 E1704.73304
G1 X-35.976 Y29.277 E1704.74217
G1 X-36.183 Y29.172 E1704.75185
G1 X-36.366 Y29.047 E1704.7611
G1 X-36.526 Y28.907 E1704.76997
G1 X-36.677 Y28.735 E1704.77951
G1 X-36.805 Y28.543 E1704.78913
G1 X-36.905 Y28.34 E1704.79856
G1 X-36.976 Y28.131 E1704.80775
G1 X-37.039 Y27.652 E1704.82784
G1 X-37.039 Y-27.651 E1707.12707
G1 X-36.976 Y-28.13 E1707.14719
G1 X-36.905 Y-28.339 E1707.1564
G1 X-36.803 Y-28.547 E1707.16605
G1 X-36.68 Y-28.732 E1707.17529
G1 X-36.513 Y-28.917 E1707.18566
G1 X-36.331 Y-29.073 E1707.19562
G1 X-36.148 Y-29.192 E1707.20468
G1 X-35.944 Y-29.29 E1707.21407
G1 X-35.71 Y-29.362 E1707.22423
G1 X-35.272 Y-29.419 E1707.24255
G1 X35.314 Y-29.413 E1710.17714
G1 X35.771 Y-29.349 E1710.19632
G1 X35.977 Y-29.276 E1710.20539
G1 X36.178 Y-29.174 E1710.21474
G1 X36.378 Y-29.038 E1710.22477
G0 F6000 X35.93 Y-28.5
; TYPE:FILL
G1 F2400 X-35.94 Y-28.499 E1713.21278
G0 F6000 X-35.975 Y-27.999
G1 F2400 X-36.29 Y-27.999 E1713.22592
G0 F6000 X-36.095 Y-27.999
G1 F2400 X36.098 Y-28 E1716.22731
G0 F6000 X35.978 Y-28
G1 F2400 X36.321 Y-27.75 E1716.24042
G1 X35.978 Y-27.5 E1716.25804
G0 F6000 X36.098 Y-27.5
G1 F2400 X-36.095 Y-27.499 E1719.25948
G0 F6000 X-35.975 Y-27.499
G1 F2400 X-36.349 Y-27.249 E1719.27505
G1 X-35.975 Y-26.999 E1719.2937
G0 F6000 X-36.095 Y-26.999
G1 F2400 X36.098 Y-27 E1722.29509
G0 F6000 X35.978 Y-27
G1 F2400 X36.35 Y-26.75 E1722.31058
G1 X35.978 Y-26.5 E1722.32919
G0 F6000 X36.098 Y-26.5
G1 F2400 X-36.095 Y-26.499 E1725.33062
G0 F6000 X-35.975 Y-26.499
G1 F2400 X-36.349 Y-26.249 E1725.34619
G1 X-35.975 Y-25.999 E1725.36484
G0 F6000 X-36.095 Y-25.999
G1 F2400 X36.098 Y-26 E1728.36623
G0 F6000 X35.978 Y-26
G1 F2400 X36.35 Y-25.75 E1728.38172
G1 X35.978 Y-25.5 E1728.40033
G0 F6000 X36.098 Y-25.5
G1 F2400 X-19.176 Y-25.5 E1730.69835
G0 F6000 X-18.996 Y-25.5
G1 F2400 X-21.634 Y-25.5 E1730.80807
G0 F6000 X-21.449 Y-25.5
G1 F2400 X-36.095 Y-25.499 E1731.41702
G0 F6000 X-35.975 Y-25.499
G1 F2400 X-36.349 Y-25.249 E1731.43259
G1 X-35.975 Y-24.999 E1731.45124
G0 F6000 X-36.095 Y-24.999
G1 F2400 X-21.877 Y-25 E1732.04231
G0 F6000 X-22.022 Y-25
G1 F2400 X-18.633 Y-25 E1732.18317
G0 F6000 X-18.766 Y-25
G1 F2400 X36.098 Y-25 E1734.46411
G0 F6000 X35.978 Y-25
G1 F2400 X36.35 Y-24.75 E1734.47959
G1 X35.978 Y-24.5 E1734.4982
G0 F6000 X36.098 Y-24.5
G1 F2400 X-18.58 Y-24.5 E1736.77145
G0 F6000 X-18.458 Y-24.5
G1 F2400 X-22.192 Y-24.5 E1736.92673
G0 F6000 X-22.072 Y-24.5
G1 F2400 X-36.095 Y-24.499 E1737.50978
G0 F6000 X-35.975 Y-24.499
G1 F2400 X-36.349 Y-24.249 E1737.52535
G1 X-35.975 Y-23.999 E1737.544
G0 F6000 X-36.095 Y-23.999
G1 F2400 X-22.102 Y-24 E1738.12572
G0 F6000 X-22.224 Y-24
G1 F2400 X-18.427 Y-24 E1738.28354
G0 F6000 X-18.547 Y-24
G1 F2400 X36.098 Y-24 E1740.55537
G0 F6000 X35.978 Y-24
G1 F2400 X36.35 Y-23.75 E1740.57086
G1 X35.978 Y-23.5 E1740.58947
G0 F6000 X36.098 Y-23.5
G1 F2400 X-18.657 Y-23.5 E1742.86592
G0 F6000 X-18.53 Y-23.5
G1 F2400 X-22.121 Y-23.5 E1743.01525
G0 F6000 X-21.987 Y-23.5
G1 F2400 X-36.095 Y-23.499 E1743.60184
G0 F6000 X-35.975 Y-23.499
G1 F2400 X-36.349 Y-23.249 E1743.61741
G1 X-35.975 Y-22.999 E1743.63605
G0 F6000 X-36.095 Y-22.999
G1 F2400 X-21.69 Y-23 E1744.2349
G0 F6000 X-21.848 Y-23
G1 F2400 X-18.794 Y-23 E1744.36183
G0 F6000 X-18.939 Y-23
G1 F2400 X36.098 Y-23 E1746.64996
G0 F6000 X35.978 Y-23
G1 F2400 X36.35 Y-22.75 E1746.66545
G1 X35.978 Y-22.5 E1746.68406
G0 F6000 X36.098 Y-22.5
G1 F2400 X-19.607 Y-22.5 E1749
G0 F6000 X-19.328 Y-22.5
G1 F2400 X-21.297 Y-22.5 E1749.08191
G0 F6000 X-21.039 Y-22.5
G1 F2400 X-36.095 Y-22.499 E1749.7079
G0 F6000 X-35.975 Y-22.499
G1 F2400 X-36.349 Y-22.249 E1749.72347
G1 X-35.975 Y-21.999 E1749.74212
G0 F6000 X-36.095 Y-21.999
G1 F2400 X36.098 Y-22 E1752.74351
G0 F6000 X35.978 Y-22
G1 F2400 X36.35 Y-21.75 E1752.759
G1 X35.978 Y-21.5 E1752.77761
G0 F6000 X36.098 Y-21.5
G1 F2400 X-36.095 Y-21.499 E1755.77905
G0 F6000 X-35.975 Y-21.499
G1 F2400 X-36.349 Y-21.249 E1755.79462
G1 X-35.975 Y-20.999 E1755.81326
G0 F6000 X-36.095 Y-20.999
G1 F2400 X36.098 Y-21 E1758.81466
G0 F6000 X35.978 Y-21
G1 F2400 X36.35 Y-20.75 E1758.83014
G1 X35.978 Y-20.5 E1758.84875
G0 F6000 X36.098 Y-20.5
G1 F2400 X32.788 Y-20.5 E1758.98636
G0 F6000 X32.98 Y-20.5
G1 F2400 X30.521 Y-20.5 E1759.0886
G0 F6000 X30.713 Y-20.5
G1 F2400 X-36.095 Y-20.499 E1761.86615
G0 F6000 X-35.975 Y-20.499
G1 F2400 X-36.349 Y-20.249 E1761.88172
G1 X-35.975 Y-19.999 E1761.90037
G0 F6000 X-36.095 Y-19.999
G1 F2400 X30.248 Y-20 E1764.65855
G0 F6000 X30.109 Y-20
G1 F2400 X33.39 Y-20 E1764.79496
G0 F6000 X33.251 Y-20
G1 F2400 X36.098 Y-20 E1764.91332
G0 F6000 X35.978 Y-20
G1 F2400 X36.35 Y-19.75 E1764.9288
G1 X35.978 Y-19.5 E1764.94742
G0 F6000 X36.098 Y-19.5
G1 F2400 X33.468 Y-19.5 E1765.05676
G0 F6000 X33.592 Y-19.5
G1 F2400 X29.908 Y-19.5 E1765.20992
G0 F6000 X30.033 Y-19.5
G1 F2400 X-36.095 Y-19.499 E1767.9592
G0 F6000 X-35.975 Y-19.499
G1 F2400 X-36.349 Y-19.249 E1767.97477
G1 X-35.975 Y-18.999 E1767.99342
G0 F6000 X-36.095 Y-18.999
G1 F2400 X29.974 Y-19 E1770.74021
G0 F6000 X29.854 Y-19
G1 F2400 X33.646 Y-19 E1770.89786
G0 F6000 X33.526 Y-19
G1 F2400 X36.098 Y-19 E1771.00479
G0 F6000 X35.978 Y-19
G1 F2400 X36.35 Y-18.75 E1771.02028
G1 X35.978 Y-18.5 E1771.03889
G0 F6000 X36.098 Y-18.5
G1 F2400 X33.441 Y-18.5 E1771.14935
G0 F6000 X33.566 Y-18.5
G1 F2400 X29.933 Y-18.5 E1771.3004
G0 F6000 X30.057 Y-18.5
G1 F2400 X-36.095 Y-18.499 E1774.05068
G0 F6000 X-35.975 Y-18.499
G1 F2400 X-36.349 Y-18.249 E1774.06625
G1 X-35.975 Y-17.999 E1774.08489
G0 F6000 X-36.095 Y-17.999
G1 F2400 X30.304 Y-18 E1776.8454
G0 F6000 X30.165 Y-18
G1 F2400 X33.335 Y-18 E1776.97719
G0 F6000 X33.196 Y-18
G1 F2400 X36.098 Y-18 E1777.09784
G0 F6000 X35.978 Y-18
G1 F2400 X36.35 Y-17.75 E1777.11333
G1 X35.978 Y-17.5 E1777.13194
G0 F6000 X36.098 Y-17.5
G1 F2400 X32.621 Y-17.5 E1777.2765
G0 F6000 X32.861 Y-17.5
G1 F2400 X30.641 Y-17.5 E1777.36879
G0 F6000 X30.88 Y-17.5
G1 F2400 X-36.095 Y-17.499 E1780.15329
G0 F6000 X-35.975 Y-17.499
G1 F2400 X-36.349 Y-17.249 E1780.16886
G1 X-35.975 Y-16.999 E1780.18751
G0 F6000 X-36.095 Y-16.999
G1 F2400 X36.098 Y-17 E1783.1889
G0 F6000 X35.978 Y-17
G1 F2400 X36.35 Y-16.75 E1783.20439
G1 X35.978 Y-16.5 E1783.223
G0 F6000 X36.098 Y-16.5
G1 F2400 X-36.095 Y-16.499 E1786.22443
G0 F6000 X-35.975 Y-16.499
G1 F2400 X-36.349 Y-16.249 E1786.24
G1 X-35.975 Y-15.999 E1786.25865
G0 F6000 X-36.095 Y-15.999
G1 F2400 X36.098 Y-16 E1789.26004
G0 F6000 X35.978 Y-16
G1 F2400 X36.35 Y-15.75 E1789.27553
G1 X35.978 Y-15.5 E1789.29414
G0 F6000 X36.098 Y-15.5
G1 F2400 X-36.095 Y-15.499 E1792.29557
G0 F6000 X-35.975 Y-15.499
G1 F2400 X-36.349 Y-15.249 E1792.31114
G1 X-35.975 Y-14.999 E1792.32979
G0 F6000 X-36.095 Y-14.999
G1 F2400 X36.098 Y-15 E1795.33118
G0 F6000 X35.978 Y-15
G1 F2400 X36.35 Y-14.75 E1795.34667
G1 X35.978 Y-14.5 E1795.36528
G0 F6000 X36.098 Y-14.5
G1 F2400 X-36.095 Y-14.499 E1798.36672
G0 F6000 X-35.975 Y-14.499
G1 F2400 X-36.349 Y-14.249 E1798.38229
G1 X-35.976 Y-13.999 E1798.4009
G0 F6000 X-36.096 Y-13.999
G1 F2400 X36.097 Y-14 E1801.40229
G0 F6000 X35.977 Y-14
G1 F2400 X36.35 Y-13.75 E1801.4178
G1 X35.977 Y-13.5 E1801.43645
G0 F6000 X36.097 Y-13.5
G1 F2400 X-36.096 Y-13.499 E1804.43789
G0 F6000 X-35.976 Y-13.499
G1 F2400 X-36.349 Y-13.249 E1804.45343
G1 X-35.976 Y-12.999 E1804.47204
G0 F6000 X-36.096 Y-12.999
G1 F2400 X36.097 Y-13 E1807.47343
G0 F6000 X35.977 Y-13
G1 F2400 X36.35 Y-12.75 E1807.48895
G1 X35.977 Y-12.5 E1807.50759
G0 F6000 X36.097 Y-12.5
G1 F2400 X-36.096 Y-12.499 E1810.50903
G0 F6000 X-35.976 Y-12.499
G1 F2400 X-36.349 Y-12.249 E1810.52457
G1 X-35.976 Y-11.999 E1810.54318
G0 F6000 X-36.096 Y-11.999
G1 F2400 X36.097 Y-12 E1813.54458
G0 F6000 X35.977 Y-12
G1 F2400 X36.35 Y-11.75 E1813.56009
G1 X35.977 Y-11.5 E1813.57873
G0 F6000 X36.097 Y-11.5
G1 F2400 X-36.096 Y-11.499 E1816.58017
G0 F6000 X-35.976 Y-11.499
G1 F2400 X-36.349 Y-11.249 E1816.59571
G1 X-35.976 Y-10.999 E1816.61432
G0 F6000 X-36.096 Y-10.999
G1 F2400 X36.097 Y-11 E1819.61572
G0 F6000 X35.977 Y-11
G1 F2400 X36.35 Y-10.75 E1819.63123
G1 X35.977 Y-10.5 E1819.64988
G0 F6000 X36.097 Y-10.5
G1 F2400 X-36.096 Y-10.499 E1822.65131
G0 F6000 X-35.976 Y-10.499
G1 F2400 X-36.349 Y-10.249 E1822.66685
G1 X-35.976 Y-9.999 E1822.68546
G0 F6000 X-36.096 Y-9.999
G1 F2400 X36.097 Y-10 E1825.68686
G0 F6000 X35.977 Y-10
G1 F2400 X36.35 Y-9.75 E1825.70237
G1 X35.977 Y-9.5 E1825.72102
G0 F6000 X36.097 Y-9.5
G1 F2400 X-36.096 Y-9.499 E1828.72245
G0 F6000 X-35.976 Y-9.499
G1 F2400 X-36.349 Y-9.249 E1828.738
G1 X-35.976 Y-8.999 E1828.75661
G0 F6000 X-36.096 Y-8.999
G1 F2400 X36.097 Y-9 E1831.758
G0 F6000 X35.977 Y-9
G1 F2400 X36.35 Y-8.75 E1831.77351
G1 X35.977 Y-8.5 E1831.79216
G0 F6000 X36.097 Y-8.5
G1 F2400 X-36.096 Y-8.499 E1834.7936
G0 F6000 X-35.976 Y-8.499
G1 F2400 X-36.349 Y-8.249 E1834.80914
G1 X-35.976 Y-7.999 E1834.82775
G0 F6000 X-36.096 Y-7.999
G1 F2400 X36.097 Y-8 E1837.82914
G0 F6000 X35.977 Y-8
G1 F2400 X36.35 Y-7.75 E1837.84466
G1 X35.977 Y-7.5 E1837.8633
G0 F6000 X36.097 Y-7.5
G1 F2400 X-36.096 Y-7.499 E1840.86474
G0 F6000 X-35.976 Y-7.499
G1 F2400 X-36.349 Y-7.249 E1840.88028
G1 X-35.976 Y-6.999 E1840.89889
G0 F6000 X-36.096 Y-6.999
G1 F2400 X36.097 Y-7 E1843.90028
G0 F6000 X35.977 Y-7
G1 F2400 X36.35 Y-6.75 E1843.9158
G1 X35.977 Y-6.5 E1843.93444
G0 F6000 X36.097 Y-6.5
G1 F2400 X-36.096 Y-6.499 E1846.93588
G0 F6000 X-35.976 Y-6.499
G1 F2400 X-36.349 Y-6.249 E1846.95142
G1 X-35.976 Y-5.999 E1846.97003
G0 F6000 X-36.096 Y-5.999
G1 F2400 X36.097 Y-6 E1849.97143
G0 F6000 X35.977 Y-6
G1 F2400 X36.35 Y-5.75 E1849.98694
G1 X35.977 Y-5.5 E1850.00558
G0 F6000 X36.097 Y-5.5
G1 F2400 X-36.096 Y-5.499 E1853.00702
G0 F6000 X-35.976 Y-5.499
G1 F2400 X-36.349 Y-5.249 E1853.02256
G1 X-35.976 Y-4.999 E1853.04117
G0 F6000 X-36.096 Y-4.999
G1 F2400 X36.097 Y-5 E1856.04257
G0 F6000 X35.977 Y-5
G1 F2400 X36.35 Y-4.75 E1856.05808
G1 X35.977 Y-4.5 E1856.07673
G0 F6000 X36.097 Y-4.5
G1 F2400 X-36.096 Y-4.499 E1859.07816
G0 F6000 X-35.976 Y-4.499
G1 F2400 X-36.349 Y-4.249 E1859.0937
G1 X-35.976 Y-3.999 E1859.11232
G0 F6000 X-36.096 Y-3.999
G1 F2400 X36.097 Y-4 E1862.11371
G0 F6000 X35.977 Y-4
G1 F2400 X36.35 Y-3.75 E1862.12922
G1 X35.977 Y-3.5 E1862.14787
G0 F6000 X36.097 Y-3.5
G1 F2400 X-36.096 Y-3.499 E1865.1493
G0 F6000 X-35.976 Y-3.499
G1 F2400 X-36.349 Y-3.249 E1865.16485
G1 X-35.976 Y-2.999 E1865.18346
G0 F6000 X-36.096 Y-2.999
G1 F2400 X36.097 Y-3 E1868.18485
G0 F6000 X35.977 Y-3
G1 F2400 X36.35 Y-2.75 E1868.20037
G1 X35.977 Y-2.5 E1868.21901
G0 F6000 X36.097 Y-2.5
G1 F2400 X-36.096 Y-2.499 E1871.22045
G0 F6000 X-35.976 Y-2.499
G1 F2400 X-36.349 Y-2.249 E1871.23599
G1 X-35.976 Y-1.999 E1871.2546
G0 F6000 X-36.096 Y-1.999
G1 F2400 X36.097 Y-2 E1874.25599
G0 F6000 X35.977 Y-2
G1 F2400 X36.35 Y-1.75 E1874.27151
G1 X35.977 Y-1.5 E1874.29015
G0 F6000 X36.097 Y-1.5
G1 F2400 X-36.096 Y-1.499 E1877.29159
G0 F6000 X-35.976 Y-1.499
G1 F2400 X-36.349 Y-1.249 E1877.30713
G1 X-35.976 Y-0.999 E1877.32574
G0 F6000 X-36.096 Y-0.999
G1 F2400 X36.097 Y-1 E1880.32714
G0 F6000 X35.977 Y-1
G1 F2400 X36.35 Y-0.75 E1880.34265
G1 X35.977 Y-0.5 E1880.36129
G0 F6000 X36.097 Y-0.5
G1 F2400 X-36.096 Y-0.499 E1883.36273
G0 F6000 X-35.976 Y-0.499
G1 F2400 X-36.349 Y-0.249 E1883.37827
G1 X-35.976 Y0 E1883.39686
G0 F6000 X-36.096 Y0
G1 F2400 X36.097 Y0 E1886.39825
G0 F6000 X35.977 Y0
G1 F2400 X36.35 Y0.249 E1886.41377
G1 X35.977 Y0.499 E1886.43244
G0 F6000 X36.097 Y0.499
G1 F2400 X-36.096 Y0.5 E1889.43387
G0 F6000 X-35.976 Y0.5
G1 F2400 X-36.349 Y0.75 E1889.44943
G1 X-35.976 Y1 E1889.46807
G0 F6000 X-36.096 Y1
G1 F2400 X36.097 Y0.999 E1892.46946
G0 F6000 X35.977 Y0.999
G1 F2400 X36.35 Y1.249 E1892.48496
G1 X35.977 Y1.499 E1892.50363
G0 F6000 X36.097 Y1.499
G1 F2400 X-36.096 Y1.5 E1895.50506
G0 F6000 X-35.976 Y1.5
G1 F2400 X-36.349 Y1.75 E1895.52062
G1 X-35.976 Y2 E1895.53926
G0 F6000 X-36.096 Y2
G1 F2400 X36.097 Y1.999 E1898.54065
G0 F6000 X35.977 Y1.999
G1 F2400 X36.35 Y2.249 E1898.55615
G1 X35.977 Y2.499 E1898.57481
G0 F6000 X36.097 Y2.499
G1 F2400 X-36.096 Y2.5 E1901.57625
G0 F6000 X-35.976 Y2.5
G1 F2400 X-36.349 Y2.75 E1901.59181
G1 X-35.976 Y3 E1901.61045
G0 F6000 X-36.096 Y3
G1 F2400 X36.097 Y2.999 E1904.61184
G0 F6000 X35.977 Y2.999
G1 F2400 X36.35 Y3.249 E1904.62734
G1 X35.977 Y3.499 E1904.646
G0 F6000 X36.097 Y3.499
G1 F2400 X-36.096 Y3.5 E1907.64744
G0 F6000 X-35.976 Y3.5
G1 F2400 X-36.349 Y3.75 E1907.663
G1 X-35.976 Y4 E1907.68163
G0 F6000 X-36.096 Y4
G1 F2400 X36.097 Y3.999 E1910.68303
G0 F6000 X35.977 Y3.999
G1 F2400 X36.35 Y4.249 E1910.69852
G1 X35.977 Y4.499 E1910.71719
G0 F6000 X36.097 Y4.499
G1 F2400 X-36.096 Y4.5 E1913.71863
G0 F6000 X-35.976 Y4.5
G1 F2400 X-36.349 Y4.75 E1913.73419
G1 X-35.976 Y5 E1913.75282
G0 F6000 X-36.096 Y5
G1 F2400 X36.097 Y4.999 E1916.75422
G0 F6000 X35.977 Y4.999
G1 F2400 X36.35 Y5.249 E1916.76971
G1 X35.977 Y5.499 E1916.78838
G0 F6000 X36.097 Y5.499
G1 F2400 X-36.096 Y5.5 E1919.78982
G0 F6000 X-35.976 Y5.5
G1 F2400 X-36.349 Y5.75 E1919.80538
G1 X-35.976 Y6 E1919.82401
G0 F6000 X-36.096 Y6
G1 F2400 X36.097 Y5.999 E1922.82541
G0 F6000 X35.977 Y5.999
G1 F2400 X36.35 Y6.249 E1922.8409
G1 X35.977 Y6.499 E1922.85957
G0 F6000 X36.097 Y6.499
G1 F2400 X-36.096 Y6.5 E1925.86101
G0 F6000 X-35.976 Y6.5
G1 F2400 X-36.349 Y6.75 E1925.87657
G1 X-35.976 Y7 E1925.8952
G0 F6000 X-36.096 Y7
G1 F2400 X36.097 Y6.999 E1928.8966
G0 F6000 X35.977 Y6.999
G1 F2400 X36.35 Y7.249 E1928.91209
G1 X35.977 Y7.499 E1928.93076
G0 F6000 X36.097 Y7.499
G1 F2400 X32.873 Y7.499 E1929.0648
G0 F6000 X33.049 Y7.499
G1 F2400 X30.46 Y7.499 E1929.17244
G0 F6000 X30.638 Y7.499
G1 F2400 X-36.096 Y7.5 E1931.94691
G0 F6000 X-35.976 Y7.5
G1 F2400 X-36.349 Y7.75 E1931.96248
G1 X-35.976 Y8 E1931.98111
G0 F6000 X-36.096 Y8
G1 F2400 X30.211 Y7.999 E1934.73779
G0 F6000 X30.068 Y7.999
G1 F2400 X33.425 Y7.999 E1934.87736
G0 F6000 X33.29 Y7.999
G1 F2400 X36.097 Y7.999 E1934.99406
G0 F6000 X35.977 Y7.999
G1 F2400 X36.35 Y8.249 E1935.00956
G1 X35.977 Y8.499 E1935.02823
G0 F6000 X36.097 Y8.499
G1 F2400 X33.483 Y8.499 E1935.1369
G0 F6000 X33.606 Y8.499
G1 F2400 X29.884 Y8.499 E1935.29165
G0 F6000 X30.011 Y8.499
G1 F2400 X-36.096 Y8.5 E1938.04005
G0 F6000 X-35.976 Y8.5
G1 F2400 X-36.349 Y8.75 E1938.05562
G1 X-35.976 Y9 E1938.07425
G0 F6000 X-36.096 Y9
G1 F2400 X29.967 Y8.999 E1940.82079
G0 F6000 X29.847 Y8.999
G1 F2400 X33.644 Y8.999 E1940.97865
G0 F6000 X33.523 Y8.999
G1 F2400 X36.097 Y8.999 E1941.08566
G0 F6000 X35.977 Y8.999
G1 F2400 X36.35 Y9.249 E1941.10116
G1 X35.977 Y9.499 E1941.11983
G0 F6000 X36.097 Y9.499
G1 F2400 X33.419 Y9.499 E1941.23117
G0 F6000 X33.545 Y9.499
G1 F2400 X29.943 Y9.499 E1941.38092
G0 F6000 X30.067 Y9.499
G1 F2400 X-36.096 Y9.5 E1944.13166
G0 F6000 X-35.976 Y9.5
G1 F2400 X-36.349 Y9.75 E1944.14722
G1 X-35.976 Y10 E1944.16585
G0 F6000 X-36.096 Y10
G1 F2400 X30.358 Y9.999 E1946.92865
G0 F6000 X30.196 Y9.999
G1 F2400 X33.291 Y9.999 E1947.05732
G0 F6000 X33.148 Y9.999
G1 F2400 X36.097 Y9.999 E1947.17993
G0 F6000 X35.977 Y9.999
G1 F2400 X36.35 Y10.249 E1947.19542
G1 X35.977 Y10.499 E1947.21409
G0 F6000 X36.097 Y10.499
G1 F2400 X32.501 Y10.499 E1947.3636
G0 F6000 X32.764 Y10.499
G1 F2400 X30.748 Y10.499 E1947.44741
G0 F6000 X30.97 Y10.499
G1 F2400 X-36.096 Y10.5 E1950.23569
G0 F6000 X-35.976 Y10.5
G1 F2400 X-36.349 Y10.75 E1950.25125
G1 X-35.976 Y11 E1950.26989
G0 F6000 X-36.096 Y11
G1 F2400 X36.097 Y10.999 E1953.27128
G0 F6000 X35.977 Y10.999
G1 F2400 X36.35 Y11.249 E1953.28678
G1 X35.977 Y11.499 E1953.30544
G0 F6000 X36.097 Y11.499
G1 F2400 X-36.096 Y11.5 E1956.30688
G0 F6000 X-35.976 Y11.5
G1 F2400 X-36.349 Y11.75 E1956.32244
G1 X-35.976 Y12 E1956.34108
G0 F6000 X-36.096 Y12
G1 F2400 X36.097 Y11.999 E1959.34247
G0 F6000 X35.977 Y11.999
G1 F2400 X36.35 Y12.249 E1959.35796
G1 X35.977 Y12.499 E1959.37663
G0 F6000 X36.097 Y12.499
G1 F2400 X-36.096 Y12.5 E1962.37807
G0 F6000 X-35.976 Y12.5
G1 F2400 X-36.349 Y12.75 E1962.39363
G1 X-35.976 Y13 E1962.41226
G0 F6000 X-36.096 Y13
G1 F2400 X36.097 Y12.999 E1965.41366
G0 F6000 X35.977 Y12.999
G1 F2400 X36.35 Y13.249 E1965.42915
G1 X35.977 Y13.499 E1965.44782
G0 F6000 X36.097 Y13.499
G1 F2400 X-36.096 Y13.5 E1968.44926
G0 F6000 X-35.976 Y13.5
G1 F2400 X-36.349 Y13.75 E1968.46482
G1 X-35.976 Y14 E1968.48345
G0 F6000 X-36.096 Y14
G1 F2400 X36.097 Y13.999 E1971.48485
G0 F6000 X35.977 Y13.999
G1 F2400 X36.35 Y14.249 E1971.50034
G1 X35.976 Y14.499 E1971.51905
G0 F6000 X36.096 Y14.499
G1 F2400 X-36.097 Y14.5 E1974.52048
G0 F6000 X-35.977 Y14.5
G1 F2400 X-36.349 Y14.75 E1974.53598
G1 X-35.977 Y15 E1974.55458
G0 F6000 X-36.097 Y15
G1 F2400 X36.096 Y14.999 E1977.55597
G0 F6000 X35.976 Y14.999
G1 F2400 X36.35 Y15.249 E1977.57153
G1 X35.976 Y15.499 E1977.59024
G0 F6000 X36.096 Y15.499
G1 F2400 X-36.097 Y15.5 E1980.59167
G0 F6000 X-35.977 Y15.5
G1 F2400 X-36.349 Y15.75 E1980.60717
G1 X-35.977 Y16 E1980.62577
G0 F6000 X-36.097 Y16
G1 F2400 X36.096 Y15.999 E1983.62716
G0 F6000 X35.976 Y15.999
G1 F2400 X36.35 Y16.249 E1983.64272
G1 X35.976 Y16.499 E1983.66142
G0 F6000 X36.096 Y16.499
G1 F2400 X-36.097 Y16.5 E1986.66286
G0 F6000 X-35.977 Y16.5
G1 F2400 X-36.349 Y16.75 E1986.67836
G1 X-35.977 Y17 E1986.69696
G0 F6000 X-36.097 Y17
G1 F2400 X36.096 Y16.999 E1989.69835
G0 F6000 X35.976 Y16.999
G1 F2400 X36.35 Y17.249 E1989.71391
G1 X35.976 Y17.499 E1989.73261
G0 F6000 X36.096 Y17.499
G1 F2400 X-36.097 Y17.5 E1992.73405
G0 F6000 X-35.977 Y17.5
G1 F2400 X-36.349 Y17.75 E1992.74955
G1 X-35.977 Y18 E1992.76814
G0 F6000 X-36.097 Y18
G1 F2400 X36.096 Y17.999 E1995.76954
G0 F6000 X35.976 Y17.999
G1 F2400 X36.35 Y18.249 E1995.7851
G1 X35.976 Y18.499 E1995.8038
G0 F6000 X36.096 Y18.499
G1 F2400 X-36.097 Y18.5 E1998.80524
G0 F6000 X-35.977 Y18.5
G1 F2400 X-36.349 Y18.75 E1998.82073
G1 X-35.977 Y19 E1998.83933
G0 F6000 X-36.097 Y19
G1 F2400 X36.096 Y18.999 E2001.84073
G0 F6000 X35.976 Y18.999
G1 F2400 X36.35 Y19.249 E2001.85629
G1 X35.976 Y19.499 E2001.87499
G0 F6000 X36.096 Y19.499
G1 F2400 X-36.097 Y19.5 E2004.87643
G0 F6000 X-35.977 Y19.5
G1 F2400 X-36.349 Y19.75 E2004.89192
G1 X-35.977 Y20 E2004.91052
G0 F6000 X-36.097 Y20
G1 F2400 X36.096 Y19.999 E2007.91192
G0 F6000 X35.976 Y19.999
G1 F2400 X36.35 Y20.249 E2007.92748
G1 X35.976 Y20.499 E2007.94618
G0 F6000 X36.096 Y20.499
G1 F2400 X-36.097 Y20.5 E2010.94762
G0 F6000 X-35.977 Y20.5
G1 F2400 X-36.349 Y20.75 E2010.96311
G1 X-35.977 Y21 E2010.98171
G0 F6000 X-36.097 Y21
G1 F2400 X36.096 Y20.999 E2013.98311
G0 F6000 X35.976 Y20.999
G1 F2400 X36.35 Y21.249 E2013.99867
G1 X35.976 Y21.499 E2014.01737
G0 F6000 X36.096 Y21.499
G1 F2400 X-36.097 Y21.5 E2017.01881
G0 F6000 X-35.977 Y21.5
G1 F2400 X-36.349 Y21.75 E2017.0343
G1 X-35.977 Y22 E2017.0529
G0 F6000 X-36.097 Y22
G1 F2400 X36.096 Y21.999 E2020.0543
G0 F6000 X35.976 Y21.999
G1 F2400 X36.35 Y22.249 E2020.06986
G1 X35.976 Y22.499 E2020.08856
G0 F6000 X36.096 Y22.499
G1 F2400 X-18.339 Y22.5 E2022.3517
G0 F6000 X-18.061 Y22.5
G1 F2400 X-20.026 Y22.5 E2022.43344
G0 F6000 X-19.767 Y22.5
G1 F2400 X-36.097 Y22.5 E2023.11241
G0 F6000 X-35.977 Y22.5
G1 F2400 X-36.349 Y22.75 E2023.1279
G1 X-35.977 Y23 E2023.1465
G0 F6000 X-36.097 Y23
G1 F2400 X-20.42 Y23 E2023.79823
G0 F6000 X-20.578 Y23
G1 F2400 X-17.524 Y23 E2023.92516
G0 F6000 X-17.669 Y23
G1 F2400 X36.096 Y22.999 E2026.16041
G0 F6000 X35.976 Y22.999
G1 F2400 X36.35 Y23.249 E2026.17597
G1 X35.976 Y23.499 E2026.19467
G0 F6000 X36.096 Y23.499
G1 F2400 X-17.388 Y23.5 E2028.41828
G0 F6000 X-17.26 Y23.5
G1 F2400 X-20.85 Y23.5 E2028.56758
G0 F6000 X-20.716 Y23.5
G1 F2400 X-36.097 Y23.5 E2029.20708
G0 F6000 X-35.977 Y23.5
G1 F2400 X-36.349 Y23.75 E2029.22258
G1 X-35.977 Y24 E2029.24118
G0 F6000 X-36.097 Y24
G1 F2400 X-20.831 Y24 E2029.87582
G0 F6000 X-20.953 Y24
G1 F2400 X-17.157 Y24 E2030.0336
G0 F6000 X-17.278 Y24
G1 F2400 X36.096 Y23.999 E2032.25259
G0 F6000 X35.976 Y23.999
G1 F2400 X36.35 Y24.249 E2032.26815
G1 X35.976 Y24.499 E2032.28686
G0 F6000 X36.096 Y24.499
G1 F2400 X-17.311 Y24.5 E2034.50726
G0 F6000 X-17.188 Y24.5
G1 F2400 X-20.922 Y24.5 E2034.66255
G0 F6000 X-20.802 Y24.5
G1 F2400 X-36.097 Y24.5 E2035.29848
G0 F6000 X-35.977 Y24.5
G1 F2400 X-36.349 Y24.75 E2035.31397
G1 X-35.977 Y25 E2035.33257
G0 F6000 X-36.097 Y25
G1 F2400 X-20.608 Y25 E2035.97649
G0 F6000 X-20.752 Y25
G1 F2400 X-17.362 Y25 E2036.11739
G0 F6000 X-17.496 Y25
G1 F2400 X36.096 Y24.999 E2038.34544
G0 F6000 X35.976 Y24.999
G1 F2400 X36.35 Y25.249 E2038.361
G1 X35.976 Y25.499 E2038.37971
G0 F6000 X36.096 Y25.499
G1 F2400 X-17.904 Y25.5 E2040.62477
G0 F6000 X-17.726 Y25.5
G1 F2400 X-20.365 Y25.5 E2040.73452
G0 F6000 X-20.18 Y25.5
G1 F2400 X-36.097 Y25.5 E2041.39632
G0 F6000 X-35.977 Y25.5
G1 F2400 X-36.349 Y25.75 E2041.41181
G1 X-35.977 Y26 E2041.43041
G0 F6000 X-36.097 Y26
G1 F2400 X36.096 Y25.999 E2044.43181
G0 F6000 X35.976 Y25.999
G1 F2400 X36.35 Y26.249 E2044.44737
G1 X35.976 Y26.499 E2044.46607
G0 F6000 X36.096 Y26.499
G1 F2400 X-36.097 Y26.5 E2047.46751
G0 F6000 X-35.977 Y26.5
G1 F2400 X-36.349 Y26.75 E2047.483
G1 X-35.977 Y27 E2047.5016
G0 F6000 X-36.097 Y27
G1 F2400 X36.096 Y26.999 E2050.503
G0 F6000 X35.976 Y26.999
G1 F2400 X36.35 Y27.249 E2050.51856
G1 X35.976 Y27.499 E2050.53726
G0 F6000 X36.096 Y27.499
G1 F2400 X-36.097 Y27.5 E2053.5387
G0 F6000 X-35.977 Y27.5
G1 F2400 X-36.318 Y27.75 E2053.5542
G1 X-35.977 Y28 E2053.57174
G0 F6000 X-36.097 Y28
G1 F2400 X36.096 Y27.999 E2056.57314
G0 F6000 X35.976 Y27.999
G1 F2400 X36.288 Y27.999 E2056.58611
G0 F6000 X35.941 Y28.499
G1 F2400 X-35.928 Y28.5 E2059.57407
G0 F6000 X-19.363 Y26
G0 X-19.363 Y26
G1 F2400 X-18.648 Y26 E2059.60376
G0 F6000 X-19.92 Y-26
G1 F2400 X-20.633 Y-26 E2059.63344
G0 F6000 X31.519 Y6.999
G0 X31.519 Y6.999
G1 F2400 X31.936 Y6.999 E2059.65078
; LAYER:5
G0 F6000 X36.54 Y27.618 Z1.3
G0 X36.54 Y27.618
; TYPE:WALL-INNER
G1 F2400 X36.487 Y28.02 E2059.66764
G1 X36.371 Y28.293 E2059.67997
G1 X36.28 Y28.43 E2059.68681
G1 X36.174 Y28.55 E2059.69346
G1 X36.032 Y28.672 E2059.70125
G1 X35.902 Y28.757 E2059.7077
G1 X35.759 Y28.825 E2059.71429
G1 X35.598 Y28.873 E2059.72127
G1 X35.238 Y28.92 E2059.73637
G1 X-35.293 Y28.913 E2062.66871
G1 X-35.649 Y28.862 E2062.6837
G1 X-35.782 Y28.815 E2062.6896
G1 X-35.926 Y28.741 E2062.69637
G1 X-36.168 Y28.556 E2062.70907
G1 X-36.279 Y28.43 E2062.71608
G1 X-36.37 Y28.293 E2062.72294
G1 X-36.486 Y28.02 E2062.73529
G1 X-36.539 Y27.618 E2062.75215
G1 X-36.539 Y-27.617 E2065.04855
G1 X-36.486 Y-28.019 E2065.06545
G1 X-36.445 Y-28.141 E2065.07082
G1 X-36.366 Y-28.301 E2065.07826
G1 X-36.284 Y-28.424 E2065.08442
G1 X-36.158 Y-28.563 E2065.09222
G1 X-36.035 Y-28.669 E2065.09897
G1 X-35.901 Y-28.756 E2065.1056
G1 X-35.758 Y-28.824 E2065.11216
G1 X-35.597 Y-28.872 E2065.11912
G1 X-35.237 Y-28.919 E2065.13418
G1 X35.294 Y-28.912 E2068.06648
G1 X35.65 Y-28.861 E2068.08142
G1 X35.781 Y-28.815 E2068.08718
G1 X35.931 Y-28.738 E2068.09417
G1 X36.177 Y-28.547 E2068.10709
G1 X36.282 Y-28.428 E2068.11366
G1 X36.367 Y-28.301 E2068.11998
G1 X36.446 Y-28.141 E2068.12736
G1 X36.487 Y-28.019 E2068.13267
G1 X36.54 Y-27.617 E2068.14949
G1 X36.54 Y27.618 E2070.44585
G0 F6000 X37.04 Y27.652
; TYPE:WALL-OUTER
G1 F2100 X36.977 Y28.131 E2070.46594
G1 X36.906 Y28.34 E2070.47512
G1 X36.806 Y28.543 E2070.48452
G1 X36.678 Y28.735 E2070.49412
G1 X36.529 Y28.905 E2070.50352
G1 X36.334 Y29.072 E2070.51419
G1 X36.145 Y29.194 E2070.52354
G1 X35.938 Y29.293 E2070.53308
G1 X35.701 Y29.364 E2070.54337
G1 X35.272 Y29.42 E2070.56135
G1 X-35.329 Y29.413 E2073.4966
G1 X-35.768 Y29.35 E2073.51508
G1 X-35.979 Y29.275 E2073.52443
G1 X-36.184 Y29.171 E2073.53403
G1 X-36.373 Y29.041 E2073.5436
G1 X-36.526 Y28.907 E2073.55208
G1 X-36.677 Y28.735 E2073.56163
G1 X-36.805 Y28.543 E2073.57124
G1 X-36.905 Y28.34 E2073.58067
G1 X-36.976 Y28.131 E2073.58986
G1 X-37.039 Y27.652 E2073.60995
G1 X-37.039 Y-27.651 E2075.90918
G1 X-36.976 Y-28.13 E2075.92931
G1 X-36.905 Y-28.339 E2075.93851
G1 X-36.803 Y-28.547 E2075.94816
G1 X-36.68 Y-28.731 E2075.95737
G1 X-36.507 Y-28.923 E2075.96812
G1 X-36.337 Y-29.068 E2075.97741
G1 X-36.144 Y-29.193 E2075.98695
G1 X-35.937 Y-29.292 E2075.99647
G1 X-35.7 Y-29.363 E2076.00673
G1 X-35.271 Y-29.419 E2076.02468
G1 X35.33 Y-29.412 E2078.95989
G1 X35.769 Y-29.349 E2078.97832
G1 X35.984 Y-29.273 E2078.98779
G1 X36.184 Y-29.171 E2078.99711
G1 X36.374 Y-29.04 E2079.00668
G1 X36.531 Y-28.902 E2079.01534
G1 X36.678 Y-28.736 E2079.02453
G1 X36.804 Y-28.547 E2079.03394
G1 X36.906 Y-28.339 E2079.04353
G1 X36.977 Y-28.13 E2079.05267
G1 X37.04 Y-27.651 E2079.07271
G1 X37.04 Y27.652 E2081.3719
G0 F6000 X36 Y28.372
; TYPE:FILL
G1 F2400 X36 Y-28.444 E2083.73404
G0 F6000 X36 Y-28.44
G1 F2400 X36 Y28.444 E2086.09896
G0 F6000 X36 Y28.443
G1 F2400 X36 Y28.418 E2086.1
G0 F6000 X35.5 Y28.477
G1 F2400 X35.5 Y-28.474 E2088.46775
G0 F6000 X35.5 Y-28.354
G1 F2400 X35.25 Y-28.705 E2088.48175
G1 X35 Y-28.354 E2088.49963
G0 F6000 X35 Y-28.474
G1 F2400 X35 Y28.477 E2090.86733
G0 F6000 X35 Y28.357
G1 F2400 X34.75 Y28.729 E2090.8828
G1 X34.5 Y28.357 E2090.90143
G0 F6000 X34.5 Y28.477
G1 F2400 X34.5 Y-28.474 E2093.26918
G0 F6000 X34.5 Y-28.354
G1 F2400 X34.25 Y-28.721 E2093.2845
G1 X34 Y-28.354 E2093.30292
G0 F6000 X34 Y-28.474
G1 F2400 X34 Y28.477 E2095.67063
G0 F6000 X34 Y28.357
G1 F2400 X33.75 Y28.729 E2095.6861
G1 X33.5 Y28.357 E2095.70473
G0 F6000 X33.5 Y28.477
G1 F2400 X33.5 Y9.245 E2096.5043
G0 F6000 X33.5 Y9.64
G1 F2400 X33.5 Y8.144 E2096.5665
G0 F6000 X33.5 Y8.577
G1 F2400 X33.5 Y-18.718 E2097.70129
G0 F6000 X33.5 Y-18.285
G1 F2400 X33.5 Y-19.809 E2097.7647
G0 F6000 X33.5 Y-19.381
G1 F2400 X33.5 Y-28.474 E2098.14278
G0 F6000 X33.5 Y-28.354
G1 F2400 X33.25 Y-28.721 E2098.1581
G1 X33 Y-28.354 E2098.17652
G0 F6000 X33 Y-28.474
G1 F2400 X33 Y-20.31 E2098.5159
G0 F6000 X33 Y-20.48
G1 F2400 X33 Y-17.617 E2098.63489
G0 F6000 X33 Y-17.787
G1 F2400 X33 Y7.623 E2099.69127
G0 F6000 X33 Y7.446
G1 F2400 X33 Y10.315 E2099.81055
G0 F6000 X33 Y10.153
G1 F2400 X33 Y28.477 E2100.57238
G0 F6000 X33 Y28.357
G1 F2400 X32.75 Y28.729 E2100.58784
G1 X32.5 Y28.357 E2100.60648
G0 F6000 X32.5 Y28.477
G1 F2400 X32.5 Y10.5 E2101.35387
G0 F6000 X32.5 Y10.635
G1 F2400 X32.5 Y7.139 E2101.49922
G0 F6000 X32.5 Y7.265
G1 F2400 X32.499 Y-17.43 E2102.52592
G0 F6000 X32.499 Y-17.292
G1 F2400 X32.499 Y-20.806 E2102.67206
G0 F6000 X32.499 Y-20.667
G1 F2400 X32.499 Y-28.474 E2102.99667
G0 F6000 X32.499 Y-28.354
G1 F2400 X32.249 Y-28.721 E2103.01199
G1 X31.999 Y-28.354 E2103.03042
G0 F6000 X31.999 Y-28.474
G1 F2400 X31.999 Y-20.82 E2103.34859
G0 F6000 X31.999 Y-20.943
G1 F2400 X31.999 Y-17.152 E2103.50616
G0 F6000 X31.999 Y-17.276
G1 F2400 X32 Y7.123 E2104.52051
G0 F6000 X32 Y7.002
G1 F2400 X32 Y10.774 E2104.67733
G0 F6000 X32 Y10.651
G1 F2400 X32 Y28.477 E2105.41845
G0 F6000 X32 Y28.357
G1 F2400 X31.75 Y28.729 E2105.43392
G1 X31.5 Y28.357 E2105.45255
G0 F6000 X31.5 Y28.477
G1 F2400 X31.5 Y10.655 E2106.19351
G0 F6000 X31.5 Y10.776
G1 F2400 X31.5 Y7.003 E2106.35037
G0 F6000 X31.5 Y7.126
G1 F2400 X31.499 Y-17.276 E2107.36489
G0 F6000 X31.499 Y-17.153
G1 F2400 X31.499 Y-20.944 E2107.52254
G0 F6000 X31.499 Y-20.82
G1 F2400 X31.499 Y-28.474 E2107.8408
G0 F6000 X31.499 Y-28.354
G1 F2400 X31.249 Y-28.721 E2107.85611
G1 X30.999 Y-28.354 E2107.87454
G0 F6000 X30.999 Y-28.474
G1 F2400 X30.999 Y-20.666 E2108.19912
G0 F6000 X30.999 Y-20.804
G1 F2400 X30.999 Y-17.292 E2108.34509
G0 F6000 X30.999 Y-17.43
G1 F2400 X31 Y7.278 E2109.37229
G0 F6000 X31 Y7.142
G1 F2400 X31 Y10.639 E2109.51767
G0 F6000 X31 Y10.513
G1 F2400 X31 Y28.477 E2110.26453
G0 F6000 X31 Y28.357
G1 F2400 X30.75 Y28.728 E2110.28
G1 X30.5 Y28.357 E2110.2986
G0 F6000 X30.5 Y28.477
G1 F2400 X30.5 Y10.155 E2111.06034
G0 F6000 X30.5 Y10.332
G1 F2400 X30.5 Y7.463 E2111.17962
G0 F6000 X30.5 Y7.625
G1 F2400 X30.499 Y-17.787 E2112.23613
G0 F6000 X30.499 Y-17.616
G1 F2400 X30.499 Y-20.479 E2112.3552
G0 F6000 X30.499 Y-20.309
G1 F2400 X30.499 Y-28.474 E2112.69471
G0 F6000 X30.499 Y-28.354
G1 F2400 X30.249 Y-28.722 E2112.71005
G1 X29.999 Y-28.354 E2112.72851
G0 F6000 X29.999 Y-28.474
G1 F2400 X29.999 Y-19.378 E2113.10664
G0 F6000 X29.999 Y-19.811
G1 F2400 X29.999 Y-18.287 E2113.16996
G0 F6000 X29.999 Y-18.716
G1 F2400 X30 Y8.532 E2114.30275
G0 F6000 X30 Y8.137
G1 F2400 X30 Y9.632 E2114.36491
G0 F6000 X30 Y9.196
G1 F2400 X30 Y28.477 E2115.16652
G0 F6000 X30 Y28.357
G1 F2400 X29.75 Y28.728 E2115.18192
G1 X29.5 Y28.357 E2115.20052
G0 F6000 X29.5 Y28.477
G1 F2400 X29.499 Y-28.474 E2117.56827
G0 F6000 X29.499 Y-28.354
G1 F2400 X29.249 Y-28.722 E2117.58361
G1 X28.999 Y-28.354 E2117.60207
G0 F6000 X28.999 Y-28.474
G1 F2400 X29 Y28.477 E2119.96978
G0 F6000 X29 Y28.357
G1 F2400 X28.75 Y28.728 E2119.98518
G1 X28.5 Y28.357 E2120.00378
G0 F6000 X28.5 Y28.477
G1 F2400 X28.499 Y-28.474 E2122.37153
G0 F6000 X28.499 Y-28.354
G1 F2400 X28.249 Y-28.722 E2122.38687
G1 X27.999 Y-28.354 E2122.40533
G0 F6000 X27.999 Y-28.474
G1 F2400 X28 Y28.477 E2124.77304
G0 F6000 X28 Y28.357
G1 F2400 X27.75 Y28.728 E2124.78844
G1 X27.5 Y28.357 E2124.80704
G0 F6000 X27.5 Y28.477
G1 F2400 X27.499 Y-28.474 E2127.17478
G0 F6000 X27.499 Y-28.354
G1 F2400 X27.249 Y-28.722 E2127.19013
G1 X26.999 Y-28.354 E2127.20859
G0 F6000 X26.999 Y-28.474
G1 F2400 X27 Y28.477 E2129.5763
G0 F6000 X27 Y28.357
G1 F2400 X26.75 Y28.728 E2129.5917
G1 X26.5 Y28.357 E2129.6103
G0 F6000 X26.5 Y28.477
G1 F2400 X26.499 Y-28.474 E2131.97804
G0 F6000 X26.499 Y-28.354
G1 F2400 X26.249 Y-28.722 E2131.99339
G1 X25.999 Y-28.354 E2132.01185
G0 F6000 X25.999 Y-28.474
G1 F2400 X26 Y28.477 E2134.37955
G0 F6000 X26 Y28.357
G1 F2400 X25.75 Y28.728 E2134.39495
G1 X25.5 Y28.357 E2134.41355
G0 F6000 X25.5 Y28.477
G1 F2400 X25.499 Y-28.474 E2136.7813
G0 F6000 X25.499 Y-28.354
G1 F2400 X25.249 Y-28.722 E2136.79665
G1 X24.999 Y-28.354 E2136.81511
G0 F6000 X24.999 Y-28.474
G1 F2400 X25 Y28.477 E2139.18281
G0 F6000 X25 Y28.357
G1 F2400 X24.75 Y28.728 E2139.19821
G1 X24.5 Y28.357 E2139.21681
G0 F6000 X24.5 Y28.477
G1 F2400 X24.499 Y-28.474 E2141.58456
G0 F6000 X24.499 Y-28.354
G1 F2400 X24.249 Y-28.722 E2141.5999
G1 X23.999 Y-28.354 E2141.61837
G0 F6000 X23.999 Y-28.474
G1 F2400 X24 Y28.477 E2143.98607
G0 F6000 X24 Y28.357
G1 F2400 X23.75 Y28.728 E2144.00147
G1 X23.5 Y28.356 E2144.02011
G0 F6000 X23.5 Y28.476
G1 F2400 X23.499 Y-28.475 E2146.38785
G0 F6000 X23.499 Y-28.355
G1 F2400 X23.249 Y-28.722 E2146.40317
G1 X22.999 Y-28.355 E2146.4216
G0 F6000 X22.999 Y-28.475
G1 F2400 X23 Y28.476 E2148.7893
G0 F6000 X23 Y28.356
G1 F2400 X22.75 Y28.728 E2148.80477
G1 X22.5 Y28.356 E2148.8234
G0 F6000 X22.5 Y28.476
G1 F2400 X22.499 Y-28.475 E2151.19115
G0 F6000 X22.499 Y-28.355
G1 F2400 X22.249 Y-28.722 E2151.20646
G1 X21.999 Y-28.355 E2151.22489
G0 F6000 X21.999 Y-28.475
G1 F2400 X22 Y28.476 E2153.5926
G0 F6000 X22 Y28.356
G1 F2400 X21.75 Y28.727 E2153.608
G1 X21.5 Y28.356 E2153.6266
G0 F6000 X21.5 Y28.476
G1 F2400 X21.499 Y-28.475 E2155.99434
G0 F6000 X21.499 Y-28.355
G1 F2400 X21.249 Y-28.723 E2156.00969
G1 X20.999 Y-28.355 E2156.02815
G0 F6000 X20.999 Y-28.475
G1 F2400 X21 Y28.476 E2158.39586
G0 F6000 X21 Y28.356
G1 F2400 X20.75 Y28.727 E2158.41126
G1 X20.5 Y28.356 E2158.42986
G0 F6000 X20.5 Y28.476
G1 F2400 X20.499 Y-28.475 E2160.7976
G0 F6000 X20.499 Y-28.355
G1 F2400 X20.249 Y-28.723 E2160.81295
G1 X19.999 Y-28.355 E2160.83141
G0 F6000 X19.999 Y-28.475
G1 F2400 X20 Y28.476 E2163.19911
G0 F6000 X20 Y28.356
G1 F2400 X19.75 Y28.727 E2163.21451
G1 X19.5 Y28.356 E2163.23311
G0 F6000 X19.5 Y28.476
G1 F2400 X19.499 Y-28.475 E2165.60086
G0 F6000 X19.499 Y-28.355
G1 F2400 X19.249 Y-28.723 E2165.61621
G1 X18.999 Y-28.355 E2165.63467
G0 F6000 X18.999 Y-28.475
G1 F2400 X19 Y28.476 E2168.00237
G0 F6000 X19 Y28.356
G1 F2400 X18.75 Y28.727 E2168.01777
G1 X18.5 Y28.356 E2168.03637
G0 F6000 X18.5 Y28.476
G1 F2400 X18.499 Y-28.475 E2170.40412
G0 F6000 X18.499 Y-28.355
G1 F2400 X18.249 Y-28.723 E2170.41946
G1 X17.999 Y-28.355 E2170.43793
G0 F6000 X17.999 Y-28.475
G1 F2400 X18 Y28.476 E2172.80563
G0 F6000 X18 Y28.356
G1 F2400 X17.75 Y28.727 E2172.82103
G1 X17.5 Y28.356 E2172.83963
G0 F6000 X17.5 Y28.476
G1 F2400 X17.499 Y-28.475 E2175.20738
G0 F6000 X17.499 Y-28.355
G1 F2400 X17.249 Y-28.723 E2175.22272
G1 X16.999 Y-28.355 E2175.24118
G0 F6000 X16.999 Y-28.475
G1 F2400 X17 Y28.476 E2177.60889
G0 F6000 X17 Y28.356
G1 F2400 X16.75 Y28.727 E2177.62429
G1 X16.5 Y28.356 E2177.64289
G0 F6000 X16.5 Y28.476
G1 F2400 X16.499 Y-28.475 E2180.01064
G0 F6000 X16.499 Y-28.355
G1 F2400 X16.249 Y-28.723 E2180.02598
G1 X15.999 Y-28.355 E2180.04444
G0 F6000 X15.999 Y-28.475
G1 F2400 X16 Y28.476 E2182.41215
G0 F6000 X16 Y28.356
G1 F2400 X15.75 Y28.727 E2182.42755
G1 X15.5 Y28.356 E2182.44615
G0 F6000 X15.5 Y28.476
G1 F2400 X15.499 Y-28.475 E2184.8139
G0 F6000 X15.499 Y-28.355
G1 F2400 X15.249 Y-28.723 E2184.82924
G1 X14.999 Y-28.355 E2184.8477
G0 F6000 X14.999 Y-28.475
G1 F2400 X15 Y28.476 E2187.21541
G0 F6000 X15 Y28.356
G1 F2400 X14.75 Y28.727 E2187.23081
G1 X14.5 Y28.357 E2187.24937
G0 F6000 X14.5 Y28.477
G1 F2400 X14.499 Y-28.475 E2189.61716
G0 F6000 X14.499 Y-28.355
G1 F2400 X14.249 Y-28.723 E2189.6325
G1 X13.999 Y-28.355 E2189.65097
G0 F6000 X13.999 Y-28.475
G1 F2400 X14 Y28.477 E2192.01871
G0 F6000 X14 Y28.357
G1 F2400 X13.75 Y28.728 E2192.03411
G1 X13.5 Y28.357 E2192.05271
G0 F6000 X13.5 Y28.477
G1 F2400 X13.499 Y-28.475 E2194.4205
G0 F6000 X13.499 Y-28.355
G1 F2400 X13.249 Y-28.723 E2194.43585
G1 X12.999 Y-28.355 E2194.45431
G0 F6000 X12.999 Y-28.475
G1 F2400 X13 Y28.477 E2196.82206
G0 F6000 X13 Y28.357
G1 F2400 X12.75 Y28.727 E2196.83743
G1 X12.5 Y28.357 E2196.85599
G0 F6000 X12.5 Y28.477
G1 F2400 X12.499 Y-28.475 E2199.22378
G0 F6000 X12.499 Y-28.355
G1 F2400 X12.249 Y-28.724 E2199.23915
G1 X11.999 Y-28.355 E2199.25765
G0 F6000 X11.999 Y-28.475
G1 F2400 X12 Y28.477 E2201.6254
G0 F6000 X12 Y28.357
G1 F2400 X11.75 Y28.727 E2201.64077
G1 X11.5 Y28.357 E2201.65933
G0 F6000 X11.5 Y28.477
G1 F2400 X11.499 Y-28.475 E2204.02712
G0 F6000 X11.499 Y-28.355
G1 F2400 X11.249 Y-28.724 E2204.04249
G1 X10.999 Y-28.355 E2204.06099
G0 F6000 X10.999 Y-28.475
G1 F2400 X11 Y28.477 E2206.42874
G0 F6000 X11 Y28.357
G1 F2400 X10.75 Y28.727 E2206.44411
G1 X10.5 Y28.357 E2206.46268
G0 F6000 X10.5 Y28.477
G1 F2400 X10.499 Y-28.475 E2208.83046
G0 F6000 X10.499 Y-28.355
G1 F2400 X10.249 Y-28.724 E2208.84584
G1 X9.999 Y-28.355 E2208.86433
G0 F6000 X9.999 Y-28.475
G1 F2400 X10 Y28.477 E2211.23208
G0 F6000 X10 Y28.357
G1 F2400 X9.75 Y28.727 E2211.24745
G1 X9.5 Y28.357 E2211.26602
G0 F6000 X9.5 Y28.477
G1 F2400 X9.499 Y-28.475 E2213.63381
G0 F6000 X9.499 Y-28.355
G1 F2400 X9.249 Y-28.724 E2213.64918
G1 X8.999 Y-28.355 E2213.66767
G0 F6000 X8.999 Y-28.475
G1 F2400 X9 Y28.477 E2216.03542
G0 F6000 X9 Y28.357
G1 F2400 X8.75 Y28.727 E2216.05079
G1 X8.5 Y28.357 E2216.06936
G0 F6000 X8.5 Y28.477
G1 F2400 X8.499 Y-28.475 E2218.43715
G0 F6000 X8.499 Y-28.355
G1 F2400 X8.249 Y-28.724 E2218.45252
G1 X7.999 Y-28.355 E2218.47102
G0 F6000 X7.999 Y-28.475
G1 F2400 X8 Y28.477 E2220.83876
G0 F6000 X8 Y28.357
G1 F2400 X7.75 Y28.727 E2220.85413
G1 X7.5 Y28.357 E2220.8727
G0 F6000 X7.5 Y28.477
G1 F2400 X7.499 Y-28.475 E2223.24049
G0 F6000 X7.499 Y-28.355
G1 F2400 X7.249 Y-28.724 E2223.25586
G1 X6.999 Y-28.355 E2223.27436
G0 F6000 X6.999 Y-28.475
G1 F2400 X7 Y28.477 E2225.6421
G0 F6000 X7 Y28.357
G1 F2400 X6.75 Y28.727 E2225.65748
G1 X6.5 Y28.357 E2225.67604
G0 F6000 X6.5 Y28.477
G1 F2400 X6.499 Y-28.475 E2228.04383
G0 F6000 X6.499 Y-28.355
G1 F2400 X6.249 Y-28.724 E2228.0592
G1 X5.999 Y-28.355 E2228.0777
G0 F6000 X5.999 Y-28.475
G1 F2400 X6 Y28.477 E2230.44545
G0 F6000 X6 Y28.357
G1 F2400 X5.75 Y28.727 E2230.46082
G1 X5.5 Y28.357 E2230.47938
G0 F6000 X5.5 Y28.477
G1 F2400 X5.499 Y-28.475 E2232.84717
G0 F6000 X5.499 Y-28.355
G1 F2400 X5.249 Y-28.724 E2232.86254
G1 X4.999 Y-28.355 E2232.88104
G0 F6000 X4.999 Y-28.475
G1 F2400 X5 Y28.477 E2235.24879
G0 F6000 X5 Y28.357
G1 F2400 X4.75 Y28.727 E2235.26416
G1 X4.5 Y28.357 E2235.28272
G0 F6000 X4.5 Y28.477
G1 F2400 X4.499 Y-28.475 E2237.65051
G0 F6000 X4.499 Y-28.355
G1 F2400 X4.249 Y-28.724 E2237.66589
G1 X3.999 Y-28.355 E2237.68438
G0 F6000 X3.999 Y-28.475
G1 F2400 X4 Y28.477 E2240.05213
G0 F6000 X4 Y28.357
G1 F2400 X3.75 Y28.726 E2240.06747
G1 X3.5 Y28.357 E2240.086
G0 F6000 X3.5 Y28.477
G1 F2400 X3.499 Y-28.475 E2242.45379
G0 F6000 X3.499 Y-28.355
G1 F2400 X3.249 Y-28.725 E2242.46919
G1 X2.999 Y-28.355 E2242.48772
G0 F6000 X2.999 Y-28.475
G1 F2400 X3 Y28.477 E2244.85547
G0 F6000 X3 Y28.357
G1 F2400 X2.75 Y28.726 E2244.87081
G1 X2.5 Y28.357 E2244.88934
G0 F6000 X2.5 Y28.477
G1 F2400 X2.499 Y-28.475 E2247.25713
G0 F6000 X2.499 Y-28.355
G1 F2400 X2.249 Y-28.725 E2247.27253
G1 X1.999 Y-28.355 E2247.29106
G0 F6000 X1.999 Y-28.475
G1 F2400 X2 Y28.477 E2249.65881
G0 F6000 X2 Y28.357
G1 F2400 X1.75 Y28.726 E2249.67416
G1 X1.5 Y28.357 E2249.69269
G0 F6000 X1.5 Y28.477
G1 F2400 X1.499 Y-28.475 E2252.06048
G0 F6000 X1.499 Y-28.355
G1 F2400 X1.249 Y-28.725 E2252.07588
G1 X0.999 Y-28.355 E2252.09441
G0 F6000 X0.999 Y-28.475
G1 F2400 X1 Y28.477 E2254.46215
G0 F6000 X1 Y28.357
G1 F2400 X0.75 Y28.726 E2254.4775
G1 X0.5 Y28.357 E2254.49603
G0 F6000 X0.5 Y28.477
G1 F2400 X0.499 Y-28.475 E2256.86382
G0 F6000 X0.499 Y-28.355
G1 F2400 X0.249 Y-28.725 E2256.87922
G1 X0 Y-28.355 E2256.89772
G0 F6000 X0 Y-28.476
G1 F2400 X0 Y28.477 E2259.26551
G0 F6000 X0 Y28.356
G1 F2400 X-0.249 Y28.726 E2259.2809
G1 X-0.499 Y28.356 E2259.29949
G0 F6000 X-0.499 Y28.476
G1 F2400 X-0.5 Y-28.476 E2261.66728
G0 F6000 X-0.5 Y-28.356
G1 F2400 X-0.75 Y-28.725 E2261.68263
G1 X-1 Y-28.356 E2261.70115
G0 F6000 X-1 Y-28.476
G1 F2400 X-0.999 Y28.476 E2264.0689
G0 F6000 X-0.999 Y28.356
G1 F2400 X-1.249 Y28.726 E2264.08426
G1 X-1.499 Y28.356 E2264.10284
G0 F6000 X-1.499 Y28.476
G1 F2400 X-1.5 Y-28.476 E2266.47063
G0 F6000 X-1.5 Y-28.356
G1 F2400 X-1.75 Y-28.725 E2266.48599
G1 X-2 Y-28.356 E2266.50451
G0 F6000 X-2 Y-28.476
G1 F2400 X-1.999 Y28.476 E2268.87225
G0 F6000 X-1.999 Y28.356
G1 F2400 X-2.249 Y28.726 E2268.88761
G1 X-2.499 Y28.356 E2268.9062
G0 F6000 X-2.499 Y28.476
G1 F2400 X-2.5 Y-28.476 E2271.27399
G0 F6000 X-2.5 Y-28.356
G1 F2400 X-2.75 Y-28.725 E2271.28934
G1 X-3 Y-28.356 E2271.30786
G0 F6000 X-3 Y-28.476
G1 F2400 X-2.999 Y28.476 E2273.67561
G0 F6000 X-2.999 Y28.356
G1 F2400 X-3.249 Y28.726 E2273.69096
G1 X-3.499 Y28.356 E2273.70955
G0 F6000 X-3.499 Y28.476
G1 F2400 X-3.5 Y-28.476 E2276.07734
G0 F6000 X-3.5 Y-28.356
G1 F2400 X-3.75 Y-28.725 E2276.09269
G1 X-4 Y-28.356 E2276.11121
G0 F6000 X-4 Y-28.476
G1 F2400 X-3.999 Y28.476 E2278.47896
G0 F6000 X-3.999 Y28.356
G1 F2400 X-4.249 Y28.725 E2278.49432
G1 X-4.499 Y28.356 E2278.51288
G0 F6000 X-4.499 Y28.476
G1 F2400 X-4.5 Y-28.476 E2280.88066
G0 F6000 X-4.5 Y-28.356
G1 F2400 X-4.75 Y-28.726 E2280.89608
G1 X-5 Y-28.356 E2280.91464
G0 F6000 X-5 Y-28.476
G1 F2400 X-4.999 Y28.476 E2283.28239
G0 F6000 X-4.999 Y28.356
G1 F2400 X-5.249 Y28.725 E2283.29771
G1 X-5.499 Y28.356 E2283.31627
G0 F6000 X-5.499 Y28.476
G1 F2400 X-5.5 Y-28.476 E2285.68405
G0 F6000 X-5.5 Y-28.356
G1 F2400 X-5.75 Y-28.726 E2285.69947
G1 X-6 Y-28.356 E2285.71803
G0 F6000 X-6 Y-28.476
G1 F2400 X-5.999 Y28.476 E2288.08578
G0 F6000 X-5.999 Y28.356
G1 F2400 X-6.249 Y28.725 E2288.1011
G1 X-6.499 Y28.356 E2288.11966
G0 F6000 X-6.499 Y28.476
G1 F2400 X-6.5 Y-28.476 E2290.48744
G0 F6000 X-6.5 Y-28.356
G1 F2400 X-6.75 Y-28.726 E2290.50286
G1 X-7 Y-28.356 E2290.52142
G0 F6000 X-7 Y-28.476
G1 F2400 X-6.999 Y28.476 E2292.88917
G0 F6000 X-6.999 Y28.356
G1 F2400 X-7.249 Y28.725 E2292.90449
G1 X-7.499 Y28.356 E2292.92304
G0 F6000 X-7.499 Y28.476
G1 F2400 X-7.5 Y-28.476 E2295.29083
G0 F6000 X-7.5 Y-28.356
G1 F2400 X-7.75 Y-28.726 E2295.30625
G1 X-8 Y-28.356 E2295.32481
G0 F6000 X-8 Y-28.476
G1 F2400 X-7.999 Y28.476 E2297.69255
G0 F6000 X-7.999 Y28.356
G1 F2400 X-8.249 Y28.725 E2297.70788
G1 X-8.499 Y28.356 E2297.72643
G0 F6000 X-8.499 Y28.476
G1 F2400 X-8.5 Y-28.476 E2300.09422
G0 F6000 X-8.5 Y-28.356
G1 F2400 X-8.75 Y-28.726 E2300.10964
G1 X-9 Y-28.356 E2300.1282
G0 F6000 X-9 Y-28.476
G1 F2400 X-8.999 Y28.476 E2302.49594
G0 F6000 X-8.999 Y28.356
G1 F2400 X-9.249 Y28.725 E2302.51127
G1 X-9.499 Y28.356 E2302.52982
G0 F6000 X-9.499 Y28.476
G1 F2400 X-9.5 Y-28.476 E2304.89761
G0 F6000 X-9.5 Y-28.356
G1 F2400 X-9.75 Y-28.726 E2304.91303
G1 X-10 Y-28.356 E2304.93159
G0 F6000 X-10 Y-28.476
G1 F2400 X-9.999 Y28.476 E2307.29933
G0 F6000 X-9.999 Y28.356
G1 F2400 X-10.249 Y28.725 E2307.31466
G1 X-10.499 Y28.356 E2307.33321
G0 F6000 X-10.499 Y28.476
G1 F2400 X-10.5 Y-28.476 E2309.701
G0 F6000 X-10.5 Y-28.356
G1 F2400 X-10.75 Y-28.726 E2309.71642
G1 X-11 Y-28.356 E2309.73498
G0 F6000 X-11 Y-28.476
G1 F2400 X-10.999 Y28.476 E2312.10272
G0 F6000 X-10.999 Y28.356
G1 F2400 X-11.249 Y28.725 E2312.11805
G1 X-11.499 Y28.356 E2312.1366
G0 F6000 X-11.499 Y28.476
G1 F2400 X-11.5 Y-28.476 E2314.50439
G0 F6000 X-11.5 Y-28.356
G1 F2400 X-11.75 Y-28.726 E2314.51981
G1 X-12 Y-28.356 E2314.53837
G0 F6000 X-12 Y-28.476
G1 F2400 X-11.999 Y28.476 E2316.90611
G0 F6000 X-11.999 Y28.356
G1 F2400 X-12.249 Y28.725 E2316.92144
G1 X-12.499 Y28.356 E2316.93999
G0 F6000 X-12.499 Y28.476
G1 F2400 X-12.5 Y-28.476 E2319.30778
G0 F6000 X-12.5 Y-28.356
G1 F2400 X-12.75 Y-28.726 E2319.3232
G1 X-13 Y-28.356 E2319.34176
G0 F6000 X-13 Y-28.476
G1 F2400 X-12.999 Y28.476 E2321.7095
G0 F6000 X-12.999 Y28.356
G1 F2400 X-13.249 Y28.724 E2321.72484
G1 X-13.499 Y28.356 E2321.74336
G0 F6000 X-13.499 Y28.476
G1 F2400 X-13.5 Y-28.476 E2324.11115
G0 F6000 X-13.5 Y-28.356
G1 F2400 X-13.75 Y-28.727 E2324.12663
G1 X-14 Y-28.356 E2324.14522
G0 F6000 X-14 Y-28.476
G1 F2400 X-13.999 Y28.476 E2326.51297
G0 F6000 X-13.999 Y28.356
G1 F2400 X-14.249 Y28.724 E2326.52826
G1 X-14.499 Y28.356 E2326.54678
G0 F6000 X-14.499 Y28.476
G1 F2400 X-14.5 Y-28.476 E2328.91457
G0 F6000 X-14.5 Y-28.356
G1 F2400 X-14.75 Y-28.726 E2328.93007
G1 X-15 Y-28.355 E2328.94866
G0 F6000 X-15 Y-28.475
G1 F2400 X-14.999 Y28.476 E2331.31636
G0 F6000 X-14.999 Y28.356
G1 F2400 X-15.249 Y28.724 E2331.33166
G1 X-15.499 Y28.356 E2331.35018
G0 F6000 X-15.499 Y28.476
G1 F2400 X-15.5 Y-28.475 E2333.71793
G0 F6000 X-15.5 Y-28.355
G1 F2400 X-15.75 Y-28.726 E2333.73341
G1 X-16 Y-28.355 E2333.752
G0 F6000 X-16 Y-28.475
G1 F2400 X-15.999 Y28.476 E2336.11971
G0 F6000 X-15.999 Y28.356
G1 F2400 X-16.249 Y28.724 E2336.135
G1 X-16.499 Y28.356 E2336.15352
G0 F6000 X-16.499 Y28.476
G1 F2400 X-16.5 Y-28.475 E2338.52127
G0 F6000 X-16.5 Y-28.355
G1 F2400 X-16.75 Y-28.726 E2338.53676
G1 X-17 Y-28.355 E2338.55534
G0 F6000 X-17 Y-28.475
G1 F2400 X-16.999 Y28.476 E2340.92305
G0 F6000 X-16.999 Y28.356
G1 F2400 X-17.249 Y28.724 E2340.93835
G1 X-17.499 Y28.356 E2340.95687
G0 F6000 X-17.499 Y28.476
G1 F2400 X-17.499 Y25.008 E2341.10105
G0 F6000 X-17.499 Y25.235
G1 F2400 X-17.499 Y23.034 E2341.19256
G0 F6000 X-17.499 Y23.245
G1 F2400 X-17.5 Y-28.475 E2343.34282
G0 F6000 X-17.5 Y-28.355
G1 F2400 X-17.75 Y-28.726 E2343.35831
G1 X-18 Y-28.355 E2343.3769
G0 F6000 X-18 Y-28.475
G1 F2400 X-17.999 Y22.689 E2345.50401
G0 F6000 X-17.999 Y22.531
G1 F2400 X-17.999 Y25.709 E2345.63613
G0 F6000 X-17.999 Y25.565
G1 F2400 X-17.999 Y28.476 E2345.75716
G0 F6000 X-17.999 Y28.356
G1 F2400 X-18.249 Y28.724 E2345.77246
G1 X-18.499 Y28.356 E2345.79098
G0 F6000 X-18.499 Y28.476
G1 F2400 X-18.499 Y25.819 E2345.90144
G0 F6000 X-18.499 Y25.946
G1 F2400 X-18.499 Y22.301 E2346.05298
G0 F6000 X-18.499 Y22.424
G1 F2400 X-18.5 Y-28.475 E2348.16912
G0 F6000 X-18.5 Y-28.355
G1 F2400 X-18.75 Y-28.726 E2348.1846
G1 X-19 Y-28.355 E2348.20319
G0 F6000 X-19 Y-28.475
G1 F2400 X-19 Y-25.321 E2348.33428
G0 F6000 X-19 Y-25.505
G1 F2400 X-19 Y-22.76 E2348.44836
G0 F6000 X-19 Y-22.917
G1 F2400 X-18.999 Y22.344 E2350.33005
G0 F6000 X-18.999 Y22.223
G1 F2400 X-18.999 Y26.027 E2350.4882
G0 F6000 X-18.999 Y25.906
G1 F2400 X-18.999 Y28.476 E2350.59505
G0 F6000 X-18.999 Y28.356
G1 F2400 X-19.249 Y28.724 E2350.61035
G1 X-19.499 Y28.356 E2350.62887
G0 F6000 X-19.499 Y28.476
G1 F2400 X-19.499 Y25.851 E2350.738
G0 F6000 X-19.499 Y25.974
G1 F2400 X-19.499 Y22.277 E2350.89171
G0 F6000 X-19.499 Y22.404
G1 F2400 X-19.5 Y-22.55 E2352.76068
G0 F6000 X-19.5 Y-22.416
G1 F2400 X-19.5 Y-25.85 E2352.90349
G0 F6000 X-19.5 Y-25.722
G1 F2400 X-19.5 Y-28.475 E2353.01799
G0 F6000 X-19.5 Y-28.355
G1 F2400 X-19.75 Y-28.726 E2353.03347
G1 X-20 Y-28.355 E2353.05206
G0 F6000 X-20 Y-28.475
G1 F2400 X-20 Y-25.885 E2353.1597
G0 F6000 X-20 Y-26.005
G1 F2400 X-20 Y-22.257 E2353.31548
G0 F6000 X-20 Y-22.38
G1 F2400 X-19.999 Y22.626 E2355.18657
G0 F6000 X-19.999 Y22.481
G1 F2400 X-19.999 Y25.776 E2355.32356
G0 F6000 X-19.999 Y25.643
G1 F2400 X-19.999 Y28.476 E2355.44134
G0 F6000 X-19.999 Y28.356
G1 F2400 X-20.249 Y28.724 E2355.45664
G1 X-20.499 Y28.356 E2355.47516
G0 F6000 X-20.499 Y28.476
G1 F2400 X-20.499 Y25.156 E2355.61319
G0 F6000 X-20.499 Y25.366
G1 F2400 X-20.499 Y22.908 E2355.71538
G0 F6000 X-20.499 Y23.092
G1 F2400 X-20.5 Y-22.36 E2357.60506
G0 F6000 X-20.5 Y-22.24
G1 F2400 X-20.5 Y-26.023 E2357.76238
G0 F6000 X-20.5 Y-25.901
G1 F2400 X-20.5 Y-28.475 E2357.86943
G0 F6000 X-20.5 Y-28.355
G1 F2400 X-20.75 Y-28.726 E2357.88492
G1 X-21 Y-28.355 E2357.90351
G0 F6000 X-21 Y-28.475
G1 F2400 X-21 Y-25.771 E2358.01588
G0 F6000 X-21 Y-25.904
G1 F2400 X-21 Y-22.358 E2358.16327
G0 F6000 X-21 Y-22.486
G1 F2400 X-20.999 Y28.476 E2360.28198
G0 F6000 X-20.999 Y28.356
G1 F2400 X-21.249 Y28.724 E2360.29728
G1 X-21.499 Y28.356 E2360.3158
G0 F6000 X-21.499 Y28.476
G1 F2400 X-21.5 Y-22.784 E2362.44694
G0 F6000 X-21.5 Y-22.639
G1 F2400 X-21.5 Y-25.613 E2362.57063
G0 F6000 X-21.5 Y-25.455
G1 F2400 X-21.5 Y-28.475 E2362.69623
G0 F6000 X-21.5 Y-28.355
G1 F2400 X-21.75 Y-28.726 E2362.71171
G1 X-22 Y-28.355 E2362.7303
G0 F6000 X-22 Y-28.475
G1 F2400 X-22 Y-24.699 E2362.88725
G0 F6000 X-22 Y-25.029
G1 F2400 X-22 Y-23.248 E2362.96125
G0 F6000 X-22 Y-23.528
G1 F2400 X-21.999 Y28.476 E2365.12328
G0 F6000 X-21.999 Y28.356
G1 F2400 X-22.249 Y28.723 E2365.13859
G1 X-22.499 Y28.356 E2365.15707
G0 F6000 X-22.499 Y28.476
G1 F2400 X-22.5 Y-28.475 E2367.52482
G0 F6000 X-22.5 Y-28.355
G1 F2400 X-22.75 Y-28.727 E2367.54034
G1 X-23 Y-28.355 E2367.55896
G0 F6000 X-23 Y-28.475
G1 F2400 X-22.999 Y28.476 E2369.92666
G0 F6000 X-22.999 Y28.356
G1 F2400 X-23.249 Y28.723 E2369.94193
G1 X-23.499 Y28.356 E2369.96042
G0 F6000 X-23.499 Y28.476
G1 F2400 X-23.5 Y-28.475 E2372.32817
G0 F6000 X-23.5 Y-28.355
G1 F2400 X-23.75 Y-28.727 E2372.34368
G1 X-24 Y-28.356 E2372.36227
G0 F6000 X-24 Y-28.476
G1 F2400 X-23.999 Y28.475 E2374.72997
G0 F6000 X-23.999 Y28.355
G1 F2400 X-24.249 Y28.723 E2374.74527
G1 X-24.499 Y28.355 E2374.76379
G0 F6000 X-24.499 Y28.475
G1 F2400 X-24.5 Y-28.476 E2377.13154
G0 F6000 X-24.5 Y-28.356
G1 F2400 X-24.75 Y-28.727 E2377.14702
G1 X-25 Y-28.356 E2377.16561
G0 F6000 X-25 Y-28.476
G1 F2400 X-24.999 Y28.475 E2379.53332
G0 F6000 X-24.999 Y28.355
G1 F2400 X-25.249 Y28.723 E2379.54862
G1 X-25.499 Y28.355 E2379.56714
G0 F6000 X-25.499 Y28.475
G1 F2400 X-25.5 Y-28.476 E2381.93488
G0 F6000 X-25.5 Y-28.356
G1 F2400 X-25.75 Y-28.727 E2381.95037
G1 X-26 Y-28.356 E2381.96896
G0 F6000 X-26 Y-28.476
G1 F2400 X-25.999 Y28.475 E2384.33666
G0 F6000 X-25.999 Y28.355
G1 F2400 X-26.249 Y28.723 E2384.35196
G1 X-26.499 Y28.355 E2384.37048
G0 F6000 X-26.499 Y28.475
G1 F2400 X-26.5 Y-28.476 E2386.73823
G0 F6000 X-26.5 Y-28.356
G1 F2400 X-26.75 Y-28.727 E2386.75371
G1 X-27 Y-28.356 E2386.7723
G0 F6000 X-27 Y-28.476
G1 F2400 X-26.999 Y28.475 E2389.14001
G0 F6000 X-26.999 Y28.355
G1 F2400 X-27.249 Y28.723 E2389.1553
G1 X-27.499 Y28.355 E2389.17382
G0 F6000 X-27.499 Y28.475
G1 F2400 X-27.5 Y-28.476 E2391.54157
G0 F6000 X-27.5 Y-28.356
G1 F2400 X-27.75 Y-28.727 E2391.55706
G1 X-28 Y-28.356 E2391.57564
G0 F6000 X-28 Y-28.476
G1 F2400 X-27.999 Y28.475 E2393.94335
G0 F6000 X-27.999 Y28.355
G1 F2400 X-28.249 Y28.723 E2393.95865
G1 X-28.499 Y28.355 E2393.97717
G0 F6000 X-28.499 Y28.475
G1 F2400 X-28.5 Y-28.476 E2396.34491
G0 F6000 X-28.5 Y-28.356
G1 F2400 X-28.75 Y-28.727 E2396.3604
G1 X-29 Y-28.356 E2396.37899
G0 F6000 X-29 Y-28.476
G1 F2400 X-28.999 Y28.475 E2398.74669
G0 F6000 X-28.999 Y28.355
G1 F2400 X-29.249 Y28.723 E2398.76199
G1 X-29.499 Y28.355 E2398.78051
G0 F6000 X-29.499 Y28.475
G1 F2400 X-29.5 Y-28.476 E2401.14826
G0 F6000 X-29.5 Y-28.356
G1 F2400 X-29.75 Y-28.727 E2401.16374
G1 X-30 Y-28.356 E2401.18233
G0 F6000 X-30 Y-28.476
G1 F2400 X-29.999 Y28.475 E2403.55004
G0 F6000 X-29.999 Y28.355
G1 F2400 X-30.249 Y28.723 E2403.56534
G1 X-30.499 Y28.355 E2403.58386
G0 F6000 X-30.499 Y28.475
G1 F2400 X-30.5 Y-28.476 E2405.9516
G0 F6000 X-30.5 Y-28.356
G1 F2400 X-30.75 Y-28.727 E2405.96709
G1 X-31 Y-28.356 E2405.98568
G0 F6000 X-31 Y-28.476
G1 F2400 X-30.999 Y28.475 E2408.35338
G0 F6000 X-30.999 Y28.355
G1 F2400 X-31.249 Y28.722 E2408.36865
G1 X-31.499 Y28.355 E2408.38714
G0 F6000 X-31.499 Y28.475
G1 F2400 X-31.5 Y-28.476 E2410.75488
G0 F6000 X-31.5 Y-28.356
G1 F2400 X-31.75 Y-28.728 E2410.7704
G1 X-32 Y-28.356 E2410.78902
G0 F6000 X-32 Y-28.476
G1 F2400 X-31.999 Y28.475 E2413.15673
G0 F6000 X-31.999 Y28.355
G1 F2400 X-32.249 Y28.722 E2413.172
G1 X-32.499 Y28.355 E2413.19048
G0 F6000 X-32.499 Y28.475
G1 F2400 X-32.5 Y-28.476 E2415.55823
G0 F6000 X-32.5 Y-28.356
G1 F2400 X-32.75 Y-28.728 E2415.57374
G1 X-33 Y-28.356 E2415.59237
G0 F6000 X-33 Y-28.476
G1 F2400 X-33 Y28.475 E2417.96007
G0 F6000 X-33 Y28.355
G1 F2400 X-33.25 Y28.722 E2417.97534
G1 X-33.5 Y28.355 E2417.99383
G0 F6000 X-33.5 Y28.475
G1 F2400 X-33.5 Y-28.476 E2420.36157
G0 F6000 X-33.5 Y-28.356
G1 F2400 X-33.75 Y-28.728 E2420.37709
G1 X-34 Y-28.356 E2420.39571
G0 F6000 X-34 Y-28.476
G1 F2400 X-34 Y28.475 E2422.76342
G0 F6000 X-34 Y28.355
G1 F2400 X-34.25 Y28.722 E2422.77868
G1 X-34.5 Y28.355 E2422.79717
G0 F6000 X-34.5 Y28.475
G1 F2400 X-34.5 Y-28.476 E2425.16492
G0 F6000 X-34.5 Y-28.356
G1 F2400 X-34.75 Y-28.728 E2425.18043
G1 X-35 Y-28.356 E2425.19905
G0 F6000 X-35 Y-28.476
G1 F2400 X-35 Y28.475 E2427.56676
G0 F6000 X-35 Y28.355
G1 F2400 X-35.25 Y28.706 E2427.58201
G1 X-35.5 Y28.355 E2427.59995
G0 F6000 X-35.5 Y28.475
G1 F2400 X-35.5 Y-28.476 E2429.9677
G0 F6000 X-35.5 Y-28.356
G1 F2400 X-35.5 Y-28.692 E2429.98171
G0 F6000 X-36 Y-28.446
G1 F2400 X-36 Y28.443 E2432.34684
G0 F6000 X-36 Y28.444
G1 F2400 X-36 Y-28.4 E2434.71013
G0 F6000 X-36 Y-28.407
G1 F2400 X-36 Y-28.446 E2434.7118
G0 F6000 X-18.5 Y-24.724
G0 X-18.5 Y-24.724
G1 F2400 X-18.5 Y-23.58 E2434.75932
G0 F6000 X35.5 Y28.357
G0 X35.5 Y28.357
G1 F2400 X35.5 Y28.694 E2434.77333
; LAYER:6
G0 F6000 X35.638 Y28.867 Z1.5
; TYPE:WALL-INNER
G1 F2400 X35.238 Y28.92 E2434.79011
G1 X-35.3 Y28.912 E2437.72273
G1 X-35.652 Y28.861 E2437.73756
G1 X-35.784 Y28.814 E2437.74343
G1 X-35.931 Y28.738 E2437.75034
G1 X-36.167 Y28.557 E2437.76274
G1 X-36.279 Y28.43 E2437.76981
G1 X-36.37 Y28.293 E2437.77667
G1 X-36.486 Y28.02 E2437.78902
G1 X-36.539 Y27.618 E2437.80588
G1 X-36.539 Y-27.617 E2440.10229
G1 X-36.486 Y-28.019 E2440.11918
G1 X-36.445 Y-28.141 E2440.12456
G1 X-36.366 Y-28.301 E2440.132
G1 X-36.284 Y-28.423 E2440.13812
G1 X-36.156 Y-28.565 E2440.14607
G1 X-36.034 Y-28.669 E2440.15273
G1 X-35.892 Y-28.76 E2440.15973
G1 X-35.637 Y-28.866 E2440.17119
G1 X-35.237 Y-28.919 E2440.18793
G1 X35.301 Y-28.911 E2443.12052
G1 X35.653 Y-28.86 E2443.1353
G1 X35.929 Y-28.739 E2443.14781
G1 X36.176 Y-28.548 E2443.16077
G1 X36.282 Y-28.428 E2443.16739
G1 X36.367 Y-28.301 E2443.17371
G1 X36.446 Y-28.141 E2443.18109
G1 X36.487 Y-28.019 E2443.1864
G1 X36.54 Y-27.617 E2443.20322
G1 X36.54 Y27.618 E2445.49958
G1 X36.487 Y28.02 E2445.51644
G1 X36.371 Y28.293 E2445.52877
G1 X36.28 Y28.43 E2445.53561
G1 X36.174 Y28.55 E2445.54227
G1 X36.03 Y28.674 E2445.55017
G1 X35.898 Y28.759 E2445.5567
G1 X35.638 Y28.867 E2445.5684
G0 F6000 X35.749 Y29.357
; TYPE:WALL-OUTER
G1 F2100 X35.272 Y29.42 E2445.5884
G1 X-35.337 Y29.412 E2448.52399
G1 X-35.775 Y29.349 E2448.54242
G1 X-35.985 Y29.273 E2448.55175
G1 X-36.182 Y29.172 E2448.56099
G1 X-36.376 Y29.038 E2448.57083
G1 X-36.526 Y28.907 E2448.57914
G1 X-36.677 Y28.735 E2448.58868
G1 X-36.805 Y28.543 E2448.5983
G1 X-36.905 Y28.34 E2448.60772
G1 X-36.976 Y28.131 E2448.61691
G1 X-37.039 Y27.652 E2448.63701
G1 X-37.039 Y-27.651 E2450.93624
G1 X-36.976 Y-28.13 E2450.95636
