; Generated with MatterSlice 1.0
; filamentDiameter = 1.75
; extrusionWidth = 0.5
; firstLayerExtrusionWidth = 0.4
; layerThickness = 0.25
; firstLayerThickness = 0.3
; automatic settings before start_gcode
G21 ; set units to millimeters
M107 ; fan off
T0 ; set the active extruder to 0
; settings from start_gcode
M104 S190
M190 S60
M109 S190
G28
; automatic settings after start_gcode
T0 ; set the active extruder to 0
G90 ; use absolute coordinates
G92 E0 ; reset the expected extruder position
M82 ; use absolute distance for extrusion
; Layer count: 46
; LAYER:0
M107
G0 F18000 X36.63 Y-33.124 Z0.3
; TYPE:SKIRT
G1 Z0.3
G1 F6600 E0
G1 F720 X37.437 Y-32.849 E0.04252
G1 X38.091 Y-32.527 E0.07887
G1 X38.706 Y-32.118 E0.11569
G1 X39.252 Y-31.636 E0.15199
G1 X39.735 Y-31.091 E0.18828
G1 X40.146 Y-30.473 E0.22527
G1 X40.466 Y-29.825 E0.26128
G1 X40.743 Y-29.02 E0.30371
G1 X40.889 Y-27.913 E0.35936
G1 X40.89 Y27.905 E3.14408
G1 X40.747 Y28.994 E3.19888
G1 X40.477 Y29.8 E3.24129
G1 X40.151 Y30.466 E3.27828
G1 X39.741 Y31.081 E3.31516
G1 X39.264 Y31.624 E3.35122
G1 X38.711 Y32.115 E3.38811
G1 X38.091 Y32.528 E3.42528
G1 X37.437 Y32.85 E3.46165
G1 X36.63 Y33.125 E3.50418
G1 X35.525 Y33.27 E3.55978
G1 X-35.524 Y33.27 E7.10443
G1 X-36.629 Y33.125 E7.16008
G1 X-37.436 Y32.85 E7.20266
G1 X-38.093 Y32.526 E7.23926
G1 X-38.703 Y32.119 E7.27588
G1 X-39.251 Y31.637 E7.31233
G1 X-39.734 Y31.09 E7.34877
G1 X-40.143 Y30.477 E7.38556
G1 X-40.465 Y29.826 E7.42182
G1 X-40.742 Y29.021 E7.46431
G1 X-40.888 Y27.914 E7.52002
G1 X-40.889 Y-27.904 E10.30479
G1 X-40.746 Y-28.993 E10.35963
G1 X-40.476 Y-29.799 E10.40207
G1 X-40.152 Y-30.462 E10.43891
G1 X-39.74 Y-31.082 E10.47606
G1 X-39.257 Y-31.629 E10.51247
G1 X-38.709 Y-32.114 E10.54898
G1 X-38.093 Y-32.525 E10.58591
G1 X-37.436 Y-32.849 E10.62244
G1 X-36.629 Y-33.124 E10.66494
G1 X-35.524 Y-33.269 E10.7205
G1 X35.525 Y-33.269 E14.2651
G1 X36.63 Y-33.124 E14.32069
G0 F18000 X36.538 Y-32.733
G1 F720 X37.284 Y-32.479 E14.35999
G1 X37.891 Y-32.179 E14.39375
G1 X38.462 Y-31.8 E14.42791
G1 X38.969 Y-31.352 E14.46163
G1 X39.417 Y-30.846 E14.49531
G1 X39.798 Y-30.273 E14.5296
G1 X40.096 Y-29.671 E14.56307
G1 X40.351 Y-28.928 E14.60221
G1 X40.489 Y-27.887 E14.65455
G1 X40.49 Y27.879 E17.43668
G1 X40.356 Y28.903 E17.4882
G1 X40.106 Y29.648 E17.52741
G1 X39.804 Y30.266 E17.56173
G1 X39.423 Y30.837 E17.59597
G1 X38.98 Y31.341 E17.62945
G1 X38.467 Y31.797 E17.66369
G1 X37.891 Y32.18 E17.6982
G1 X37.284 Y32.48 E17.73198
G1 X36.538 Y32.734 E17.7713
G1 X35.499 Y32.87 E17.82358
G1 X-35.498 Y32.87 E21.36563
G1 X-36.537 Y32.734 E21.41796
G1 X-37.283 Y32.48 E21.45732
G1 X-37.893 Y32.179 E21.4913
G1 X-38.459 Y31.801 E21.5253
G1 X-38.968 Y31.353 E21.55917
G1 X-39.416 Y30.846 E21.59296
G1 X-39.796 Y30.277 E21.62712
G1 X-40.095 Y29.672 E21.66081
G1 X-40.35 Y28.929 E21.70002
G1 X-40.488 Y27.888 E21.75241
G1 X-40.489 Y-27.878 E24.53459
G1 X-40.355 Y-28.902 E24.58616
G1 X-40.105 Y-29.647 E24.62539
G1 X-39.804 Y-30.262 E24.65958
G1 X-39.422 Y-30.838 E24.69407
G1 X-38.973 Y-31.346 E24.7279
G1 X-38.464 Y-31.796 E24.76179
G1 X-37.893 Y-32.178 E24.79605
G1 X-37.283 Y-32.479 E24.82997
G1 X-36.537 Y-32.733 E24.86925
G1 X-35.498 Y-32.869 E24.92149
G1 X35.499 Y-32.869 E28.46349
G1 X36.538 Y-32.733 E28.51576
G0 F18000 X35.763 Y-29.405
; TYPE:WALL-OUTER
G1 F720 X35.976 Y-29.333 E28.52697
G1 X36.186 Y-29.23 E28.53861
G1 X36.39 Y-29.094 E28.55082
G1 X36.559 Y-28.945 E28.56203
G1 X36.716 Y-28.768 E28.57379
G1 X36.849 Y-28.568 E28.58573
G1 X36.951 Y-28.36 E28.59725
G1 X37.026 Y-28.143 E28.60865
G1 X37.089 Y-27.665 E28.63266
G1 X37.09 Y27.659 E31.39273
G1 X37.028 Y28.133 E31.41658
G1 X36.954 Y28.355 E31.42826
G1 X36.848 Y28.571 E31.44026
G1 X36.721 Y28.761 E31.45166
G1 X36.564 Y28.94 E31.46354
G1 X36.39 Y29.095 E31.47517
G1 X36.186 Y29.231 E31.4874
G1 X35.976 Y29.334 E31.49907
G1 X35.763 Y29.406 E31.51029
G1 X35.279 Y29.47 E31.53464
G1 X-35.278 Y29.47 E35.05475
G1 X-35.762 Y29.406 E35.07915
G1 X-35.975 Y29.334 E35.09042
G1 X-36.19 Y29.228 E35.10242
G1 X-36.383 Y29.099 E35.11405
G1 X-36.562 Y28.942 E35.12596
G1 X-36.716 Y28.767 E35.13762
G1 X-36.845 Y28.574 E35.14923
G1 X-36.95 Y28.361 E35.1611
G1 X-37.025 Y28.144 E35.17257
G1 X-37.088 Y27.666 E35.19663
G1 X-37.089 Y-27.658 E37.95676
G1 X-37.027 Y-28.132 E37.98065
G1 X-36.953 Y-28.354 E37.99236
G1 X-36.849 Y-28.565 E38.00412
G1 X-36.716 Y-28.766 E38.01616
G1 X-36.563 Y-28.939 E38.02768
G1 X-36.383 Y-29.098 E38.03966
G1 X-36.19 Y-29.227 E38.05123
G1 X-35.975 Y-29.333 E38.06317
G1 X-35.762 Y-29.405 E38.07435
G1 X-35.278 Y-29.469 E38.09867
G1 X35.279 Y-29.469 E41.61872
G1 X35.763 Y-29.405 E41.64307
G0 F18000 X35.672 Y-29.014
; TYPE:WALL-INNER
G1 F720 X35.823 Y-28.962 E41.65102
G1 X35.99 Y-28.88 E41.66028
G1 X36.142 Y-28.779 E41.66936
G1 X36.28 Y-28.657 E41.67852
G1 X36.398 Y-28.524 E41.68735
G1 X36.499 Y-28.372 E41.69641
G1 X36.583 Y-28.202 E41.70583
G1 X36.633 Y-28.055 E41.71353
G1 X36.689 Y-27.635 E41.73462
G1 X36.69 Y27.63 E44.49175
G1 X36.635 Y28.047 E44.51273
G1 X36.583 Y28.202 E44.52089
G1 X36.502 Y28.369 E44.53015
G1 X36.403 Y28.516 E44.53899
G1 X36.278 Y28.659 E44.54847
G1 X36.142 Y28.779 E44.55752
G1 X35.99 Y28.881 E44.56665
G1 X35.823 Y28.963 E44.57593
G1 X35.672 Y29.015 E44.5839
G1 X35.25 Y29.07 E44.60513
G1 X-35.249 Y29.07 E48.12234
G1 X-35.671 Y29.015 E48.14362
G1 X-35.822 Y28.963 E48.15164
G1 X-35.99 Y28.88 E48.16103
G1 X-36.138 Y28.781 E48.16995
G1 X-36.279 Y28.658 E48.17933
G1 X-36.398 Y28.522 E48.18838
G1 X-36.497 Y28.374 E48.19729
G1 X-36.582 Y28.203 E48.20684
G1 X-36.632 Y28.056 E48.2146
G1 X-36.688 Y27.636 E48.23574
G1 X-36.689 Y-27.629 E50.99293
G1 X-36.634 Y-28.046 E51.01395
G1 X-36.582 Y-28.201 E51.02214
G1 X-36.501 Y-28.367 E51.03138
G1 X-36.401 Y-28.518 E51.04043
G1 X-36.276 Y-28.66 E51.04987
G1 X-36.142 Y-28.777 E51.05874
G1 X-35.99 Y-28.879 E51.06786
G1 X-35.822 Y-28.962 E51.07719
G1 X-35.671 Y-29.014 E51.08513
G1 X-35.249 Y-29.069 E51.10631
G1 X35.25 Y-29.069 E54.62347
G1 X35.672 Y-29.014 E54.6447
G0 F18000 X35.831 Y-28.8
; TYPE:FILL
G1 F720 X-35.833 Y-28.799 E58.22003
G0 F18000 X-36.311 Y-28.399
G1 F720 X36.312 Y-28.4 E61.84316
G0 F18000 X36.5 Y-28
G1 F720 X-36.499 Y-27.999 E65.48509
G0 F18000 X-36.549 Y-27.599
G1 F720 X36.549 Y-27.6 E69.13192
G0 F18000 X36.549 Y-27.2
G1 F720 X-36.549 Y-27.199 E72.77879
G0 F18000 X-36.549 Y-26.799
G1 F720 X36.549 Y-26.8 E76.42561
G0 F18000 X36.549 Y-26.4
G1 F720 X-36.549 Y-26.399 E80.07249
G0 F18000 X-36.549 Y-25.999
G1 F720 X36.549 Y-26 E83.71931
G0 F18000 X36.549 Y-25.6
G1 F720 X-36.549 Y-25.599 E87.36619
G0 F18000 X-36.549 Y-25.199
G1 F720 X36.549 Y-25.2 E91.01301
G0 F18000 X36.549 Y-24.8
G1 F720 X-36.549 Y-24.799 E94.65989
G0 F18000 X-36.549 Y-24.399
G1 F720 X36.549 Y-24.4 E98.30671
G0 F18000 X36.549 Y-24
G1 F720 X-36.549 Y-23.999 E101.95358
G0 F18000 X-36.549 Y-23.599
G1 F720 X36.549 Y-23.6 E105.60041
G0 F18000 X36.549 Y-23.2
G1 F720 X-36.549 Y-23.199 E109.24728
G0 F18000 X-36.549 Y-22.799
G1 F720 X36.549 Y-22.8 E112.89411
G0 F18000 X36.549 Y-22.4
G1 F720 X-36.549 Y-22.399 E116.54098
G0 F18000 X-36.549 Y-21.999
G1 F720 X36.549 Y-22 E120.1878
G0 F18000 X36.549 Y-21.6
G1 F720 X-36.549 Y-21.599 E123.83468
G0 F18000 X-36.549 Y-21.199
G1 F720 X36.549 Y-21.2 E127.4815
G0 F18000 X36.549 Y-20.8
G1 F720 X-36.549 Y-20.799 E131.12838
G0 F18000 X-36.549 Y-20.399
G1 F720 X36.549 Y-20.4 E134.7752
G0 F18000 X36.549 Y-20
G1 F720 X-36.549 Y-19.999 E138.42207
G0 F18000 X-36.549 Y-19.599
G1 F720 X36.549 Y-19.6 E142.0689
G0 F18000 X36.549 Y-19.2
G1 F720 X-36.549 Y-19.199 E145.71577
G0 F18000 X-36.549 Y-18.799
G1 F720 X36.549 Y-18.8 E149.3626
G0 F18000 X36.549 Y-18.4
G1 F720 X-36.549 Y-18.399 E153.00947
G0 F18000 X-36.549 Y-17.999
G1 F720 X36.549 Y-18 E156.65629
G0 F18000 X36.549 Y-17.6
G1 F720 X-36.549 Y-17.599 E160.30317
G0 F18000 X-36.549 Y-17.199
G1 F720 X36.549 Y-17.2 E163.94999
G0 F18000 X36.549 Y-16.8
G1 F720 X-36.549 Y-16.799 E167.59687
G0 F18000 X-36.549 Y-16.399
G1 F720 X36.549 Y-16.4 E171.24369
G0 F18000 X36.549 Y-16
G1 F720 X-36.549 Y-15.999 E174.89056
G0 F18000 X-36.549 Y-15.599
G1 F720 X36.549 Y-15.6 E178.53739
G0 F18000 X36.549 Y-15.2
G1 F720 X-36.549 Y-15.199 E182.18426
G0 F18000 X-36.549 Y-14.799
G1 F720 X36.549 Y-14.8 E185.83109
G0 F18000 X36.549 Y-14.4
G1 F720 X-36.549 Y-14.399 E189.47796
G0 F18000 X-36.549 Y-13.999
G1 F720 X36.549 Y-14 E193.12479
G0 F18000 X36.549 Y-13.6
G1 F720 X-36.549 Y-13.599 E196.77166
G0 F18000 X-36.549 Y-13.199
G1 F720 X36.549 Y-13.2 E200.41848
G0 F18000 X36.549 Y-12.8
G1 F720 X-36.549 Y-12.799 E204.06536
G0 F18000 X-36.549 Y-12.399
G1 F720 X36.549 Y-12.4 E207.71218
G0 F18000 X36.549 Y-12
G1 F720 X-36.549 Y-11.999 E211.35906
G0 F18000 X-36.549 Y-11.599
G1 F720 X36.549 Y-11.6 E215.00588
G0 F18000 X36.549 Y-11.2
G1 F720 X-36.549 Y-11.199 E218.65275
G0 F18000 X-36.549 Y-10.799
G1 F720 X36.549 Y-10.8 E222.29958
G0 F18000 X36.549 Y-10.4
G1 F720 X-36.549 Y-10.399 E225.94645
G0 F18000 X-36.549 Y-9.999
G1 F720 X36.549 Y-10 E229.59328
G0 F18000 X36.549 Y-9.6
G1 F720 X-36.549 Y-9.599 E233.24015
G0 F18000 X-36.549 Y-9.199
G1 F720 X36.549 Y-9.2 E236.88697
G0 F18000 X36.549 Y-8.8
G1 F720 X-36.549 Y-8.799 E240.53385
G0 F18000 X-36.549 Y-8.399
G1 F720 X36.549 Y-8.4 E244.18067
G0 F18000 X36.549 Y-8
G1 F720 X-36.549 Y-7.999 E247.82755
G0 F18000 X-36.549 Y-7.599
G1 F720 X36.549 Y-7.6 E251.47437
G0 F18000 X36.549 Y-7.2
G1 F720 X-36.549 Y-7.199 E255.12124
G0 F18000 X-36.549 Y-6.799
G1 F720 X36.549 Y-6.8 E258.76807
G0 F18000 X36.549 Y-6.4
G1 F720 X-36.549 Y-6.399 E262.41494
G0 F18000 X-36.549 Y-5.999
G1 F720 X36.549 Y-6 E266.06177
G0 F18000 X36.549 Y-5.6
G1 F720 X-36.549 Y-5.599 E269.70864
G0 F18000 X-36.549 Y-5.199
G1 F720 X36.549 Y-5.2 E273.35547
G0 F18000 X36.549 Y-4.8
G1 F720 X-36.549 Y-4.799 E277.00234
G0 F18000 X-36.549 Y-4.399
G1 F720 X36.549 Y-4.4 E280.64916
G0 F18000 X36.549 Y-4
G1 F720 X-36.549 Y-3.999 E284.29604
G0 F18000 X-36.549 Y-3.599
G1 F720 X36.549 Y-3.6 E287.94286
G0 F18000 X36.549 Y-3.2
G1 F720 X-36.549 Y-3.199 E291.58974
G0 F18000 X-36.549 Y-2.799
G1 F720 X36.549 Y-2.8 E295.23656
G0 F18000 X36.549 Y-2.4
G1 F720 X-36.549 Y-2.399 E298.88343
G0 F18000 X-36.549 Y-1.999
G1 F720 X36.549 Y-2 E302.53026
G0 F18000 X36.549 Y-1.6
G1 F720 X-36.549 Y-1.599 E306.17713
G0 F18000 X-36.549 Y-1.199
G1 F720 X36.549 Y-1.2 E309.82396
G0 F18000 X36.549 Y-0.8
G1 F720 X-36.549 Y-0.799 E313.47083
G0 F18000 X-36.549 Y-0.399
G1 F720 X36.549 Y-0.4 E317.11765
G0 F18000 X36.55 Y0
G1 F720 X-36.549 Y0 E320.76458
G0 F18000 X-36.548 Y0.4
G1 F720 X36.55 Y0.399 E324.4114
G0 F18000 X36.55 Y0.799
G1 F720 X-36.548 Y0.8 E328.05828
G0 F18000 X-36.548 Y1.2
G1 F720 X36.55 Y1.199 E331.7051
G0 F18000 X36.55 Y1.599
G1 F720 X-36.548 Y1.6 E335.35197
G0 F18000 X-36.548 Y2
G1 F720 X36.55 Y1.999 E338.9988
G0 F18000 X36.55 Y2.399
G1 F720 X-36.548 Y2.4 E342.64567
G0 F18000 X-36.548 Y2.8
G1 F720 X36.55 Y2.799 E346.2925
G0 F18000 X36.55 Y3.199
G1 F720 X-36.548 Y3.2 E349.93937
G0 F18000 X-36.548 Y3.6
G1 F720 X36.55 Y3.599 E353.58619
G0 F18000 X36.55 Y3.999
G1 F720 X-36.548 Y4 E357.23307
G0 F18000 X-36.548 Y4.4
G1 F720 X36.55 Y4.399 E360.87989
G0 F18000 X36.55 Y4.799
G1 F720 X-36.548 Y4.8 E364.52677
G0 F18000 X-36.548 Y5.2
G1 F720 X36.55 Y5.199 E368.17359
G0 F18000 X36.55 Y5.599
G1 F720 X-36.548 Y5.6 E371.82047
G0 F18000 X-36.548 Y6
G1 F720 X36.55 Y5.999 E375.46729
G0 F18000 X36.55 Y6.399
G1 F720 X-36.548 Y6.4 E379.11416
G0 F18000 X-36.548 Y6.8
G1 F720 X36.55 Y6.799 E382.76099
G0 F18000 X36.55 Y7.199
G1 F720 X-36.548 Y7.2 E386.40786
G0 F18000 X-36.548 Y7.6
G1 F720 X36.55 Y7.599 E390.05469
G0 F18000 X36.55 Y7.999
G1 F720 X-36.548 Y8 E393.70156
G0 F18000 X-36.548 Y8.4
G1 F720 X36.55 Y8.399 E397.34838
G0 F18000 X36.55 Y8.799
G1 F720 X-36.548 Y8.8 E400.99526
G0 F18000 X-36.548 Y9.2
G1 F720 X36.55 Y9.199 E404.64208
G0 F18000 X36.55 Y9.599
G1 F720 X-36.548 Y9.6 E408.28896
G0 F18000 X-36.548 Y10
G1 F720 X36.55 Y9.999 E411.93578
G0 F18000 X36.55 Y10.399
G1 F720 X-36.548 Y10.4 E415.58265
G0 F18000 X-36.548 Y10.8
G1 F720 X36.55 Y10.799 E419.22948
G0 F18000 X36.55 Y11.199
G1 F720 X-36.548 Y11.2 E422.87635
G0 F18000 X-36.548 Y11.6
G1 F720 X36.55 Y11.599 E426.52318
G0 F18000 X36.55 Y11.999
G1 F720 X-36.548 Y12 E430.17005
G0 F18000 X-36.548 Y12.4
G1 F720 X36.55 Y12.399 E433.81687
G0 F18000 X36.55 Y12.799
G1 F720 X-36.548 Y12.8 E437.46375
G0 F18000 X-36.548 Y13.2
G1 F720 X36.55 Y13.199 E441.11057
G0 F18000 X36.55 Y13.599
G1 F720 X-36.548 Y13.6 E444.75745
G0 F18000 X-36.548 Y14
G1 F720 X36.55 Y13.999 E448.40427
G0 F18000 X36.55 Y14.399
G1 F720 X-36.548 Y14.4 E452.05115
G0 F18000 X-36.548 Y14.8
G1 F720 X36.55 Y14.799 E455.69797
G0 F18000 X36.55 Y15.199
G1 F720 X-36.548 Y15.2 E459.34484
G0 F18000 X-36.548 Y15.6
G1 F720 X36.55 Y15.599 E462.99167
G0 F18000 X36.55 Y15.999
G1 F720 X-36.548 Y16 E466.63854
G0 F18000 X-36.548 Y16.4
G1 F720 X36.55 Y16.399 E470.28537
G0 F18000 X36.55 Y16.799
G1 F720 X-36.548 Y16.8 E473.93224
G0 F18000 X-36.548 Y17.2
G1 F720 X36.55 Y17.199 E477.57906
G0 F18000 X36.55 Y17.599
G1 F720 X-36.548 Y17.6 E481.22594
G0 F18000 X-36.548 Y18
G1 F720 X36.55 Y17.999 E484.87276
G0 F18000 X36.55 Y18.399
G1 F720 X-36.548 Y18.4 E488.51964
G0 F18000 X-36.548 Y18.8
G1 F720 X36.55 Y18.799 E492.16646
G0 F18000 X36.55 Y19.199
G1 F720 X-36.548 Y19.2 E495.81333
G0 F18000 X-36.548 Y19.6
G1 F720 X36.55 Y19.599 E499.46016
G0 F18000 X36.55 Y19.999
G1 F720 X-36.548 Y20 E503.10703
G0 F18000 X-36.548 Y20.4
G1 F720 X36.55 Y20.399 E506.75386
G0 F18000 X36.55 Y20.799
G1 F720 X-36.548 Y20.8 E510.40073
G0 F18000 X-36.548 Y21.2
G1 F720 X36.55 Y21.199 E514.04755
G0 F18000 X36.55 Y21.599
G1 F720 X-36.548 Y21.6 E517.69443
G0 F18000 X-36.548 Y22
G1 F720 X36.55 Y21.999 E521.34125
G0 F18000 X36.55 Y22.399
G1 F720 X-36.548 Y22.4 E524.98813
G0 F18000 X-36.548 Y22.8
G1 F720 X36.55 Y22.799 E528.63495
G0 F18000 X36.55 Y23.199
G1 F720 X-36.548 Y23.2 E532.28182
G0 F18000 X-36.548 Y23.6
G1 F720 X36.55 Y23.599 E535.92865
G0 F18000 X36.55 Y23.999
G1 F720 X-36.548 Y24 E539.57552
G0 F18000 X-36.548 Y24.4
G1 F720 X36.55 Y24.399 E543.22235
G0 F18000 X36.55 Y24.799
G1 F720 X-36.548 Y24.8 E546.86922
G0 F18000 X-36.548 Y25.2
G1 F720 X36.55 Y25.199 E550.51605
G0 F18000 X36.55 Y25.599
G1 F720 X-36.548 Y25.6 E554.16292
G0 F18000 X-36.548 Y26
G1 F720 X36.55 Y25.999 E557.80974
G0 F18000 X36.55 Y26.399
G1 F720 X-36.548 Y26.4 E561.45662
G0 F18000 X-36.548 Y26.8
G1 F720 X36.55 Y26.799 E565.10344
G0 F18000 X36.55 Y27.199
G1 F720 X-36.548 Y27.2 E568.75032
G0 F18000 X-36.548 Y27.6
G1 F720 X36.55 Y27.599 E572.39714
G0 F18000 X36.501 Y27.999
G1 F720 X-36.499 Y28 E576.03912
G0 F18000 X-36.312 Y28.4
G1 F720 X36.312 Y28.399 E579.6623
G0 F18000 X35.835 Y28.799
G1 F720 X-35.833 Y28.8 E583.23783
; LAYER:1
G0 F18000 X-35.912 Y28.751 Z0.55
; TYPE:WALL-INNER
G1 F2400 X-36.049 Y28.66 E583.24642
G1 X-36.176 Y28.548 E583.25526
G1 X-36.366 Y28.301 E583.27149
G1 X-36.441 Y28.152 E583.28018
G1 X-36.485 Y28.023 E583.28728
G1 X-36.539 Y27.622 E583.30832
G1 X-36.539 Y-27.617 E586.17903
G1 X-36.486 Y-28.017 E586.20004
G1 X-36.371 Y-28.289 E586.21542
G1 X-36.283 Y-28.422 E586.22372
G1 X-36.161 Y-28.561 E586.23334
G1 X-36.053 Y-28.656 E586.24081
G1 X-35.912 Y-28.75 E586.2496
G1 X-35.771 Y-28.82 E586.25776
G1 X-35.622 Y-28.868 E586.26586
G1 X-35.236 Y-28.919 E586.28605
G1 X35.256 Y-28.917 E589.94939
G1 X35.64 Y-28.866 E589.96952
G1 X35.762 Y-28.825 E589.97619
G1 X35.922 Y-28.746 E589.98544
G1 X36.049 Y-28.661 E589.99335
G1 X36.277 Y-28.433 E590.01007
G1 X36.368 Y-28.299 E590.01845
G1 X36.442 Y-28.151 E590.027
G1 X36.486 Y-28.022 E590.03404
G1 X36.54 Y-27.621 E590.05501
G1 X36.54 Y27.618 E592.92567
G1 X36.487 Y28.018 E592.94664
G1 X36.372 Y28.291 E592.96204
G1 X36.283 Y28.425 E592.9704
G1 X36.176 Y28.548 E592.97887
G1 X36.045 Y28.665 E592.988
G1 X35.922 Y28.747 E592.99568
G1 X35.772 Y28.821 E593.00437
G1 X35.623 Y28.869 E593.01251
G1 X35.237 Y28.92 E593.03274
G1 X-35.255 Y28.918 E596.69614
G1 X-35.639 Y28.867 E596.71632
G1 X-35.912 Y28.751 E596.73178
G0 F18000 X-36.162 Y29.186
; TYPE:WALL-OUTER
G1 F2100 X-36.354 Y29.058 E596.74382
G1 X-36.526 Y28.907 E596.75575
G1 X-36.673 Y28.739 E596.76739
G1 X-36.8 Y28.551 E596.77921
G1 X-36.905 Y28.341 E596.79143
G1 X-36.973 Y28.142 E596.80238
G1 X-37.039 Y27.652 E596.82808
G1 X-37.039 Y-27.651 E599.70212
G1 X-36.976 Y-28.128 E599.72717
G1 X-36.907 Y-28.331 E599.73835
G1 X-36.805 Y-28.54 E599.75046
G1 X-36.681 Y-28.728 E599.76217
G1 X-36.519 Y-28.912 E599.77492
G1 X-36.353 Y-29.057 E599.78637
G1 X-36.162 Y-29.185 E599.7983
G1 X-35.961 Y-29.284 E599.80992
G1 X-35.733 Y-29.358 E599.82235
G1 X-35.271 Y-29.419 E599.84652
G1 X35.291 Y-29.417 E603.5135
G1 X35.751 Y-29.356 E603.53761
G1 X35.96 Y-29.285 E603.54907
G1 X36.168 Y-29.183 E603.56108
G1 X36.357 Y-29.057 E603.57286
G1 X36.523 Y-28.91 E603.58435
G1 X36.672 Y-28.742 E603.59598
G1 X36.798 Y-28.554 E603.6077
G1 X36.906 Y-28.34 E603.62011
G1 X36.974 Y-28.141 E603.63099
G1 X37.04 Y-27.651 E603.65663
G1 X37.04 Y27.652 E606.53062
G1 X36.977 Y28.129 E606.55562
G1 X36.909 Y28.33 E606.56665
G1 X36.808 Y28.536 E606.57857
G1 X36.681 Y28.729 E606.59058
G1 X36.531 Y28.902 E606.60248
G1 X36.353 Y29.061 E606.61488
G1 X36.168 Y29.184 E606.62643
G1 X35.962 Y29.285 E606.63835
G1 X35.734 Y29.359 E606.65081
G1 X35.272 Y29.42 E606.67503
G1 X-35.29 Y29.418 E610.34206
G1 X-35.75 Y29.357 E610.36623
G1 X-35.959 Y29.286 E610.37775
G1 X-36.162 Y29.186 E610.38956
G0 F18000 X-36 Y28.446
; TYPE:FILL
G1 F2400 X-36 Y-28.446 E613.34617
G0 F18000 X-35.5 Y-28.691
G1 F2400 X-35.5 Y28.692 E616.32826
G0 F18000 X-35 Y28.727
G1 F2400 X-35 Y-28.728 E619.31413
G0 F18000 X-34.5 Y-28.728
G1 F2400 X-34.5 Y28.727 E622.29996
G0 F18000 X-34 Y28.727
G1 F2400 X-34 Y-28.728 E625.28583
G0 F18000 X-33.5 Y-28.728
G1 F2400 X-33.5 Y28.727 E628.27166
G0 F18000 X-33 Y28.727
G1 F2400 X-33 Y-28.728 E631.25754
G0 F18000 X-32.5 Y-28.728
G1 F2400 X-32.499 Y28.727 E634.24336
G0 F18000 X-31.999 Y28.727
G1 F2400 X-32 Y-28.728 E637.22924
G0 F18000 X-31.5 Y-28.728
G1 F2400 X-31.499 Y28.727 E640.21506
G0 F18000 X-30.999 Y28.727
G1 F2400 X-31 Y-28.728 E643.20094
G0 F18000 X-30.5 Y-28.728
G1 F2400 X-30.499 Y28.727 E646.18676
G0 F18000 X-29.999 Y28.727
G1 F2400 X-30 Y-28.728 E649.17264
G0 F18000 X-29.5 Y-28.728
G1 F2400 X-29.499 Y28.727 E652.15846
G0 F18000 X-28.999 Y28.727
G1 F2400 X-29 Y-28.728 E655.14434
G0 F18000 X-28.5 Y-28.728
G1 F2400 X-28.499 Y28.727 E658.13017
G0 F18000 X-27.999 Y28.727
G1 F2400 X-28 Y-28.728 E661.11604
G0 F18000 X-27.5 Y-28.728
G1 F2400 X-27.499 Y28.727 E664.10187
G0 F18000 X-26.999 Y28.727
G1 F2400 X-27 Y-28.728 E667.08774
G0 F18000 X-26.5 Y-28.728
G1 F2400 X-26.499 Y28.727 E670.07357
G0 F18000 X-25.999 Y28.727
G1 F2400 X-26 Y-28.728 E673.05945
G0 F18000 X-25.5 Y-28.728
G1 F2400 X-25.499 Y28.727 E676.04527
G0 F18000 X-24.999 Y28.727
G1 F2400 X-25 Y-28.728 E679.03115
G0 F18000 X-24.5 Y-28.728
G1 F2400 X-24.499 Y28.727 E682.01697
G0 F18000 X-23.999 Y28.727
G1 F2400 X-24 Y-28.728 E685.00285
G0 F18000 X-23.5 Y-28.728
G1 F2400 X-23.499 Y28.727 E687.98867
G0 F18000 X-22.999 Y28.728
G1 F2400 X-23 Y-28.727 E690.97455
G0 F18000 X-22.5 Y-28.727
G1 F2400 X-22.499 Y28.728 E693.96037
G0 F18000 X-21.999 Y28.728
G1 F2400 X-22 Y-28.727 E696.94625
G0 F18000 X-21.5 Y-28.727
G1 F2400 X-21.499 Y28.728 E699.93208
G0 F18000 X-20.999 Y28.728
G1 F2400 X-21 Y-28.727 E702.91795
G0 F18000 X-20.5 Y-28.727
G1 F2400 X-20.499 Y28.728 E705.90378
G0 F18000 X-19.999 Y28.728
G1 F2400 X-20 Y-28.727 E708.88965
G0 F18000 X-19.5 Y-28.727
G1 F2400 X-19.499 Y28.728 E711.87548
G0 F18000 X-18.999 Y28.728
G1 F2400 X-19 Y-28.727 E714.86135
G0 F18000 X-18.5 Y-28.727
G1 F2400 X-18.499 Y28.728 E717.84718
G0 F18000 X-17.999 Y28.728
G1 F2400 X-18 Y-28.727 E720.83306
G0 F18000 X-17.5 Y-28.727
G1 F2400 X-17.499 Y28.728 E723.81888
G0 F18000 X-16.999 Y28.728
G1 F2400 X-17 Y-28.727 E726.80476
G0 F18000 X-16.5 Y-28.727
G1 F2400 X-16.499 Y28.728 E729.79058
G0 F18000 X-15.999 Y28.728
G1 F2400 X-16 Y-28.727 E732.77646
G0 F18000 X-15.5 Y-28.727
G1 F2400 X-15.499 Y28.728 E735.76228
G0 F18000 X-14.999 Y28.728
G1 F2400 X-15 Y-28.727 E738.74816
G0 F18000 X-14.5 Y-28.728
G1 F2400 X-14.499 Y28.728 E741.73404
G0 F18000 X-13.999 Y28.728
G1 F2400 X-14 Y-28.728 E744.71997
G0 F18000 X-13.5 Y-28.728
G1 F2400 X-13.499 Y28.728 E747.70584
G0 F18000 X-12.999 Y28.728
G1 F2400 X-13 Y-28.728 E750.69177
G0 F18000 X-12.5 Y-28.728
G1 F2400 X-12.499 Y28.728 E753.67765
G0 F18000 X-11.999 Y28.728
G1 F2400 X-12 Y-28.728 E756.66358
G0 F18000 X-11.5 Y-28.728
G1 F2400 X-11.499 Y28.728 E759.64945
G0 F18000 X-10.999 Y28.728
G1 F2400 X-11 Y-28.728 E762.63538
G0 F18000 X-10.5 Y-28.728
G1 F2400 X-10.499 Y28.728 E765.62126
G0 F18000 X-9.999 Y28.728
G1 F2400 X-10 Y-28.728 E768.60719
G0 F18000 X-9.5 Y-28.728
G1 F2400 X-9.499 Y28.728 E771.59306
G0 F18000 X-8.999 Y28.728
G1 F2400 X-9 Y-28.728 E774.57899
G0 F18000 X-8.5 Y-28.728
G1 F2400 X-8.499 Y28.728 E777.56487
G0 F18000 X-7.999 Y28.728
G1 F2400 X-8 Y-28.728 E780.5508
G0 F18000 X-7.5 Y-28.728
G1 F2400 X-7.499 Y28.728 E783.53667
G0 F18000 X-6.999 Y28.728
G1 F2400 X-7 Y-28.728 E786.5226
G0 F18000 X-6.5 Y-28.728
G1 F2400 X-6.499 Y28.728 E789.50848
G0 F18000 X-5.999 Y28.728
G1 F2400 X-6 Y-28.728 E792.49441
G0 F18000 X-5.5 Y-28.728
G1 F2400 X-5.499 Y28.728 E795.48028
G0 F18000 X-4.999 Y28.728
G1 F2400 X-5 Y-28.728 E798.46621
G0 F18000 X-4.5 Y-28.728
G1 F2400 X-4.499 Y28.728 E801.45209
G0 F18000 X-3.999 Y28.728
G1 F2400 X-4 Y-28.728 E804.43802
G0 F18000 X-3.5 Y-28.728
G1 F2400 X-3.499 Y28.728 E807.42389
G0 F18000 X-2.999 Y28.728
G1 F2400 X-3 Y-28.728 E810.40982
G0 F18000 X-2.5 Y-28.728
G1 F2400 X-2.499 Y28.728 E813.3957
G0 F18000 X-1.999 Y28.728
G1 F2400 X-2 Y-28.728 E816.38163
G0 F18000 X-1.5 Y-28.728
G1 F2400 X-1.499 Y28.728 E819.36751
G0 F18000 X-0.999 Y28.728
G1 F2400 X-1 Y-28.728 E822.35343
G0 F18000 X-0.5 Y-28.728
G1 F2400 X-0.499 Y28.728 E825.33931
G0 F18000 X0 Y28.729
G1 F2400 X0 Y-28.728 E828.32529
G0 F18000 X0.499 Y-28.727
G1 F2400 X0.5 Y28.729 E831.31117
G0 F18000 X1 Y28.729
G1 F2400 X0.999 Y-28.727 E834.2971
G0 F18000 X1.499 Y-28.727
G1 F2400 X1.5 Y28.729 E837.28297
G0 F18000 X2 Y28.729
G1 F2400 X1.999 Y-28.727 E840.2689
G0 F18000 X2.499 Y-28.727
G1 F2400 X2.5 Y28.729 E843.25478
G0 F18000 X3 Y28.729
G1 F2400 X2.999 Y-28.727 E846.24071
G0 F18000 X3.499 Y-28.727
G1 F2400 X3.5 Y28.729 E849.22658
G0 F18000 X4 Y28.729
G1 F2400 X3.999 Y-28.727 E852.21251
G0 F18000 X4.499 Y-28.727
G1 F2400 X4.5 Y28.729 E855.19839
G0 F18000 X5 Y28.729
G1 F2400 X4.999 Y-28.727 E858.18432
G0 F18000 X5.499 Y-28.727
G1 F2400 X5.5 Y28.729 E861.17019
G0 F18000 X6 Y28.729
G1 F2400 X5.999 Y-28.727 E864.15612
G0 F18000 X6.499 Y-28.727
G1 F2400 X6.5 Y28.729 E867.142
G0 F18000 X7 Y28.729
G1 F2400 X6.999 Y-28.727 E870.12793
G0 F18000 X7.499 Y-28.727
G1 F2400 X7.5 Y28.729 E873.1138
G0 F18000 X8 Y28.729
G1 F2400 X7.999 Y-28.727 E876.09973
G0 F18000 X8.499 Y-28.727
G1 F2400 X8.5 Y28.729 E879.08561
G0 F18000 X9 Y28.729
G1 F2400 X8.999 Y-28.727 E882.07154
G0 F18000 X9.499 Y-28.727
G1 F2400 X9.5 Y28.729 E885.05742
G0 F18000 X10 Y28.729
G1 F2400 X9.999 Y-28.727 E888.04334
G0 F18000 X10.499 Y-28.727
G1 F2400 X10.5 Y28.729 E891.02922
G0 F18000 X11 Y28.729
G1 F2400 X10.999 Y-28.727 E894.01515
G0 F18000 X11.499 Y-28.727
G1 F2400 X11.5 Y28.729 E897.00103
G0 F18000 X12 Y28.729
G1 F2400 X11.999 Y-28.727 E899.98695
G0 F18000 X12.499 Y-28.727
G1 F2400 X12.5 Y28.729 E902.97283
G0 F18000 X13 Y28.729
G1 F2400 X12.999 Y-28.727 E905.95876
G0 F18000 X13.499 Y-28.727
G1 F2400 X13.5 Y28.729 E908.94464
G0 F18000 X14 Y28.729
G1 F2400 X13.999 Y-28.727 E911.93057
G0 F18000 X14.499 Y-28.727
G1 F2400 X14.5 Y28.729 E914.91644
G0 F18000 X15 Y28.728
G1 F2400 X14.999 Y-28.727 E917.90232
G0 F18000 X15.499 Y-28.727
G1 F2400 X15.5 Y28.728 E920.88814
G0 F18000 X16 Y28.728
G1 F2400 X15.999 Y-28.727 E923.87402
G0 F18000 X16.499 Y-28.727
G1 F2400 X16.5 Y28.728 E926.85984
G0 F18000 X17 Y28.728
G1 F2400 X16.999 Y-28.727 E929.84572
G0 F18000 X17.499 Y-28.727
G1 F2400 X17.5 Y28.728 E932.83155
G0 F18000 X18 Y28.728
G1 F2400 X17.999 Y-28.727 E935.81742
G0 F18000 X18.499 Y-28.727
G1 F2400 X18.5 Y28.728 E938.80325
G0 F18000 X19 Y28.728
G1 F2400 X18.999 Y-28.727 E941.78912
G0 F18000 X19.499 Y-28.727
G1 F2400 X19.5 Y28.728 E944.77495
G0 F18000 X20 Y28.728
G1 F2400 X19.999 Y-28.727 E947.76083
G0 F18000 X20.499 Y-28.727
G1 F2400 X20.5 Y28.728 E950.74665
G0 F18000 X21 Y28.728
G1 F2400 X20.999 Y-28.727 E953.73253
G0 F18000 X21.499 Y-28.727
G1 F2400 X21.5 Y28.728 E956.71835
G0 F18000 X22 Y28.728
G1 F2400 X21.999 Y-28.727 E959.70423
G0 F18000 X22.499 Y-28.727
G1 F2400 X22.5 Y28.728 E962.69005
G0 F18000 X23 Y28.728
G1 F2400 X22.999 Y-28.727 E965.67593
G0 F18000 X23.499 Y-28.726
G1 F2400 X23.5 Y28.729 E968.66175
G0 F18000 X24 Y28.729
G1 F2400 X23.999 Y-28.726 E971.64763
G0 F18000 X24.499 Y-28.726
G1 F2400 X24.5 Y28.729 E974.63346
G0 F18000 X25 Y28.729
G1 F2400 X24.999 Y-28.726 E977.61933
G0 F18000 X25.499 Y-28.726
G1 F2400 X25.5 Y28.729 E980.60516
G0 F18000 X26 Y28.729
G1 F2400 X25.999 Y-28.726 E983.59103
G0 F18000 X26.499 Y-28.726
G1 F2400 X26.5 Y28.729 E986.57686
G0 F18000 X27 Y28.729
G1 F2400 X26.999 Y-28.726 E989.56273
G0 F18000 X27.499 Y-28.726
G1 F2400 X27.5 Y28.729 E992.54856
G0 F18000 X28 Y28.729
G1 F2400 X27.999 Y-28.726 E995.53444
G0 F18000 X28.499 Y-28.726
G1 F2400 X28.5 Y28.729 E998.52026
G0 F18000 X29 Y28.729
G1 F2400 X28.999 Y-28.726 E1001.50614
G0 F18000 X29.499 Y-28.726
G1 F2400 X29.5 Y28.729 E1004.49196
G0 F18000 X30 Y28.729
G1 F2400 X29.999 Y-28.726 E1007.47784
G0 F18000 X30.499 Y-28.726
G1 F2400 X30.5 Y28.729 E1010.46366
G0 F18000 X31 Y28.729
G1 F2400 X30.999 Y-28.726 E1013.44954
G0 F18000 X31.499 Y-28.726
G1 F2400 X31.5 Y28.729 E1016.43536
G0 F18000 X32 Y28.729
G1 F2400 X31.999 Y-28.726 E1019.42124
G0 F18000 X32.499 Y-28.726
G1 F2400 X32.5 Y28.729 E1022.40707
G0 F18000 X33 Y28.729
G1 F2400 X33 Y-28.726 E1025.39294
G0 F18000 X33.5 Y-28.726
G1 F2400 X33.5 Y28.729 E1028.37877
G0 F18000 X34 Y28.729
G1 F2400 X34 Y-28.726 E1031.36464
G0 F18000 X34.5 Y-28.726
G1 F2400 X34.5 Y28.729 E1034.35047
G0 F18000 X35 Y28.729
G1 F2400 X35 Y-28.726 E1037.33635
G0 F18000 X35.5 Y-28.691
G1 F2400 X35.5 Y28.692 E1040.31843
G0 F18000 X36 Y28.445
G1 F2400 X36 Y-28.44 E1043.27468
; LAYER:2
M106 S153
G0 F18000 X36.177 Y-28.547 Z0.8
; TYPE:WALL-INNER
G1 F2400 X36.282 Y-28.428 E1043.28289
G1 X36.367 Y-28.301 E1043.29079
G1 X36.446 Y-28.141 E1043.30002
G1 X36.487 Y-28.019 E1043.30666
G1 X36.54 Y-27.617 E1043.32768
G1 X36.54 Y27.618 E1046.19813
G1 X36.487 Y28.02 E1046.2192
G1 X36.371 Y28.293 E1046.23462
G1 X36.28 Y28.43 E1046.24317
G1 X36.172 Y28.552 E1046.25163
G1 X36.043 Y28.665 E1046.26055
G1 X35.762 Y28.825 E1046.27735
G1 X35.618 Y28.87 E1046.28519
G1 X35.238 Y28.92 E1046.30511
G1 X-35.268 Y28.916 E1049.96923
G1 X-35.646 Y28.864 E1049.98911
G1 X-35.923 Y28.745 E1050.00483
G1 X-36.168 Y28.556 E1050.02095
G1 X-36.279 Y28.43 E1050.02971
G1 X-36.37 Y28.293 E1050.03829
G1 X-36.486 Y28.02 E1050.05372
G1 X-36.539 Y27.618 E1050.0748
G1 X-36.539 Y-27.617 E1052.94531
G1 X-36.486 Y-28.019 E1052.96642
G1 X-36.445 Y-28.141 E1052.97315
G1 X-36.366 Y-28.301 E1052.98244
G1 X-36.284 Y-28.424 E1052.99014
G1 X-36.167 Y-28.555 E1052.99927
G1 X-36.038 Y-28.666 E1053.00811
G1 X-35.903 Y-28.755 E1053.0165
G1 X-35.761 Y-28.824 E1053.02468
G1 X-35.617 Y-28.869 E1053.03249
G1 X-35.237 Y-28.919 E1053.05236
G1 X35.269 Y-28.915 E1056.71643
G1 X35.647 Y-28.863 E1056.73626
G1 X35.923 Y-28.745 E1056.75184
G1 X36.177 Y-28.547 E1056.76854
G0 F18000 X36.53 Y-28.903
; TYPE:WALL-OUTER
G1 F2100 X36.678 Y-28.736 E1056.7801
G1 X36.804 Y-28.547 E1056.79186
G1 X36.906 Y-28.339 E1056.80385
G1 X36.977 Y-28.13 E1056.81527
G1 X37.04 Y-27.651 E1056.84033
G1 X37.04 Y27.652 E1059.71432
G1 X36.977 Y28.131 E1059.73942
G1 X36.906 Y28.34 E1059.7509
G1 X36.806 Y28.543 E1059.76266
G1 X36.678 Y28.735 E1059.77465
G1 X36.528 Y28.906 E1059.78647
G1 X36.342 Y29.067 E1059.79925
G1 X36.153 Y29.191 E1059.811
G1 X35.945 Y29.292 E1059.82302
G1 X35.727 Y29.36 E1059.83489
G1 X35.272 Y29.42 E1059.85874
G1 X-35.3 Y29.416 E1063.52629
G1 X-35.765 Y29.352 E1063.55073
G1 X-35.966 Y29.282 E1063.56184
G1 X-36.18 Y29.175 E1063.57433
G1 X-36.36 Y29.052 E1063.5857
G1 X-36.526 Y28.907 E1063.59719
G1 X-36.677 Y28.735 E1063.60912
G1 X-36.805 Y28.543 E1063.62114
G1 X-36.905 Y28.34 E1063.63293
G1 X-36.976 Y28.131 E1063.64441
G1 X-37.039 Y27.652 E1063.66953
G1 X-37.039 Y-27.651 E1066.54357
G1 X-36.976 Y-28.13 E1066.56872
G1 X-36.905 Y-28.339 E1066.58022
G1 X-36.803 Y-28.547 E1066.59229
G1 X-36.679 Y-28.732 E1066.60387
G1 X-36.518 Y-28.912 E1066.61643
G1 X-36.343 Y-29.063 E1066.62844
G1 X-36.148 Y-29.192 E1066.64057
G1 X-35.944 Y-29.291 E1066.65233
G1 X-35.726 Y-29.359 E1066.66417
G1 X-35.271 Y-29.419 E1066.68797
G1 X35.301 Y-29.415 E1070.35547
G1 X35.766 Y-29.351 E1070.37986
G1 X35.967 Y-29.281 E1070.3909
G1 X36.176 Y-29.177 E1070.40301
G1 X36.367 Y-29.046 E1070.41502
G1 X36.53 Y-28.903 E1070.42626
G0 F18000 X35.928 Y-28.5
; TYPE:FILL
G1 F2400 X-35.926 Y-28.499 E1074.16043
G0 F18000 X-36.29 Y-27.999
G1 F2400 X36.291 Y-28 E1077.93234
G0 F18000 X36.35 Y-27.5
G1 F2400 X-36.349 Y-27.499 E1081.71043
G0 F18000 X-36.349 Y-26.999
G1 F2400 X36.35 Y-27 E1085.48847
G0 F18000 X36.35 Y-26.5
G1 F2400 X-36.349 Y-26.499 E1089.26656
G0 F18000 X-36.349 Y-25.999
G1 F2400 X36.35 Y-26 E1093.0446
G0 F18000 X36.35 Y-25.5
G1 F2400 X-36.349 Y-25.499 E1096.82269
G0 F18000 X-36.349 Y-24.999
G1 F2400 X36.35 Y-25 E1100.60073
G0 F18000 X36.35 Y-24.5
G1 F2400 X-36.349 Y-24.499 E1104.37882
G0 F18000 X-36.349 Y-23.999
G1 F2400 X36.35 Y-24 E1108.15686
G0 F18000 X36.35 Y-23.5
G1 F2400 X-36.349 Y-23.499 E1111.93496
G0 F18000 X-36.349 Y-22.999
G1 F2400 X36.35 Y-23 E1115.713
G0 F18000 X36.35 Y-22.5
G1 F2400 X-36.349 Y-22.499 E1119.49109
G0 F18000 X-36.349 Y-21.999
G1 F2400 X36.35 Y-22 E1123.26913
G0 F18000 X36.35 Y-21.5
G1 F2400 X-36.349 Y-21.499 E1127.04722
G0 F18000 X-36.349 Y-20.999
G1 F2400 X36.35 Y-21 E1130.82526
G0 F18000 X36.35 Y-20.5
G1 F2400 X-36.349 Y-20.499 E1134.60335
G0 F18000 X-36.349 Y-19.999
G1 F2400 X36.35 Y-20 E1138.38139
G0 F18000 X36.35 Y-19.5
G1 F2400 X-36.349 Y-19.499 E1142.15948
G0 F18000 X-36.349 Y-18.999
G1 F2400 X36.35 Y-19 E1145.93752
G0 F18000 X36.35 Y-18.5
G1 F2400 X-36.349 Y-18.499 E1149.71561
G0 F18000 X-36.349 Y-17.999
G1 F2400 X36.35 Y-18 E1153.49365
G0 F18000 X36.35 Y-17.5
G1 F2400 X-36.349 Y-17.499 E1157.27174
G0 F18000 X-36.349 Y-16.999
G1 F2400 X36.35 Y-17 E1161.04978
G0 F18000 X36.35 Y-16.5
G1 F2400 X-36.349 Y-16.499 E1164.82787
G0 F18000 X-36.349 Y-15.999
G1 F2400 X36.35 Y-16 E1168.60591
G0 F18000 X36.35 Y-15.5
G1 F2400 X-36.349 Y-15.499 E1172.384
G0 F18000 X-36.349 Y-14.999
G1 F2400 X36.35 Y-15 E1176.16204
G0 F18000 X36.35 Y-14.5
G1 F2400 X-36.349 Y-14.499 E1179.94013
G0 F18000 X-36.349 Y-13.999
G1 F2400 X36.35 Y-14 E1183.71817
G0 F18000 X36.35 Y-13.5
G1 F2400 X-36.349 Y-13.499 E1187.49627
G0 F18000 X-36.349 Y-12.999
G1 F2400 X36.35 Y-13 E1191.27431
G0 F18000 X36.35 Y-12.5
G1 F2400 X-36.349 Y-12.499 E1195.0524
G0 F18000 X-36.349 Y-11.999
G1 F2400 X36.35 Y-12 E1198.83044
G0 F18000 X36.35 Y-11.5
G1 F2400 X-36.349 Y-11.499 E1202.60853
G0 F18000 X-36.349 Y-10.999
G1 F2400 X36.35 Y-11 E1206.38657
G0 F18000 X36.35 Y-10.5
G1 F2400 X-36.349 Y-10.499 E1210.16466
G0 F18000 X-36.349 Y-9.999
G1 F2400 X36.35 Y-10 E1213.9427
G0 F18000 X36.35 Y-9.5
G1 F2400 X-36.349 Y-9.499 E1217.72079
G0 F18000 X-36.349 Y-8.999
G1 F2400 X36.35 Y-9 E1221.49883
G0 F18000 X36.35 Y-8.5
G1 F2400 X-36.349 Y-8.499 E1225.27692
G0 F18000 X-36.349 Y-7.999
G1 F2400 X36.35 Y-8 E1229.05496
G0 F18000 X36.35 Y-7.5
G1 F2400 X-36.349 Y-7.499 E1232.83305
G0 F18000 X-36.349 Y-6.999
G1 F2400 X36.35 Y-7 E1236.61109
G0 F18000 X36.35 Y-6.5
G1 F2400 X-36.349 Y-6.499 E1240.38918
G0 F18000 X-36.349 Y-5.999
G1 F2400 X36.35 Y-6 E1244.16722
G0 F18000 X36.35 Y-5.5
G1 F2400 X-36.349 Y-5.499 E1247.94531
G0 F18000 X-36.349 Y-4.999
G1 F2400 X36.35 Y-5 E1251.72335
G0 F18000 X36.35 Y-4.5
G1 F2400 X-36.349 Y-4.499 E1255.50145
G0 F18000 X-36.349 Y-3.999
G1 F2400 X36.35 Y-4 E1259.27948
G0 F18000 X36.35 Y-3.5
G1 F2400 X-36.349 Y-3.499 E1263.05758
G0 F18000 X-36.349 Y-2.999
G1 F2400 X36.35 Y-3 E1266.83562
G0 F18000 X36.35 Y-2.5
G1 F2400 X-36.349 Y-2.499 E1270.61371
G0 F18000 X-36.349 Y-1.999
G1 F2400 X36.35 Y-2 E1274.39175
G0 F18000 X36.35 Y-1.5
G1 F2400 X-36.349 Y-1.499 E1278.16984
G0 F18000 X-36.349 Y-0.999
G1 F2400 X36.35 Y-1 E1281.94788
G0 F18000 X36.35 Y-0.5
G1 F2400 X-36.349 Y-0.499 E1285.72597
G0 F18000 X-36.349 Y0
G1 F2400 X36.35 Y0 E1289.50401
G0 F18000 X36.35 Y0.499
G1 F2400 X-36.349 Y0.5 E1293.2821
G0 F18000 X-36.349 Y1
G1 F2400 X36.35 Y0.999 E1297.06014
G0 F18000 X36.35 Y1.499
G1 F2400 X-36.349 Y1.5 E1300.83823
G0 F18000 X-36.349 Y2
G1 F2400 X36.35 Y1.999 E1304.61627
G0 F18000 X36.35 Y2.499
G1 F2400 X-36.349 Y2.5 E1308.39436
G0 F18000 X-36.349 Y3
G1 F2400 X36.35 Y2.999 E1312.1724
G0 F18000 X36.35 Y3.499
G1 F2400 X-36.349 Y3.5 E1315.95049
G0 F18000 X-36.349 Y4
G1 F2400 X36.35 Y3.999 E1319.72853
G0 F18000 X36.35 Y4.499
G1 F2400 X-36.349 Y4.5 E1323.50662
G0 F18000 X-36.349 Y5
G1 F2400 X36.35 Y4.999 E1327.28466
G0 F18000 X36.35 Y5.499
G1 F2400 X-36.349 Y5.5 E1331.06276
G0 F18000 X-36.349 Y6
G1 F2400 X36.35 Y5.999 E1334.84079
G0 F18000 X36.35 Y6.499
G1 F2400 X-36.349 Y6.5 E1338.61889
G0 F18000 X-36.349 Y7
G1 F2400 X36.35 Y6.999 E1342.39693
G0 F18000 X36.35 Y7.499
G1 F2400 X-36.349 Y7.5 E1346.17502
G0 F18000 X-36.349 Y8
G1 F2400 X36.35 Y7.999 E1349.95306
G0 F18000 X36.35 Y8.499
G1 F2400 X-36.349 Y8.5 E1353.73115
G0 F18000 X-36.349 Y9
G1 F2400 X36.35 Y8.999 E1357.50919
G0 F18000 X36.35 Y9.499
G1 F2400 X-36.349 Y9.5 E1361.28728
G0 F18000 X-36.349 Y10
G1 F2400 X36.35 Y9.999 E1365.06532
G0 F18000 X36.35 Y10.499
G1 F2400 X-36.349 Y10.5 E1368.84341
G0 F18000 X-36.349 Y11
G1 F2400 X36.35 Y10.999 E1372.62145
G0 F18000 X36.35 Y11.499
G1 F2400 X-36.349 Y11.5 E1376.39954
G0 F18000 X-36.349 Y12
G1 F2400 X36.35 Y11.999 E1380.17758
G0 F18000 X36.35 Y12.499
G1 F2400 X-36.349 Y12.5 E1383.95567
G0 F18000 X-36.349 Y13
G1 F2400 X36.35 Y12.999 E1387.73371
G0 F18000 X36.35 Y13.499
G1 F2400 X-36.349 Y13.5 E1391.5118
G0 F18000 X-36.349 Y14
G1 F2400 X36.35 Y13.999 E1395.28984
G0 F18000 X36.35 Y14.499
G1 F2400 X-36.349 Y14.5 E1399.06793
G0 F18000 X-36.349 Y15
G1 F2400 X36.35 Y14.999 E1402.84597
G0 F18000 X36.35 Y15.499
G1 F2400 X-36.349 Y15.5 E1406.62407
G0 F18000 X-36.349 Y16
G1 F2400 X36.35 Y15.999 E1410.40211
G0 F18000 X36.35 Y16.499
G1 F2400 X-36.349 Y16.5 E1414.1802
G0 F18000 X-36.349 Y17
G1 F2400 X36.35 Y16.999 E1417.95824
G0 F18000 X36.35 Y17.499
G1 F2400 X-36.349 Y17.5 E1421.73633
G0 F18000 X-36.349 Y18
G1 F2400 X36.35 Y17.999 E1425.51437
G0 F18000 X36.35 Y18.499
G1 F2400 X-36.349 Y18.5 E1429.29246
G0 F18000 X-36.349 Y19
G1 F2400 X36.35 Y18.999 E1433.0705
G0 F18000 X36.35 Y19.499
G1 F2400 X-36.349 Y19.5 E1436.84859
G0 F18000 X-36.349 Y20
G1 F2400 X36.35 Y19.999 E1440.62663
G0 F18000 X36.35 Y20.499
G1 F2400 X-36.349 Y20.5 E1444.40472
G0 F18000 X-36.349 Y21
G1 F2400 X36.35 Y20.999 E1448.18276
G0 F18000 X36.35 Y21.499
G1 F2400 X-36.349 Y21.5 E1451.96085
G0 F18000 X-36.349 Y22
G1 F2400 X36.35 Y21.999 E1455.73889
G0 F18000 X36.35 Y22.499
G1 F2400 X-36.349 Y22.5 E1459.51698
G0 F18000 X-36.349 Y23
G1 F2400 X36.35 Y22.999 E1463.29502
G0 F18000 X36.35 Y23.499
G1 F2400 X-36.349 Y23.5 E1467.07311
G0 F18000 X-36.349 Y24
G1 F2400 X36.35 Y23.999 E1470.85115
G0 F18000 X36.35 Y24.499
G1 F2400 X-36.349 Y24.5 E1474.62924
G0 F18000 X-36.349 Y25
G1 F2400 X36.35 Y24.999 E1478.40728
G0 F18000 X36.35 Y25.499
G1 F2400 X-36.349 Y25.5 E1482.18538
G0 F18000 X-36.349 Y26
G1 F2400 X36.35 Y25.999 E1485.96342
G0 F18000 X36.35 Y26.499
G1 F2400 X-36.349 Y26.5 E1489.74151
G0 F18000 X-36.349 Y27
G1 F2400 X36.35 Y26.999 E1493.51955
G0 F18000 X36.35 Y27.499
G1 F2400 X-36.349 Y27.5 E1497.29764
G0 F18000 X-36.287 Y28
G1 F2400 X36.288 Y27.999 E1501.06923
G0 F18000 X35.942 Y28.499
G1 F2400 X-35.928 Y28.5 E1504.80424
; LAYER:3
G0 F18000 X-35.923 Y28.743 Z1.05
; TYPE:WALL-INNER
G1 F2400 X-36.167 Y28.557 E1504.82023
G1 X-36.279 Y28.43 E1504.82906
G1 X-36.37 Y28.293 E1504.83764
G1 X-36.486 Y28.02 E1504.85307
G1 X-36.539 Y27.618 E1504.87415
G1 X-36.539 Y-27.617 E1507.74466
G1 X-36.486 Y-28.019 E1507.76578
G1 X-36.445 Y-28.141 E1507.7725
G1 X-36.366 Y-28.301 E1507.7818
G1 X-36.284 Y-28.424 E1507.78949
G1 X-36.163 Y-28.558 E1507.79888
G1 X-36.035 Y-28.669 E1507.80768
G1 X-35.76 Y-28.824 E1507.82407
G1 X-35.61 Y-28.87 E1507.83218
G1 X-35.236 Y-28.919 E1507.85174
G1 X35.276 Y-28.914 E1511.51613
G1 X35.651 Y-28.861 E1511.5358
G1 X35.923 Y-28.743 E1511.55119
G1 X36.064 Y-28.648 E1511.56
G1 X36.282 Y-28.428 E1511.57605
G1 X36.367 Y-28.301 E1511.58395
G1 X36.446 Y-28.141 E1511.59318
G1 X36.487 Y-28.019 E1511.59982
G1 X36.54 Y-27.617 E1511.62084
G1 X36.54 Y27.618 E1514.49129
G1 X36.487 Y28.02 E1514.51237
G1 X36.371 Y28.293 E1514.52778
G1 X36.28 Y28.43 E1514.53633
G1 X36.171 Y28.553 E1514.54487
G1 X36.04 Y28.667 E1514.55389
G1 X35.9 Y28.758 E1514.56257
G1 X35.761 Y28.825 E1514.57059
G1 X35.611 Y28.871 E1514.57874
G1 X35.237 Y28.92 E1514.59835
G1 X-35.275 Y28.915 E1518.26278
G1 X-35.65 Y28.862 E1518.28252
G1 X-35.923 Y28.743 E1518.29804
G0 F18000 X-36.178 Y29.174
; TYPE:WALL-OUTER
G1 F2100 X-36.37 Y29.043 E1518.31016
G1 X-36.526 Y28.907 E1518.32096
G1 X-36.677 Y28.735 E1518.33289
G1 X-36.805 Y28.543 E1518.34491
G1 X-36.905 Y28.34 E1518.35669
G1 X-36.976 Y28.131 E1518.36818
G1 X-37.039 Y27.652 E1518.39329
G1 X-37.039 Y-27.651 E1521.26733
G1 X-36.976 Y-28.13 E1521.29248
G1 X-36.905 Y-28.339 E1521.30399
G1 X-36.803 Y-28.547 E1521.31605
G1 X-36.68 Y-28.732 E1521.32761
G1 X-36.51 Y-28.92 E1521.34079
G1 X-36.342 Y-29.065 E1521.35232
G1 X-36.146 Y-29.192 E1521.36444
G1 X-35.942 Y-29.291 E1521.3762
G1 X-35.714 Y-29.36 E1521.38854
G1 X-35.271 Y-29.419 E1521.41172
G1 X35.31 Y-29.414 E1525.07969
G1 X35.77 Y-29.349 E1525.10383
G1 X35.973 Y-29.278 E1525.11499
G1 X36.183 Y-29.171 E1525.12721
G1 X36.37 Y-29.045 E1525.1389
G1 X36.531 Y-28.902 E1525.15006
G1 X36.678 Y-28.736 E1525.16154
G1 X36.804 Y-28.547 E1525.1733
G1 X36.906 Y-28.339 E1525.1853
G1 X36.977 Y-28.13 E1525.19672
G1 X37.04 Y-27.651 E1525.22178
G1 X37.04 Y27.652 E1528.09576
G1 X36.977 Y28.131 E1528.12087
G1 X36.906 Y28.34 E1528.13234
G1 X36.806 Y28.543 E1528.1441
G1 X36.678 Y28.735 E1528.15609
G1 X36.528 Y28.906 E1528.16792
G1 X36.34 Y29.069 E1528.18085
G1 X36.147 Y29.193 E1528.19277
G1 X35.943 Y29.292 E1528.20455
G1 X35.715 Y29.361 E1528.21693
G1 X35.272 Y29.42 E1528.24016
G1 X-35.309 Y29.415 E1531.90818
G1 X-35.769 Y29.35 E1531.93237
G1 X-35.972 Y29.279 E1531.9436
G1 X-36.178 Y29.174 E1531.95566
G0 F18000 X-36 Y28.444
; TYPE:FILL
G1 F2400 X-36 Y-28.446 E1534.91218
G0 F18000 X-35.5 Y-28.692
G1 F2400 X-35.5 Y28.689 E1537.89415
G0 F18000 X-35 Y28.724
G1 F2400 X-35 Y-28.728 E1540.87988
G0 F18000 X-34.5 Y-28.728
G1 F2400 X-34.5 Y28.724 E1543.86554
G0 F18000 X-34 Y28.724
G1 F2400 X-34 Y-28.728 E1546.85126
G0 F18000 X-33.5 Y-28.728
G1 F2400 X-33.5 Y28.724 E1549.83693
G0 F18000 X-33 Y28.724
G1 F2400 X-33 Y-28.728 E1552.82265
G0 F18000 X-32.5 Y-28.728
G1 F2400 X-32.499 Y28.724 E1555.80832
G0 F18000 X-31.999 Y28.724
G1 F2400 X-32 Y-28.728 E1558.79404
G0 F18000 X-31.5 Y-28.728
G1 F2400 X-31.499 Y28.724 E1561.77971
G0 F18000 X-30.999 Y28.724
G1 F2400 X-31 Y-28.728 E1564.76543
G0 F18000 X-30.5 Y-28.728
G1 F2400 X-30.499 Y28.724 E1567.7511
G0 F18000 X-29.999 Y28.724
G1 F2400 X-30 Y-28.728 E1570.73682
G0 F18000 X-29.5 Y-28.728
G1 F2400 X-29.499 Y28.724 E1573.72249
G0 F18000 X-28.999 Y28.725
G1 F2400 X-29 Y-28.727 E1576.70821
G0 F18000 X-28.5 Y-28.727
G1 F2400 X-28.499 Y28.725 E1579.69388
G0 F18000 X-27.999 Y28.725
G1 F2400 X-28 Y-28.727 E1582.6796
G0 F18000 X-27.5 Y-28.727
G1 F2400 X-27.499 Y28.725 E1585.66527
G0 F18000 X-26.999 Y28.725
G1 F2400 X-27 Y-28.727 E1588.65099
G0 F18000 X-26.5 Y-28.727
G1 F2400 X-26.499 Y28.725 E1591.63666
G0 F18000 X-25.999 Y28.725
G1 F2400 X-26 Y-28.727 E1594.62238
G0 F18000 X-25.5 Y-28.727
G1 F2400 X-25.499 Y28.725 E1597.60805
G0 F18000 X-24.999 Y28.725
G1 F2400 X-25 Y-28.727 E1600.59377
G0 F18000 X-24.5 Y-28.727
G1 F2400 X-24.499 Y28.725 E1603.57944
G0 F18000 X-23.999 Y28.725
G1 F2400 X-24 Y-28.727 E1606.56516
G0 F18000 X-23.5 Y-28.727
G1 F2400 X-23.499 Y28.725 E1609.55083
G0 F18000 X-22.999 Y28.725
G1 F2400 X-23 Y-28.727 E1612.53655
G0 F18000 X-22.5 Y-28.727
G1 F2400 X-22.499 Y28.725 E1615.52222
G0 F18000 X-21.999 Y28.725
G1 F2400 X-22 Y-28.727 E1618.50794
G0 F18000 X-21.5 Y-28.727
G1 F2400 X-21.499 Y28.725 E1621.49361
G0 F18000 X-20.999 Y28.725
G1 F2400 X-21 Y-28.727 E1624.47933
G0 F18000 X-20.5 Y-28.727
G1 F2400 X-20.499 Y28.725 E1627.465
G0 F18000 X-19.999 Y28.725
G1 F2400 X-20 Y-28.727 E1630.45072
G0 F18000 X-19.5 Y-28.727
G1 F2400 X-19.499 Y28.725 E1633.43639
G0 F18000 X-18.999 Y28.725
G1 F2400 X-19 Y-28.727 E1636.42211
G0 F18000 X-18.5 Y-28.727
G1 F2400 X-18.499 Y28.725 E1639.40778
G0 F18000 X-17.999 Y28.725
G1 F2400 X-18 Y-28.727 E1642.3935
G0 F18000 X-17.5 Y-28.726
G1 F2400 X-17.499 Y28.726 E1645.37917
G0 F18000 X-16.999 Y28.726
G1 F2400 X-17 Y-28.726 E1648.36489
G0 F18000 X-16.5 Y-28.726
G1 F2400 X-16.499 Y28.726 E1651.35056
G0 F18000 X-15.999 Y28.726
G1 F2400 X-16 Y-28.726 E1654.33628
G0 F18000 X-15.5 Y-28.726
G1 F2400 X-15.499 Y28.726 E1657.32194
G0 F18000 X-14.999 Y28.726
G1 F2400 X-15 Y-28.726 E1660.30767
G0 F18000 X-14.5 Y-28.727
G1 F2400 X-14.499 Y28.726 E1663.29339
G0 F18000 X-13.999 Y28.726
G1 F2400 X-14 Y-28.727 E1666.27916
G0 F18000 X-13.5 Y-28.727
G1 F2400 X-13.499 Y28.726 E1669.26488
G0 F18000 X-12.999 Y28.726
G1 F2400 X-13 Y-28.727 E1672.25065
G0 F18000 X-12.5 Y-28.727
G1 F2400 X-12.499 Y28.726 E1675.23637
G0 F18000 X-11.999 Y28.726
G1 F2400 X-12 Y-28.727 E1678.22215
G0 F18000 X-11.5 Y-28.727
G1 F2400 X-11.499 Y28.726 E1681.20787
G0 F18000 X-10.999 Y28.726
G1 F2400 X-11 Y-28.727 E1684.19364
G0 F18000 X-10.5 Y-28.727
G1 F2400 X-10.499 Y28.726 E1687.17936
G0 F18000 X-9.999 Y28.726
G1 F2400 X-10 Y-28.727 E1690.16513
G0 F18000 X-9.5 Y-28.727
G1 F2400 X-9.499 Y28.726 E1693.15085
G0 F18000 X-8.999 Y28.726
G1 F2400 X-9 Y-28.727 E1696.13663
G0 F18000 X-8.5 Y-28.727
G1 F2400 X-8.499 Y28.726 E1699.12235
G0 F18000 X-7.999 Y28.726
G1 F2400 X-8 Y-28.727 E1702.10812
G0 F18000 X-7.5 Y-28.727
G1 F2400 X-7.499 Y28.726 E1705.09384
G0 F18000 X-6.999 Y28.726
G1 F2400 X-7 Y-28.727 E1708.07961
G0 F18000 X-6.5 Y-28.727
G1 F2400 X-6.499 Y28.726 E1711.06533
G0 F18000 X-5.999 Y28.726
G1 F2400 X-6 Y-28.727 E1714.05111
G0 F18000 X-5.5 Y-28.726
G1 F2400 X-5.499 Y28.727 E1717.03683
G0 F18000 X-4.999 Y28.727
G1 F2400 X-5 Y-28.726 E1720.0226
G0 F18000 X-4.5 Y-28.726
G1 F2400 X-4.499 Y28.727 E1723.00832
G0 F18000 X-3.999 Y28.727
G1 F2400 X-4 Y-28.726 E1725.99409
G0 F18000 X-3.5 Y-28.726
G1 F2400 X-3.499 Y28.727 E1728.97981
G0 F18000 X-2.999 Y28.727
G1 F2400 X-3 Y-28.726 E1731.96559
G0 F18000 X-2.5 Y-28.726
G1 F2400 X-2.499 Y28.727 E1734.95131
G0 F18000 X-1.999 Y28.727
G1 F2400 X-2 Y-28.726 E1737.93708
G0 F18000 X-1.5 Y-28.726
G1 F2400 X-1.499 Y28.727 E1740.9228
G0 F18000 X-0.999 Y28.727
G1 F2400 X-1 Y-28.726 E1743.90857
G0 F18000 X-0.5 Y-28.726
G1 F2400 X-0.499 Y28.727 E1746.89429
G0 F18000 X0 Y28.727
G1 F2400 X0 Y-28.726 E1749.88007
G0 F18000 X0.499 Y-28.726
G1 F2400 X0.5 Y28.727 E1752.86579
G0 F18000 X1 Y28.727
G1 F2400 X0.999 Y-28.726 E1755.85156
G0 F18000 X1.499 Y-28.726
G1 F2400 X1.5 Y28.727 E1758.83728
G0 F18000 X2 Y28.727
G1 F2400 X1.999 Y-28.726 E1761.82305
G0 F18000 X2.499 Y-28.726
G1 F2400 X2.5 Y28.727 E1764.80878
G0 F18000 X3 Y28.727
G1 F2400 X2.999 Y-28.726 E1767.79455
G0 F18000 X3.499 Y-28.726
G1 F2400 X3.5 Y28.727 E1770.78027
G0 F18000 X4 Y28.727
G1 F2400 X3.999 Y-28.726 E1773.76604
G0 F18000 X4.499 Y-28.726
G1 F2400 X4.5 Y28.727 E1776.75176
G0 F18000 X5 Y28.727
G1 F2400 X4.999 Y-28.726 E1779.73753
G0 F18000 X5.499 Y-28.726
G1 F2400 X5.5 Y28.727 E1782.72326
G0 F18000 X6 Y28.728
G1 F2400 X5.999 Y-28.725 E1785.70903
G0 F18000 X6.499 Y-28.725
G1 F2400 X6.5 Y28.728 E1788.69475
G0 F18000 X7 Y28.728
G1 F2400 X6.999 Y-28.725 E1791.68052
G0 F18000 X7.499 Y-28.725
G1 F2400 X7.5 Y28.728 E1794.66624
G0 F18000 X8 Y28.728
G1 F2400 X7.999 Y-28.725 E1797.65202
G0 F18000 X8.499 Y-28.725
G1 F2400 X8.5 Y28.728 E1800.63774
G0 F18000 X9 Y28.728
G1 F2400 X8.999 Y-28.725 E1803.62351
G0 F18000 X9.499 Y-28.725
G1 F2400 X9.5 Y28.728 E1806.60923
G0 F18000 X10 Y28.728
G1 F2400 X9.999 Y-28.725 E1809.595
G0 F18000 X10.499 Y-28.725
G1 F2400 X10.5 Y28.728 E1812.58072
G0 F18000 X11 Y28.728
G1 F2400 X10.999 Y-28.725 E1815.5665
G0 F18000 X11.499 Y-28.725
G1 F2400 X11.5 Y28.728 E1818.55222
G0 F18000 X12 Y28.728
G1 F2400 X11.999 Y-28.725 E1821.53799
G0 F18000 X12.499 Y-28.725
G1 F2400 X12.5 Y28.728 E1824.52371
G0 F18000 X13 Y28.728
G1 F2400 X12.999 Y-28.725 E1827.50948
G0 F18000 X13.499 Y-28.725
G1 F2400 X13.5 Y28.728 E1830.4952
G0 F18000 X14 Y28.728
G1 F2400 X13.999 Y-28.725 E1833.48098
G0 F18000 X14.499 Y-28.725
G1 F2400 X14.5 Y28.728 E1836.4667
G0 F18000 X15 Y28.727
G1 F2400 X14.999 Y-28.725 E1839.45242
G0 F18000 X15.499 Y-28.725
G1 F2400 X15.5 Y28.727 E1842.43809
G0 F18000 X16 Y28.727
G1 F2400 X15.999 Y-28.725 E1845.42381
G0 F18000 X16.499 Y-28.725
G1 F2400 X16.5 Y28.727 E1848.40948
G0 F18000 X17 Y28.727
G1 F2400 X16.999 Y-28.725 E1851.3952
G0 F18000 X17.499 Y-28.725
G1 F2400 X17.5 Y28.727 E1854.38087
G0 F18000 X18 Y28.728
G1 F2400 X17.999 Y-28.724 E1857.36659
G0 F18000 X18.499 Y-28.724
G1 F2400 X18.5 Y28.728 E1860.35226
G0 F18000 X19 Y28.728
G1 F2400 X18.999 Y-28.724 E1863.33798
G0 F18000 X19.499 Y-28.724
G1 F2400 X19.5 Y28.728 E1866.32364
G0 F18000 X20 Y28.728
G1 F2400 X19.999 Y-28.724 E1869.30937
G0 F18000 X20.499 Y-28.724
G1 F2400 X20.5 Y28.728 E1872.29503
G0 F18000 X21 Y28.728
G1 F2400 X20.999 Y-28.724 E1875.28075
G0 F18000 X21.499 Y-28.724
G1 F2400 X21.5 Y28.728 E1878.26642
G0 F18000 X22 Y28.728
G1 F2400 X21.999 Y-28.724 E1881.25214
G0 F18000 X22.499 Y-28.724
G1 F2400 X22.5 Y28.728 E1884.23781
G0 F18000 X23 Y28.728
G1 F2400 X22.999 Y-28.724 E1887.22353
G0 F18000 X23.499 Y-28.724
G1 F2400 X23.5 Y28.728 E1890.2092
G0 F18000 X24 Y28.728
G1 F2400 X23.999 Y-28.724 E1893.19492
G0 F18000 X24.499 Y-28.724
G1 F2400 X24.5 Y28.728 E1896.18059
G0 F18000 X25 Y28.728
G1 F2400 X24.999 Y-28.724 E1899.16631
G0 F18000 X25.499 Y-28.724
G1 F2400 X25.5 Y28.728 E1902.15198
G0 F18000 X26 Y28.728
G1 F2400 X25.999 Y-28.724 E1905.1377
G0 F18000 X26.499 Y-28.724
G1 F2400 X26.5 Y28.728 E1908.12337
G0 F18000 X27 Y28.728
G1 F2400 X26.999 Y-28.724 E1911.10909
G0 F18000 X27.499 Y-28.724
G1 F2400 X27.5 Y28.728 E1914.09476
G0 F18000 X28 Y28.728
G1 F2400 X27.999 Y-28.724 E1917.08048
G0 F18000 X28.499 Y-28.724
G1 F2400 X28.5 Y28.728 E1920.06615
G0 F18000 X29 Y28.728
G1 F2400 X28.999 Y-28.724 E1923.05187
G0 F18000 X29.499 Y-28.723
G1 F2400 X29.5 Y28.729 E1926.03754
G0 F18000 X30 Y28.729
G1 F2400 X29.999 Y-28.723 E1929.02326
G0 F18000 X30.499 Y-28.723
G1 F2400 X30.5 Y28.729 E1932.00893
G0 F18000 X31 Y28.729
G1 F2400 X30.999 Y-28.723 E1934.99465
G0 F18000 X31.499 Y-28.723
G1 F2400 X31.5 Y28.729 E1937.98032
G0 F18000 X32 Y28.729
G1 F2400 X31.999 Y-28.723 E1940.96604
G0 F18000 X32.499 Y-28.723
G1 F2400 X32.5 Y28.729 E1943.95171
G0 F18000 X33 Y28.729
G1 F2400 X33 Y-28.723 E1946.93743
G0 F18000 X33.5 Y-28.723
G1 F2400 X33.5 Y28.729 E1949.9231
G0 F18000 X34 Y28.729
G1 F2400 X34 Y-28.723 E1952.90882
G0 F18000 X34.5 Y-28.723
G1 F2400 X34.5 Y28.729 E1955.89449
G0 F18000 X35 Y28.729
G1 F2400 X35 Y-28.723 E1958.88021
G0 F18000 X35.5 Y-28.689
G1 F2400 X35.5 Y28.694 E1961.86229
G0 F18000 X36 Y28.445
G1 F2400 X36 Y-28.441 E1964.8186
; LAYER:4
G0 F18000 X36.177 Y-28.547 Z1.3
; TYPE:WALL-INNER
G1 F2400 X36.282 Y-28.428 E1964.82681
G1 X36.367 Y-28.301 E1964.8347
G1 X36.446 Y-28.141 E1964.84393
G1 X36.487 Y-28.019 E1964.85057
G1 X36.54 Y-27.617 E1964.87159
G1 X36.54 Y27.618 E1967.74205
G1 X36.487 Y28.02 E1967.76312
G1 X36.371 Y28.293 E1967.77853
G1 X36.28 Y28.43 E1967.78708
G1 X36.173 Y28.551 E1967.79547
G1 X36.035 Y28.67 E1967.80494
G1 X35.897 Y28.76 E1967.81351
G1 X35.764 Y28.823 E1967.82115
G1 X35.598 Y28.873 E1967.83016
G1 X35.239 Y28.92 E1967.84898
G1 X-35.291 Y28.913 E1971.51435
G1 X-35.651 Y28.862 E1971.5333
G1 X-35.926 Y28.741 E1971.54896
G1 X-36.168 Y28.556 E1971.56483
G1 X-36.279 Y28.43 E1971.57359
G1 X-36.37 Y28.293 E1971.58217
G1 X-36.486 Y28.02 E1971.5976
G1 X-36.539 Y27.618 E1971.61868
G1 X-36.539 Y-27.617 E1974.48919
G1 X-36.486 Y-28.019 E1974.51031
G1 X-36.445 Y-28.141 E1974.51703
G1 X-36.366 Y-28.301 E1974.52632
G1 X-36.284 Y-28.424 E1974.53402
G1 X-36.158 Y-28.563 E1974.54378
G1 X-36.035 Y-28.669 E1974.55221
G1 X-35.763 Y-28.822 E1974.56841
G1 X-35.597 Y-28.872 E1974.57738
G1 X-35.238 Y-28.919 E1974.59615
G1 X35.292 Y-28.912 E1978.26147
G1 X35.652 Y-28.861 E1978.28036
G1 X35.926 Y-28.741 E1978.29589
G1 X36.177 Y-28.547 E1978.31234
G0 F18000 X36.531 Y-28.902
; TYPE:WALL-OUTER
G1 F2100 X36.678 Y-28.736 E1978.32382
G1 X36.804 Y-28.547 E1978.33559
G1 X36.906 Y-28.339 E1978.34758
G1 X36.977 Y-28.13 E1978.359
G1 X37.04 Y-27.651 E1978.38406
G1 X37.04 Y27.652 E1981.25804
G1 X36.977 Y28.131 E1981.28315
G1 X36.906 Y28.34 E1981.29462
G1 X36.806 Y28.543 E1981.30638
G1 X36.678 Y28.735 E1981.31838
G1 X36.525 Y28.909 E1981.33042
G1 X36.339 Y29.069 E1981.34317
G1 X36.14 Y29.198 E1981.35549
G1 X35.946 Y29.291 E1981.36667
G1 X35.7 Y29.364 E1981.38001
G1 X35.273 Y29.42 E1981.40239
G1 X-35.327 Y29.413 E1985.0714
G1 X-35.769 Y29.35 E1985.09465
G1 X-35.977 Y29.276 E1985.10617
G1 X-36.184 Y29.171 E1985.11828
G1 X-36.373 Y29.041 E1985.13025
G1 X-36.526 Y28.907 E1985.14086
G1 X-36.677 Y28.735 E1985.15278
G1 X-36.805 Y28.543 E1985.1648
G1 X-36.905 Y28.34 E1985.17659
G1 X-36.976 Y28.131 E1985.18808
G1 X-37.039 Y27.652 E1985.21319
G1 X-37.039 Y-27.651 E1988.08723
G1 X-36.976 Y-28.13 E1988.11238
G1 X-36.905 Y-28.339 E1988.12389
G1 X-36.803 Y-28.547 E1988.13595
G1 X-36.68 Y-28.731 E1988.14747
G1 X-36.507 Y-28.923 E1988.1609
G1 X-36.337 Y-29.068 E1988.17251
G1 X-36.138 Y-29.197 E1988.18482
G1 X-35.945 Y-29.29 E1988.19593
G1 X-35.699 Y-29.363 E1988.20923
G1 X-35.272 Y-29.419 E1988.23156
G1 X35.328 Y-29.412 E1991.90052
G1 X35.77 Y-29.349 E1991.92372
G1 X35.978 Y-29.275 E1991.93517
G1 X36.189 Y-29.167 E1991.94747
G1 X36.371 Y-29.043 E1991.95888
G1 X36.531 Y-28.902 E1991.96993
G0 F18000 X35.926 Y-28.5
; TYPE:FILL
G1 F2400 X-35.941 Y-28.499 E1995.70478
G0 F18000 X-35.974 Y-27.999
G1 F2400 X-36.29 Y-27.999 E1995.72126
G0 F18000 X-36.094 Y-27.999
G1 F2400 X36.291 Y-28 E1999.48298
G0 F18000 X36.35 Y-27.5
G1 F2400 X-36.094 Y-27.499 E2003.24782
G0 F18000 X-35.974 Y-27.499
G1 F2400 X-36.349 Y-27.249 E2003.26736
G1 X-35.974 Y-26.999 E2003.29071
G0 F18000 X-36.094 Y-26.999
G1 F2400 X36.35 Y-27 E2007.0555
G0 F18000 X36.35 Y-26.5
G1 F2400 X-36.094 Y-26.499 E2010.82034
G0 F18000 X-35.974 Y-26.499
G1 F2400 X-36.349 Y-26.249 E2010.83989
G1 X-35.974 Y-25.999 E2010.86324
G0 F18000 X-36.094 Y-25.999
G1 F2400 X36.35 Y-26 E2014.62803
G0 F18000 X36.35 Y-25.5
G1 F2400 X-19.176 Y-25.5 E2017.51365
G0 F18000 X-18.996 Y-25.5
G1 F2400 X-21.629 Y-25.5 E2017.65054
G0 F18000 X-21.441 Y-25.5
G1 F2400 X-36.094 Y-25.499 E2018.41209
G0 F18000 X-35.974 Y-25.499
G1 F2400 X-36.349 Y-25.249 E2018.43164
G1 X-35.974 Y-24.999 E2018.45499
G0 F18000 X-36.094 Y-24.999
G1 F2400 X-21.873 Y-25 E2019.19399
G0 F18000 X-22.02 Y-25
G1 F2400 X-18.633 Y-25 E2019.36995
G0 F18000 X-18.766 Y-25
G1 F2400 X36.35 Y-25 E2022.23422
G0 F18000 X36.35 Y-24.5
G1 F2400 X-18.58 Y-24.5 E2025.08888
G0 F18000 X-18.458 Y-24.5
G1 F2400 X-22.192 Y-24.5 E2025.28298
G0 F18000 X-22.072 Y-24.5
G1 F2400 X-36.094 Y-24.499 E2026.01174
G0 F18000 X-35.974 Y-24.499
G1 F2400 X-36.349 Y-24.249 E2026.03129
G1 X-35.974 Y-23.999 E2026.05464
G0 F18000 X-36.094 Y-23.999
G1 F2400 X-22.102 Y-24 E2026.78174
G0 F18000 X-22.224 Y-24
G1 F2400 X-18.427 Y-24 E2026.97901
G0 F18000 X-18.547 Y-24
G1 F2400 X36.35 Y-24 E2029.8319
G0 F18000 X36.35 Y-23.5
G1 F2400 X-18.657 Y-23.5 E2032.69056
G0 F18000 X-18.53 Y-23.5
G1 F2400 X-22.121 Y-23.5 E2032.87723
G0 F18000 X-21.987 Y-23.5
G1 F2400 X-36.094 Y-23.499 E2033.61041
G0 F18000 X-35.974 Y-23.499
G1 F2400 X-36.349 Y-23.249 E2033.62995
G1 X-35.974 Y-22.999 E2033.6533
G0 F18000 X-36.094 Y-22.999
G1 F2400 X-21.69 Y-23 E2034.40181
G0 F18000 X-21.848 Y-23
G1 F2400 X-18.793 Y-23 E2034.56053
G0 F18000 X-18.938 Y-23
G1 F2400 X36.35 Y-23 E2037.43373
G0 F18000 X36.35 Y-22.5
G1 F2400 X-19.622 Y-22.5 E2040.34254
G0 F18000 X-19.334 Y-22.5
G1 F2400 X-21.295 Y-22.5 E2040.4445
G0 F18000 X-21.019 Y-22.5
G1 F2400 X-36.094 Y-22.499 E2041.22799
G0 F18000 X-35.974 Y-22.499
G1 F2400 X-36.349 Y-22.249 E2041.24753
G1 X-35.974 Y-21.999 E2041.27088
G0 F18000 X-36.094 Y-21.999
G1 F2400 X36.35 Y-22 E2045.03567
G0 F18000 X36.35 Y-21.5
G1 F2400 X-36.094 Y-21.499 E2048.80051
G0 F18000 X-35.974 Y-21.499
G1 F2400 X-36.349 Y-21.249 E2048.82006
G1 X-35.975 Y-20.999 E2048.84336
G0 F18000 X-36.095 Y-20.999
G1 F2400 X36.35 Y-21 E2052.6082
G0 F18000 X36.35 Y-20.5
G1 F2400 X33.383 Y-20.5 E2052.76239
G0 F18000 X33.57 Y-20.5
G1 F2400 X31.124 Y-20.5 E2052.88951
G0 F18000 X31.335 Y-20.5
G1 F2400 X-36.095 Y-20.499 E2056.39378
G0 F18000 X-35.975 Y-20.499
G1 F2400 X-36.349 Y-20.249 E2056.41324
G1 X-35.975 Y-19.999 E2056.43655
G0 F18000 X-36.095 Y-19.999
G1 F2400 X30.834 Y-20 E2059.91473
G0 F18000 X30.702 Y-20
G1 F2400 X34 Y-20 E2060.08612
G0 F18000 X33.852 Y-20
G1 F2400 X36.35 Y-20 E2060.21594
G0 F18000 X36.35 Y-19.5
G1 F2400 X34.078 Y-19.5 E2060.33401
G0 F18000 X34.205 Y-19.5
G1 F2400 X30.503 Y-19.5 E2060.5264
G0 F18000 X30.624 Y-19.5
G1 F2400 X-36.095 Y-19.499 E2063.99372
G0 F18000 X-35.975 Y-19.499
G1 F2400 X-36.349 Y-19.249 E2064.01318
G1 X-35.975 Y-18.999 E2064.03649
G0 F18000 X-36.095 Y-18.999
G1 F2400 X30.571 Y-19 E2067.501
G0 F18000 X30.45 Y-19
G1 F2400 X34.259 Y-19 E2067.69895
G0 F18000 X34.138 Y-19
G1 F2400 X36.35 Y-19 E2067.8139
G0 F18000 X36.35 Y-18.5
G1 F2400 X34.052 Y-18.5 E2067.93333
G0 F18000 X34.181 Y-18.5
G1 F2400 X30.531 Y-18.5 E2068.12302
G0 F18000 X30.658 Y-18.5
G1 F2400 X-36.095 Y-18.499 E2071.5921
G0 F18000 X-35.975 Y-18.499
G1 F2400 X-36.349 Y-18.249 E2071.61156
G1 X-35.975 Y-17.999 E2071.63487
G0 F18000 X-36.095 Y-17.999
G1 F2400 X30.917 Y-18 E2075.11736
G0 F18000 X30.769 Y-18
G1 F2400 X33.944 Y-18 E2075.28236
G0 F18000 X33.789 Y-18
G1 F2400 X36.35 Y-18 E2075.41546
G0 F18000 X36.35 Y-17.5
G1 F2400 X33.238 Y-17.5 E2075.57718
G0 F18000 X33.445 Y-17.5
G1 F2400 X31.245 Y-17.5 E2075.69152
G0 F18000 X31.479 Y-17.5
G1 F2400 X-36.095 Y-17.499 E2079.20327
G0 F18000 X-35.975 Y-17.499
G1 F2400 X-36.349 Y-17.249 E2079.22273
G1 X-35.975 Y-16.999 E2079.24604
G0 F18000 X-36.095 Y-16.999
G1 F2400 X36.35 Y-17 E2083.01088
G0 F18000 X36.35 Y-16.5
G1 F2400 X-36.095 Y-16.499 E2086.77577
G0 F18000 X-35.975 Y-16.499
G1 F2400 X-36.349 Y-16.249 E2086.79523
G1 X-35.975 Y-15.999 E2086.81854
G0 F18000 X-36.095 Y-15.999
G1 F2400 X36.35 Y-16 E2090.58338
G0 F18000 X36.35 Y-15.5
G1 F2400 X-36.095 Y-15.499 E2094.34827
G0 F18000 X-35.975 Y-15.499
G1 F2400 X-36.349 Y-15.249 E2094.36773
G1 X-35.975 Y-14.999 E2094.39104
G0 F18000 X-36.095 Y-14.999
G1 F2400 X36.35 Y-15 E2098.15588
G0 F18000 X36.35 Y-14.5
G1 F2400 X-36.095 Y-14.499 E2101.92077
G0 F18000 X-35.975 Y-14.499
G1 F2400 X-36.349 Y-14.249 E2101.94023
G1 X-35.975 Y-13.999 E2101.96354
G0 F18000 X-36.095 Y-13.999
G1 F2400 X36.35 Y-14 E2105.72838
G0 F18000 X36.35 Y-13.5
G1 F2400 X-36.095 Y-13.499 E2109.49327
G0 F18000 X-35.975 Y-13.499
G1 F2400 X-36.349 Y-13.249 E2109.51273
G1 X-35.975 Y-12.999 E2109.53604
G0 F18000 X-36.095 Y-12.999
G1 F2400 X36.35 Y-13 E2113.30088
G0 F18000 X36.35 Y-12.5
G1 F2400 X-36.095 Y-12.499 E2117.06577
G0 F18000 X-35.975 Y-12.499
G1 F2400 X-36.349 Y-12.249 E2117.08523
G1 X-35.975 Y-11.999 E2117.10854
G0 F18000 X-36.095 Y-11.999
G1 F2400 X36.35 Y-12 E2120.87338
G0 F18000 X36.35 Y-11.5
G1 F2400 X-36.095 Y-11.499 E2124.63827
G0 F18000 X-35.975 Y-11.499
G1 F2400 X-36.349 Y-11.249 E2124.65773
G1 X-35.975 Y-10.999 E2124.68104
G0 F18000 X-36.095 Y-10.999
G1 F2400 X36.35 Y-11 E2128.44588
G0 F18000 X36.35 Y-10.5
G1 F2400 X-36.095 Y-10.499 E2132.21077
G0 F18000 X-35.975 Y-10.499
G1 F2400 X-36.349 Y-10.249 E2132.23023
G1 X-35.975 Y-9.999 E2132.25354
G0 F18000 X-36.095 Y-9.999
G1 F2400 X36.35 Y-10 E2136.01838
G0 F18000 X36.35 Y-9.5
G1 F2400 X-36.095 Y-9.499 E2139.78327
G0 F18000 X-35.975 Y-9.499
G1 F2400 X-36.349 Y-9.249 E2139.80274
G1 X-35.975 Y-8.999 E2139.82604
G0 F18000 X-36.095 Y-8.999
G1 F2400 X36.35 Y-9 E2143.59088
G0 F18000 X36.35 Y-8.5
G1 F2400 X-36.095 Y-8.499 E2147.35577
G0 F18000 X-35.975 Y-8.499
G1 F2400 X-36.349 Y-8.249 E2147.37524
G1 X-35.975 Y-7.999 E2147.39854
G0 F18000 X-36.095 Y-7.999
G1 F2400 X36.35 Y-8 E2151.16338
G0 F18000 X36.35 Y-7.5
G1 F2400 X-36.095 Y-7.499 E2154.92827
G0 F18000 X-35.975 Y-7.499
G1 F2400 X-36.349 Y-7.249 E2154.94774
G1 X-35.976 Y-6.999 E2154.971
G0 F18000 X-36.096 Y-6.999
G1 F2400 X36.35 Y-7 E2158.73589
G0 F18000 X36.35 Y-6.5
G1 F2400 X-36.096 Y-6.499 E2162.50084
G0 F18000 X-35.976 Y-6.499
G1 F2400 X-36.349 Y-6.249 E2162.52026
G1 X-35.976 Y-5.999 E2162.54353
G0 F18000 X-36.096 Y-5.999
G1 F2400 X36.35 Y-6 E2166.30842
G0 F18000 X36.35 Y-5.5
G1 F2400 X-36.096 Y-5.499 E2170.07336
G0 F18000 X-35.976 Y-5.499
G1 F2400 X-36.349 Y-5.249 E2170.09279
G1 X-35.976 Y-4.999 E2170.11605
G0 F18000 X-36.096 Y-4.999
G1 F2400 X36.35 Y-5 E2173.88094
G0 F18000 X36.35 Y-4.5
G1 F2400 X-36.096 Y-4.499 E2177.64589
G0 F18000 X-35.976 Y-4.499
G1 F2400 X-36.349 Y-4.249 E2177.66531
G1 X-35.976 Y-3.999 E2177.68858
G0 F18000 X-36.096 Y-3.999
G1 F2400 X36.35 Y-4 E2181.45347
G0 F18000 X36.35 Y-3.5
G1 F2400 X-36.096 Y-3.499 E2185.21841
G0 F18000 X-35.976 Y-3.499
G1 F2400 X-36.349 Y-3.249 E2185.23784
G1 X-35.976 Y-2.999 E2185.2611
G0 F18000 X-36.096 Y-2.999
G1 F2400 X36.35 Y-3 E2189.02599
G0 F18000 X36.35 Y-2.5
G1 F2400 X-36.096 Y-2.499 E2192.79094
G0 F18000 X-35.976 Y-2.499
G1 F2400 X-36.349 Y-2.249 E2192.81036
G1 X-35.976 Y-1.999 E2192.83363
G0 F18000 X-36.096 Y-1.999
G1 F2400 X36.35 Y-2 E2196.59852
G0 F18000 X36.35 Y-1.5
G1 F2400 X-36.096 Y-1.499 E2200.36346
G0 F18000 X-35.976 Y-1.499
G1 F2400 X-36.349 Y-1.249 E2200.38289
G1 X-35.976 Y-0.999 E2200.40615
G0 F18000 X-36.096 Y-0.999
G1 F2400 X36.35 Y-1 E2204.17105
G0 F18000 X36.35 Y-0.5
G1 F2400 X-36.096 Y-0.499 E2207.93599
G0 F18000 X-35.976 Y-0.499
G1 F2400 X-36.349 Y-0.249 E2207.95542
G1 X-35.976 Y0 E2207.97865
G0 F18000 X-36.096 Y0
G1 F2400 X36.35 Y0 E2211.74354
G0 F18000 X36.35 Y0.499
G1 F2400 X-36.096 Y0.5 E2215.50849
G0 F18000 X-35.976 Y0.5
G1 F2400 X-36.349 Y0.75 E2215.52794
G1 X-35.976 Y1 E2215.55123
G0 F18000 X-36.096 Y1
G1 F2400 X36.35 Y0.999 E2219.31612
G0 F18000 X36.35 Y1.499
G1 F2400 X-36.096 Y1.5 E2223.08106
G0 F18000 X-35.976 Y1.5
G1 F2400 X-36.349 Y1.75 E2223.10052
G1 X-35.976 Y2 E2223.12381
G0 F18000 X-36.096 Y2
G1 F2400 X36.35 Y1.999 E2226.8887
G0 F18000 X36.35 Y2.499
G1 F2400 X-36.096 Y2.5 E2230.65364
G0 F18000 X-35.976 Y2.5
G1 F2400 X-36.349 Y2.75 E2230.67309
G1 X-35.976 Y3 E2230.69639
G0 F18000 X-36.096 Y3
G1 F2400 X36.35 Y2.999 E2234.46128
G0 F18000 X36.35 Y3.499
G1 F2400 X-36.096 Y3.5 E2238.22622
G0 F18000 X-35.976 Y3.5
G1 F2400 X-36.349 Y3.75 E2238.24567
G1 X-35.976 Y4 E2238.26896
G0 F18000 X-36.096 Y4
G1 F2400 X36.35 Y3.999 E2242.03386
G0 F18000 X36.35 Y4.499
G1 F2400 X-36.096 Y4.5 E2245.7988
G0 F18000 X-35.976 Y4.5
G1 F2400 X-36.349 Y4.75 E2245.81825
G1 X-35.976 Y5 E2245.84154
G0 F18000 X-36.096 Y5
G1 F2400 X36.35 Y4.999 E2249.60643
G0 F18000 X36.35 Y5.499
G1 F2400 X-36.096 Y5.5 E2253.37138
G0 F18000 X-35.976 Y5.5
G1 F2400 X-36.349 Y5.75 E2253.39083
G1 X-35.976 Y6 E2253.41412
G0 F18000 X-36.096 Y6
G1 F2400 X36.35 Y5.999 E2257.17901
G0 F18000 X36.35 Y6.499
G1 F2400 X-36.096 Y6.5 E2260.94396
G0 F18000 X-35.976 Y6.5
G1 F2400 X-36.349 Y6.75 E2260.96341
G1 X-35.976 Y7 E2260.9867
G0 F18000 X-36.096 Y7
G1 F2400 X36.35 Y6.999 E2264.75159
G0 F18000 X36.35 Y7.499
G1 F2400 X33.475 Y7.499 E2264.901
G0 F18000 X33.65 Y7.499
G1 F2400 X31.059 Y7.499 E2265.03565
G0 F18000 X31.236 Y7.499
G1 F2400 X-36.097 Y7.5 E2268.53488
G0 F18000 X-35.977 Y7.5
G1 F2400 X-36.349 Y7.75 E2268.55425
G1 X-35.977 Y8 E2268.5775
G0 F18000 X-36.097 Y8
G1 F2400 X30.809 Y7.999 E2272.05448
G0 F18000 X30.667 Y7.999
G1 F2400 X34.025 Y7.999 E2272.22899
G0 F18000 X33.891 Y7.999
G1 F2400 X36.35 Y7.999 E2272.35678
G0 F18000 X36.35 Y8.499
G1 F2400 X34.082 Y8.499 E2272.47465
G0 F18000 X34.205 Y8.499
G1 F2400 X30.483 Y8.499 E2272.66808
G0 F18000 X30.61 Y8.499
G1 F2400 X-36.097 Y8.5 E2276.13477
G0 F18000 X-35.977 Y8.5
G1 F2400 X-36.349 Y8.75 E2276.15414
G1 X-35.977 Y9 E2276.17739
G0 F18000 X-36.097 Y9
G1 F2400 X30.566 Y8.999 E2279.64175
G0 F18000 X30.446 Y8.999
G1 F2400 X34.244 Y8.999 E2279.83912
G0 F18000 X34.123 Y8.999
G1 F2400 X36.35 Y8.999 E2279.95486
G0 F18000 X36.35 Y9.499
G1 F2400 X34.02 Y9.499 E2280.07595
G0 F18000 X34.146 Y9.499
G1 F2400 X30.542 Y9.499 E2280.26324
G0 F18000 X30.666 Y9.499
G1 F2400 X-36.097 Y9.5 E2283.73285
G0 F18000 X-35.977 Y9.5
G1 F2400 X-36.349 Y9.75 E2283.75221
G1 X-35.977 Y10 E2283.77546
G0 F18000 X-36.097 Y10
G1 F2400 X30.958 Y9.999 E2287.26019
G0 F18000 X30.797 Y9.999
G1 F2400 X33.891 Y9.999 E2287.42098
G0 F18000 X33.75 Y9.999
G1 F2400 X36.35 Y9.999 E2287.5561
G0 F18000 X36.35 Y10.499
G1 F2400 X33.104 Y10.499 E2287.72479
G0 F18000 X33.365 Y10.499
G1 F2400 X31.348 Y10.499 E2287.82961
G0 F18000 X31.581 Y10.499
G1 F2400 X-36.097 Y10.5 E2291.34677
G0 F18000 X-35.977 Y10.5
G1 F2400 X-36.349 Y10.75 E2291.36614
G1 X-35.977 Y11 E2291.38939
G0 F18000 X-36.097 Y11
G1 F2400 X36.35 Y10.999 E2295.15433
G0 F18000 X36.35 Y11.499
G1 F2400 X-36.097 Y11.5 E2298.91933
G0 F18000 X-35.977 Y11.5
G1 F2400 X-36.349 Y11.75 E2298.93869
G1 X-35.977 Y12 E2298.96194
G0 F18000 X-36.097 Y12
G1 F2400 X36.35 Y11.999 E2302.72689
G0 F18000 X36.35 Y12.499
G1 F2400 X-36.097 Y12.5 E2306.49188
G0 F18000 X-35.977 Y12.5
G1 F2400 X-36.349 Y12.75 E2306.51125
G1 X-35.977 Y13 E2306.5345
G0 F18000 X-36.097 Y13
G1 F2400 X36.35 Y12.999 E2310.29944
G0 F18000 X36.35 Y13.499
G1 F2400 X-36.097 Y13.5 E2314.06444
G0 F18000 X-35.977 Y13.5
G1 F2400 X-36.349 Y13.75 E2314.08381
G1 X-35.977 Y14 E2314.10706
G0 F18000 X-36.097 Y14
G1 F2400 X36.35 Y13.999 E2317.872
G0 F18000 X36.35 Y14.499
G1 F2400 X-36.097 Y14.5 E2321.637
G0 F18000 X-35.977 Y14.5
G1 F2400 X-36.349 Y14.75 E2321.65636
G1 X-35.977 Y15 E2321.67961
G0 F18000 X-36.097 Y15
G1 F2400 X36.35 Y14.999 E2325.44456
G0 F18000 X36.35 Y15.499
G1 F2400 X-36.097 Y15.5 E2329.20955
G0 F18000 X-35.977 Y15.5
G1 F2400 X-36.349 Y15.75 E2329.22892
G1 X-35.977 Y16 E2329.25217
G0 F18000 X-36.097 Y16
G1 F2400 X36.35 Y15.999 E2333.01711
G0 F18000 X36.35 Y16.499
G1 F2400 X-36.097 Y16.5 E2336.78211
G0 F18000 X-35.977 Y16.5
G1 F2400 X-36.349 Y16.75 E2336.80148
G1 X-35.977 Y17 E2336.82473
G0 F18000 X-36.097 Y17
G1 F2400 X36.35 Y16.999 E2340.58967
G0 F18000 X36.35 Y17.499
G1 F2400 X-36.097 Y17.5 E2344.35467
G0 F18000 X-35.977 Y17.5
G1 F2400 X-36.349 Y17.75 E2344.37404
G1 X-35.977 Y18 E2344.39728
G0 F18000 X-36.097 Y18
G1 F2400 X36.35 Y17.999 E2348.16223
G0 F18000 X36.35 Y18.499
G1 F2400 X-36.097 Y18.5 E2351.92722
G0 F18000 X-35.977 Y18.5
G1 F2400 X-36.349 Y18.75 E2351.94659
G1 X-35.977 Y19 E2351.96984
G0 F18000 X-36.097 Y19
G1 F2400 X36.35 Y18.999 E2355.73478
G0 F18000 X36.35 Y19.499
G1 F2400 X-36.097 Y19.5 E2359.49978
G0 F18000 X-35.977 Y19.5
G1 F2400 X-36.349 Y19.75 E2359.51915
G1 X-35.977 Y20 E2359.5424
G0 F18000 X-36.097 Y20
G1 F2400 X36.35 Y19.999 E2363.30734
G0 F18000 X36.35 Y20.499
G1 F2400 X-36.097 Y20.5 E2367.07234
G0 F18000 X-35.977 Y20.5
G1 F2400 X-36.349 Y20.75 E2367.09171
G1 X-35.977 Y21 E2367.11495
G0 F18000 X-36.097 Y21
G1 F2400 X36.35 Y20.999 E2370.8799
G0 F18000 X36.35 Y21.499
G1 F2400 X-36.098 Y21.5 E2374.64495
G0 F18000 X-35.978 Y21.5
G1 F2400 X-36.349 Y21.75 E2374.66428
G1 X-35.978 Y22 E2374.68748
G0 F18000 X-36.098 Y22
G1 F2400 X36.35 Y21.999 E2378.45248
G0 F18000 X36.35 Y22.499
G1 F2400 X-18.347 Y22.5 E2381.29503
G0 F18000 X-18.08 Y22.5
G1 F2400 X-20.025 Y22.5 E2381.39616
G0 F18000 X-19.756 Y22.5
G1 F2400 X-36.098 Y22.5 E2382.24549
G0 F18000 X-35.978 Y22.5
G1 F2400 X-36.349 Y22.75 E2382.26482
G1 X-35.978 Y23 E2382.28803
G0 F18000 X-36.098 Y23
G1 F2400 X-20.414 Y23 E2383.10305
G0 F18000 X-20.574 Y23
G1 F2400 X-17.524 Y23 E2383.26151
G0 F18000 X-17.669 Y23
G1 F2400 X36.35 Y22.999 E2386.06877
G0 F18000 X36.35 Y23.499
G1 F2400 X-17.388 Y23.5 E2388.86148
G0 F18000 X-17.26 Y23.5
G1 F2400 X-20.85 Y23.5 E2389.0481
G0 F18000 X-20.716 Y23.5
G1 F2400 X-36.098 Y23.5 E2389.84753
G0 F18000 X-35.978 Y23.5
G1 F2400 X-36.349 Y23.75 E2389.86687
G1 X-35.978 Y24 E2389.89007
G0 F18000 X-36.098 Y24
G1 F2400 X-20.831 Y24 E2390.68343
G0 F18000 X-20.953 Y24
G1 F2400 X-17.157 Y24 E2390.88065
G0 F18000 X-17.278 Y24
G1 F2400 X36.35 Y23.999 E2393.66759
G0 F18000 X36.35 Y24.499
G1 F2400 X-17.311 Y24.5 E2396.4563
G0 F18000 X-17.188 Y24.5
G1 F2400 X-20.922 Y24.5 E2396.6504
G0 F18000 X-20.802 Y24.5
G1 F2400 X-36.098 Y24.5 E2397.44537
G0 F18000 X-35.978 Y24.5
G1 F2400 X-36.349 Y24.75 E2397.46471
G1 X-35.978 Y25 E2397.48791
G0 F18000 X-36.098 Y25
G1 F2400 X-20.608 Y25 E2398.29286
G0 F18000 X-20.752 Y25
G1 F2400 X-17.362 Y25 E2398.46898
G0 F18000 X-17.495 Y25
G1 F2400 X36.35 Y24.999 E2401.2672
G0 F18000 X36.35 Y25.499
G1 F2400 X-17.906 Y25.5 E2404.08683
G0 F18000 X-17.734 Y25.5
G1 F2400 X-20.365 Y25.5 E2404.22361
G0 F18000 X-20.18 Y25.5
G1 F2400 X-36.098 Y25.5 E2405.0509
G0 F18000 X-35.978 Y25.5
G1 F2400 X-36.349 Y25.75 E2405.07024
G1 X-35.978 Y26 E2405.09344
G0 F18000 X-36.098 Y26
G1 F2400 X36.35 Y25.999 E2408.85844
G0 F18000 X36.35 Y26.499
G1 F2400 X-36.098 Y26.5 E2412.62348
G0 F18000 X-35.978 Y26.5
G1 F2400 X-36.349 Y26.75 E2412.64282
G1 X-35.978 Y27 E2412.66602
G0 F18000 X-36.098 Y27
G1 F2400 X36.35 Y26.999 E2416.43102
G0 F18000 X36.35 Y27.499
G1 F2400 X-36.098 Y27.5 E2420.19607
G0 F18000 X-35.978 Y27.5
G1 F2400 X-36.318 Y27.75 E2420.2154
G1 X-35.978 Y28 E2420.23729
G0 F18000 X-36.098 Y28
G1 F2400 X36.288 Y27.999 E2423.99907
G0 F18000 X35.929 Y28.499
G1 F2400 X-35.926 Y28.5 E2427.7333
G0 F18000 X-19.366 Y26
G0 X-19.366 Y26
G1 F2400 X-18.677 Y26 E2427.76905
G0 F18000 X-20.008 Y-26
G1 F2400 X-20.6 Y-26 E2427.79987
G0 F18000 X32.116 Y6.999
G0 X32.116 Y6.999
G1 F2400 X32.423 Y6.999 E2427.81582
; LAYER:5
G0 F18000 X36.54 Y27.618 Z1.55
G0 X36.54 Y27.618
; TYPE:WALL-INNER
G1 F2400 X36.487 Y28.02 E2427.8369
G1 X36.371 Y28.293 E2427.85231
G1 X36.28 Y28.43 E2427.86086
G1 X36.175 Y28.549 E2427.86911
G1 X36.029 Y28.674 E2427.87909
G1 X35.902 Y28.756 E2427.88695
G1 X35.638 Y28.867 E2427.90183
G1 X35.238 Y28.92 E2427.9228
G1 X-35.301 Y28.912 E2431.58864
G1 X-35.654 Y28.861 E2431.60723
G1 X-35.927 Y28.741 E2431.62277
G1 X-36.167 Y28.557 E2431.63853
G1 X-36.279 Y28.43 E2431.64737
G1 X-36.37 Y28.293 E2431.65594
G1 X-36.486 Y28.02 E2431.67138
G1 X-36.539 Y27.618 E2431.69246
G1 X-36.539 Y-27.617 E2434.56296
G1 X-36.486 Y-28.019 E2434.58408
G1 X-36.445 Y-28.141 E2434.5908
G1 X-36.366 Y-28.301 E2434.6001
G1 X-36.284 Y-28.423 E2434.60775
G1 X-36.157 Y-28.563 E2434.61758
G1 X-36.033 Y-28.669 E2434.62605
G1 X-35.896 Y-28.757 E2434.6345
G1 X-35.637 Y-28.866 E2434.64907
G1 X-35.237 Y-28.919 E2434.67
G1 X35.302 Y-28.911 E2438.33578
G1 X35.655 Y-28.86 E2438.35431
G1 X35.784 Y-28.814 E2438.36141
G1 X35.931 Y-28.738 E2438.36999
G1 X36.176 Y-28.548 E2438.38607
G1 X36.282 Y-28.428 E2438.39435
G1 X36.367 Y-28.301 E2438.40225
G1 X36.446 Y-28.141 E2438.41148
G1 X36.487 Y-28.019 E2438.41812
G1 X36.54 Y-27.617 E2438.43914
G1 X36.54 Y27.618 E2441.30959
G0 F18000 X37.04 Y27.652
; TYPE:WALL-OUTER
G1 F2100 X36.977 Y28.131 E2441.3347
G1 X36.906 Y28.34 E2441.34617
G1 X36.806 Y28.543 E2441.35793
G1 X36.678 Y28.735 E2441.36992
G1 X36.529 Y28.905 E2441.38167
G1 X36.328 Y29.077 E2441.39542
G1 X36.142 Y29.196 E2441.40689
G1 X35.934 Y29.294 E2441.41884
G1 X35.749 Y29.357 E2441.429
G1 X35.272 Y29.42 E2441.454
G1 X-35.338 Y29.412 E2445.12353
G1 X-35.777 Y29.349 E2445.14663
G1 X-35.983 Y29.275 E2445.15806
G1 X-36.183 Y29.172 E2445.16979
G1 X-36.376 Y29.038 E2445.18205
G1 X-36.526 Y28.907 E2445.19244
G1 X-36.677 Y28.735 E2445.20436
G1 X-36.805 Y28.543 E2445.21639
G1 X-36.905 Y28.34 E2445.22817
G1 X-36.976 Y28.131 E2445.23966
G1 X-37.039 Y27.652 E2445.26477
G1 X-37.039 Y-27.651 E2448.13881
G1 X-36.976 Y-28.13 E2448.16396
G1 X-36.905 Y-28.339 E2448.17547
G1 X-36.803 Y-28.547 E2448.18753
G1 X-36.68 Y-28.732 E2448.19909
G1 X-36.504 Y-28.925 E2448.21267
G1 X-36.33 Y-29.073 E2448.22453
G1 X-36.141 Y-29.195 E2448.23621
G1 X-35.933 Y-29.293 E2448.24813
G1 X-35.748 Y-29.356 E2448.25826
G1 X-35.271 Y-29.419 E2448.28322
G1 X35.339 Y-29.411 E2451.95269
G1 X35.778 Y-29.348 E2451.97573
G1 X35.984 Y-29.274 E2451.98709
G1 X36.184 Y-29.171 E2451.99876
G1 X36.379 Y-29.037 E2452.01103
G1 X36.531 Y-28.902 E2452.02156
G1 X36.678 Y-28.736 E2452.03304
G1 X36.804 Y-28.547 E2452.0448
G1 X36.906 Y-28.339 E2452.0568
G1 X36.977 Y-28.13 E2452.06822
G1 X37.04 Y-27.651 E2452.09327
G1 X37.04 Y27.652 E2454.96726
G0 F18000 X36 Y28.22
; TYPE:FILL
G1 F2400 X36 Y28.444 E2454.9789
G0 F18000 X36 Y28.343
G1 F2400 X36 Y-28.341 E2457.92471
G0 F18000 X36 Y-28.443
G1 F2400 X35.75 Y-28.271 E2457.93633
G1 X35.5 Y-28.689 E2457.96168
G0 F18000 X35.5 Y-28.447
G1 F2400 X35.5 Y28.45 E2460.91851
G0 F18000 X35.5 Y28.327
G1 F2400 X35.25 Y28.71 E2460.93748
G1 X35 Y28.355 E2460.96004
G0 F18000 X35 Y28.475
G1 F2400 X35 Y-28.474 E2463.91962
G0 F18000 X35 Y-28.354
G1 F2400 X34.75 Y-28.72 E2463.93868
G1 X34.5 Y-28.354 E2463.96168
G0 F18000 X34.5 Y-28.474
G1 F2400 X34.5 Y28.475 E2466.9212
G0 F18000 X34.5 Y28.355
G1 F2400 X34.25 Y28.729 E2466.94066
G1 X34 Y28.355 E2466.96403
G0 F18000 X34 Y28.475
G1 F2400 X34 Y9.562 E2467.94692
G0 F18000 X34 Y9.83
G1 F2400 X34 Y7.95 E2468.04463
G0 F18000 X34 Y8.211
G1 F2400 X34 Y-18.386 E2469.42684
G0 F18000 X34 Y-18.098
G1 F2400 X34 Y-20 E2469.52574
G0 F18000 X34 Y-19.709
G1 F2400 X34 Y-28.474 E2469.9813
G0 F18000 X34 Y-28.354
G1 F2400 X33.75 Y-28.72 E2470.00036
G1 X33.5 Y-28.354 E2470.02335
G0 F18000 X33.5 Y-28.474
G1 F2400 X33.5 Y-20.403 E2470.44274
G0 F18000 X33.5 Y-20.557
G1 F2400 X33.5 Y-17.539 E2470.59953
G0 F18000 X33.5 Y-17.687
G1 F2400 X33.5 Y7.515 E2471.9092
G0 F18000 X33.5 Y7.374
G1 F2400 X33.5 Y10.406 E2472.06677
G0 F18000 X33.5 Y10.245
G1 F2400 X33.5 Y28.475 E2473.01417
G0 F18000 X33.5 Y28.355
G1 F2400 X33.25 Y28.729 E2473.03362
G1 X33 Y28.355 E2473.057
G0 F18000 X33 Y28.475
G1 F2400 X33 Y10.552 E2473.98844
G0 F18000 X33 Y10.687
G1 F2400 X33 Y7.113 E2474.17417
G0 F18000 X33 Y7.239
G1 F2400 X33 Y-17.399 E2475.45459
G0 F18000 X33 Y-17.272
G1 F2400 X33 Y-20.834 E2475.63975
G0 F18000 X33 Y-20.701
G1 F2400 X33 Y-28.474 E2476.04376
G0 F18000 X33 Y-28.354
G1 F2400 X32.749 Y-28.72 E2476.06284
G1 X32.499 Y-28.354 E2476.08584
G0 F18000 X32.499 Y-28.474
G1 F2400 X32.499 Y-20.824 E2476.48335
G0 F18000 X32.499 Y-20.946
G1 F2400 X32.499 Y-17.158 E2476.68015
G0 F18000 X32.499 Y-17.279
G1 F2400 X32.5 Y7.124 E2477.9483
G0 F18000 X32.5 Y7.004
G1 F2400 X32.5 Y10.788 E2478.14495
G0 F18000 X32.5 Y10.666
G1 F2400 X32.5 Y28.475 E2479.07046
G0 F18000 X32.5 Y28.355
G1 F2400 X32.25 Y28.729 E2479.08992
G1 X32 Y28.355 E2479.1133
G0 F18000 X32 Y28.475
G1 F2400 X32 Y10.64 E2480.04016
G0 F18000 X32 Y10.763
G1 F2400 X32 Y7.025 E2480.23442
G0 F18000 X32 Y7.148
G1 F2400 X31.999 Y-17.306 E2481.50527
G0 F18000 X31.999 Y-17.184
G1 F2400 X31.999 Y-20.919 E2481.69943
G0 F18000 X31.999 Y-20.799
G1 F2400 X31.999 Y-28.474 E2482.09834
G0 F18000 X31.999 Y-28.354
G1 F2400 X31.749 Y-28.72 E2482.1174
G1 X31.499 Y-28.354 E2482.14039
G0 F18000 X31.499 Y-28.474
G1 F2400 X31.499 Y-20.614 E2482.54882
G0 F18000 X31.499 Y-20.754
G1 F2400 X31.499 Y-17.357 E2482.7253
G0 F18000 X31.499 Y-17.49
G1 F2400 X31.5 Y7.333 E2484.01528
G0 F18000 X31.5 Y7.199
G1 F2400 X31.5 Y10.597 E2484.19187
G0 F18000 X31.5 Y10.456
G1 F2400 X31.5 Y28.475 E2485.1283
G0 F18000 X31.5 Y28.355
G1 F2400 X31.25 Y28.728 E2485.14771
G1 X31 Y28.355 E2485.17105
G0 F18000 X31 Y28.475
G1 F2400 X31 Y10.045 E2486.12884
G0 F18000 X31 Y10.222
G1 F2400 X31 Y7.553 E2486.26754
G0 F18000 X31 Y7.714
G1 F2400 X30.999 Y-17.883 E2487.59779
G0 F18000 X30.999 Y-17.705
G1 F2400 X30.999 Y-20.392 E2487.73748
G0 F18000 X30.999 Y-20.203
G1 F2400 X30.999 Y-28.474 E2488.16737
G0 F18000 X30.999 Y-28.354
G1 F2400 X30.749 Y-28.721 E2488.18651
G1 X30.499 Y-28.354 E2488.20955
G0 F18000 X30.499 Y-28.474
G1 F2400 X30.5 Y28.475 E2491.16908
G0 F18000 X30.5 Y28.355
G1 F2400 X30.25 Y28.728 E2491.18845
G1 X30 Y28.355 E2491.21178
G0 F18000 X30 Y28.475
G1 F2400 X29.999 Y-28.474 E2494.17136
G0 F18000 X29.999 Y-28.354
G1 F2400 X29.749 Y-28.721 E2494.19051
G1 X29.499 Y-28.354 E2494.21354
G0 F18000 X29.499 Y-28.474
G1 F2400 X29.5 Y28.475 E2497.17307
G0 F18000 X29.5 Y28.355
G1 F2400 X29.25 Y28.728 E2497.19244
G1 X29 Y28.355 E2497.21577
G0 F18000 X29 Y28.475
G1 F2400 X28.999 Y-28.474 E2500.17535
G0 F18000 X28.999 Y-28.354
G1 F2400 X28.749 Y-28.721 E2500.1945
G1 X28.499 Y-28.354 E2500.21753
G0 F18000 X28.499 Y-28.474
G1 F2400 X28.5 Y28.475 E2503.17706
G0 F18000 X28.5 Y28.355
G1 F2400 X28.25 Y28.728 E2503.19643
G1 X28 Y28.355 E2503.21976
G0 F18000 X28 Y28.475
G1 F2400 X27.999 Y-28.474 E2506.17934
G0 F18000 X27.999 Y-28.354
G1 F2400 X27.749 Y-28.721 E2506.19849
G1 X27.499 Y-28.354 E2506.22152
G0 F18000 X27.499 Y-28.474
G1 F2400 X27.5 Y28.475 E2509.18105
G0 F18000 X27.5 Y28.355
G1 F2400 X27.25 Y28.728 E2509.20042
G1 X27 Y28.355 E2509.22375
G0 F18000 X27 Y28.475
G1 F2400 X26.999 Y-28.474 E2512.18333
G0 F18000 X26.999 Y-28.354
G1 F2400 X26.749 Y-28.721 E2512.20248
G1 X26.499 Y-28.354 E2512.22551
G0 F18000 X26.499 Y-28.474
G1 F2400 X26.5 Y28.475 E2515.18504
G0 F18000 X26.5 Y28.355
G1 F2400 X26.25 Y28.728 E2515.20441
G1 X26 Y28.355 E2515.22775
G0 F18000 X26 Y28.475
G1 F2400 X25.999 Y-28.474 E2518.18733
G0 F18000 X25.999 Y-28.354
G1 F2400 X25.749 Y-28.721 E2518.20647
G1 X25.499 Y-28.354 E2518.2295
G0 F18000 X25.499 Y-28.474
G1 F2400 X25.5 Y28.475 E2521.18903
G0 F18000 X25.5 Y28.355
G1 F2400 X25.25 Y28.728 E2521.2084
G1 X25 Y28.355 E2521.23174
G0 F18000 X25 Y28.475
G1 F2400 X24.999 Y-28.474 E2524.19132
G0 F18000 X24.999 Y-28.354
G1 F2400 X24.749 Y-28.721 E2524.21046
G1 X24.499 Y-28.354 E2524.23349
G0 F18000 X24.499 Y-28.474
G1 F2400 X24.5 Y28.475 E2527.19302
G0 F18000 X24.5 Y28.355
G1 F2400 X24.25 Y28.728 E2527.21239
G1 X24 Y28.355 E2527.23573
G0 F18000 X24 Y28.475
G1 F2400 X23.999 Y-28.474 E2530.19531
G0 F18000 X23.999 Y-28.354
G1 F2400 X23.749 Y-28.721 E2530.21445
G1 X23.499 Y-28.354 E2530.23749
G0 F18000 X23.499 Y-28.474
G1 F2400 X23.5 Y28.475 E2533.19701
G0 F18000 X23.5 Y28.355
G1 F2400 X23.25 Y28.727 E2533.21639
G1 X23 Y28.354 E2533.23973
G0 F18000 X23 Y28.474
G1 F2400 X22.999 Y-28.475 E2536.19931
G0 F18000 X22.999 Y-28.355
G1 F2400 X22.749 Y-28.722 E2536.21845
G1 X22.499 Y-28.355 E2536.24149
G0 F18000 X22.499 Y-28.475
G1 F2400 X22.5 Y28.474 E2539.20102
G0 F18000 X22.5 Y28.354
G1 F2400 X22.25 Y28.727 E2539.22038
G1 X22 Y28.354 E2539.24372
G0 F18000 X22 Y28.474
G1 F2400 X21.999 Y-28.475 E2542.2033
G0 F18000 X21.999 Y-28.355
G1 F2400 X21.749 Y-28.722 E2542.22244
G1 X21.499 Y-28.355 E2542.24548
G0 F18000 X21.499 Y-28.475
G1 F2400 X21.5 Y28.474 E2545.20501
G0 F18000 X21.5 Y28.354
G1 F2400 X21.25 Y28.727 E2545.22438
G1 X21 Y28.354 E2545.24771
G0 F18000 X21 Y28.474
G1 F2400 X20.999 Y-28.475 E2548.20729
G0 F18000 X20.999 Y-28.355
G1 F2400 X20.749 Y-28.722 E2548.22644
G1 X20.499 Y-28.355 E2548.24947
G0 F18000 X20.499 Y-28.475
G1 F2400 X20.5 Y28.474 E2551.209
G0 F18000 X20.5 Y28.354
G1 F2400 X20.25 Y28.727 E2551.22837
G1 X20 Y28.354 E2551.2517
G0 F18000 X20 Y28.474
G1 F2400 X19.999 Y-28.475 E2554.21128
G0 F18000 X19.999 Y-28.355
G1 F2400 X19.749 Y-28.722 E2554.23043
G1 X19.499 Y-28.355 E2554.25346
G0 F18000 X19.499 Y-28.475
G1 F2400 X19.5 Y28.474 E2557.21299
G0 F18000 X19.5 Y28.354
G1 F2400 X19.25 Y28.727 E2557.23236
G1 X19 Y28.354 E2557.25569
G0 F18000 X19 Y28.474
G1 F2400 X18.999 Y-28.475 E2560.21527
G0 F18000 X18.999 Y-28.355
G1 F2400 X18.749 Y-28.722 E2560.23442
G1 X18.499 Y-28.355 E2560.25745
G0 F18000 X18.499 Y-28.475
G1 F2400 X18.5 Y28.474 E2563.21698
G0 F18000 X18.5 Y28.354
G1 F2400 X18.25 Y28.727 E2563.23635
G1 X18 Y28.354 E2563.25968
G0 F18000 X18 Y28.474
G1 F2400 X17.999 Y-28.475 E2566.21926
G0 F18000 X17.999 Y-28.355
G1 F2400 X17.749 Y-28.722 E2566.23841
G1 X17.499 Y-28.355 E2566.26144
G0 F18000 X17.499 Y-28.475
G1 F2400 X17.5 Y28.474 E2569.22097
G0 F18000 X17.5 Y28.354
G1 F2400 X17.25 Y28.727 E2569.24034
G1 X17 Y28.354 E2569.26368
G0 F18000 X17 Y28.474
G1 F2400 X16.999 Y-28.475 E2572.22326
G0 F18000 X16.999 Y-28.355
G1 F2400 X16.749 Y-28.722 E2572.2424
G1 X16.499 Y-28.355 E2572.26543
G0 F18000 X16.499 Y-28.475
G1 F2400 X16.5 Y28.474 E2575.22496
G0 F18000 X16.5 Y28.354
G1 F2400 X16.25 Y28.727 E2575.24433
G1 X16 Y28.354 E2575.26767
G0 F18000 X16 Y28.474
G1 F2400 X15.999 Y-28.475 E2578.22725
G0 F18000 X15.999 Y-28.355
G1 F2400 X15.749 Y-28.722 E2578.24639
G1 X15.499 Y-28.355 E2578.26942
G0 F18000 X15.499 Y-28.475
G1 F2400 X15.5 Y28.474 E2581.22895
G0 F18000 X15.5 Y28.354
G1 F2400 X15.25 Y28.726 E2581.24829
G1 X15 Y28.354 E2581.27158
G0 F18000 X15 Y28.474
G1 F2400 X14.999 Y-28.475 E2584.23116
G0 F18000 X14.999 Y-28.355
G1 F2400 X14.749 Y-28.723 E2584.25034
G1 X14.499 Y-28.355 E2584.27342
G0 F18000 X14.499 Y-28.475
G1 F2400 X14.5 Y28.475 E2587.233
G0 F18000 X14.5 Y28.355
G1 F2400 X14.25 Y28.727 E2587.25233
G1 X14 Y28.355 E2587.27562
G0 F18000 X14 Y28.475
G1 F2400 X13.999 Y-28.475 E2590.23525
G0 F18000 X13.999 Y-28.355
G1 F2400 X13.749 Y-28.723 E2590.25443
G1 X13.499 Y-28.355 E2590.27751
G0 F18000 X13.499 Y-28.475
G1 F2400 X13.5 Y28.475 E2593.23709
G0 F18000 X13.5 Y28.355
G1 F2400 X13.25 Y28.727 E2593.25642
G1 X13 Y28.355 E2593.27972
G0 F18000 X13 Y28.475
G1 F2400 X12.999 Y-28.475 E2596.23935
G0 F18000 X12.999 Y-28.355
G1 F2400 X12.749 Y-28.723 E2596.25853
G1 X12.499 Y-28.355 E2596.2816
G0 F18000 X12.499 Y-28.475
G1 F2400 X12.5 Y28.475 E2599.24118
G0 F18000 X12.5 Y28.355
G1 F2400 X12.25 Y28.727 E2599.26052
G1 X12 Y28.355 E2599.28381
G0 F18000 X12 Y28.475
G1 F2400 X11.999 Y-28.475 E2602.24344
G0 F18000 X11.999 Y-28.355
G1 F2400 X11.749 Y-28.723 E2602.26262
G1 X11.499 Y-28.355 E2602.2857
G0 F18000 X11.499 Y-28.475
G1 F2400 X11.5 Y28.475 E2605.24528
G0 F18000 X11.5 Y28.355
G1 F2400 X11.25 Y28.727 E2605.26461
G1 X11 Y28.355 E2605.2879
G0 F18000 X11 Y28.475
G1 F2400 X10.999 Y-28.475 E2608.24754
G0 F18000 X10.999 Y-28.355
G1 F2400 X10.749 Y-28.723 E2608.26672
G1 X10.499 Y-28.355 E2608.28979
G0 F18000 X10.499 Y-28.475
G1 F2400 X10.5 Y28.475 E2611.24937
G0 F18000 X10.5 Y28.355
G1 F2400 X10.25 Y28.727 E2611.26871
G1 X10 Y28.355 E2611.292
G0 F18000 X10 Y28.475
G1 F2400 X9.999 Y-28.475 E2614.25163
G0 F18000 X9.999 Y-28.355
G1 F2400 X9.749 Y-28.723 E2614.27081
G1 X9.499 Y-28.355 E2614.29389
G0 F18000 X9.499 Y-28.475
G1 F2400 X9.5 Y28.475 E2617.25347
G0 F18000 X9.5 Y28.355
G1 F2400 X9.25 Y28.727 E2617.2728
G1 X9 Y28.355 E2617.29609
G0 F18000 X9 Y28.475
G1 F2400 X8.999 Y-28.475 E2620.25573
G0 F18000 X8.999 Y-28.355
G1 F2400 X8.749 Y-28.723 E2620.27491
G1 X8.499 Y-28.355 E2620.29798
G0 F18000 X8.499 Y-28.475
G1 F2400 X8.5 Y28.475 E2623.25756
G0 F18000 X8.5 Y28.355
G1 F2400 X8.25 Y28.727 E2623.2769
G1 X8 Y28.355 E2623.30019
G0 F18000 X8 Y28.475
G1 F2400 X7.999 Y-28.475 E2626.25982
G0 F18000 X7.999 Y-28.355
G1 F2400 X7.749 Y-28.723 E2626.279
G1 X7.499 Y-28.355 E2626.30208
G0 F18000 X7.499 Y-28.475
G1 F2400 X7.5 Y28.475 E2629.26166
G0 F18000 X7.5 Y28.355
G1 F2400 X7.25 Y28.726 E2629.28091
G1 X7 Y28.355 E2629.30416
G0 F18000 X7 Y28.475
G1 F2400 X6.999 Y-28.475 E2632.26379
G0 F18000 X6.999 Y-28.355
G1 F2400 X6.749 Y-28.724 E2632.283
G1 X6.499 Y-28.355 E2632.30613
G0 F18000 X6.499 Y-28.475
G1 F2400 X6.5 Y28.475 E2635.26571
G0 F18000 X6.5 Y28.355
G1 F2400 X6.25 Y28.726 E2635.28496
G1 X6 Y28.355 E2635.30821
G0 F18000 X6 Y28.475
G1 F2400 X5.999 Y-28.475 E2638.26784
G0 F18000 X5.999 Y-28.355
G1 F2400 X5.749 Y-28.724 E2638.28705
G1 X5.499 Y-28.355 E2638.31017
G0 F18000 X5.499 Y-28.475
G1 F2400 X5.5 Y28.475 E2641.26975
G0 F18000 X5.5 Y28.355
G1 F2400 X5.25 Y28.726 E2641.289
G1 X5 Y28.355 E2641.31225
G0 F18000 X5 Y28.475
G1 F2400 X4.999 Y-28.475 E2644.27189
G0 F18000 X4.999 Y-28.355
G1 F2400 X4.749 Y-28.724 E2644.2911
G1 X4.499 Y-28.355 E2644.31422
G0 F18000 X4.499 Y-28.475
G1 F2400 X4.5 Y28.475 E2647.2738
G0 F18000 X4.5 Y28.355
G1 F2400 X4.25 Y28.726 E2647.29305
G1 X4 Y28.355 E2647.3163
G0 F18000 X4 Y28.475
G1 F2400 X3.999 Y-28.475 E2650.27593
G0 F18000 X3.999 Y-28.355
G1 F2400 X3.749 Y-28.724 E2650.29515
G1 X3.499 Y-28.355 E2650.31827
G0 F18000 X3.499 Y-28.475
G1 F2400 X3.5 Y28.475 E2653.27785
G0 F18000 X3.5 Y28.355
G1 F2400 X3.25 Y28.726 E2653.2971
G1 X3 Y28.355 E2653.32035
G0 F18000 X3 Y28.475
G1 F2400 X2.999 Y-28.475 E2656.27998
G0 F18000 X2.999 Y-28.355
G1 F2400 X2.749 Y-28.724 E2656.2992
G1 X2.499 Y-28.355 E2656.32232
G0 F18000 X2.499 Y-28.475
G1 F2400 X2.5 Y28.475 E2659.2819
G0 F18000 X2.5 Y28.355
G1 F2400 X2.25 Y28.726 E2659.30115
G1 X2 Y28.355 E2659.3244
G0 F18000 X2 Y28.475
G1 F2400 X1.999 Y-28.475 E2662.28403
G0 F18000 X1.999 Y-28.355
G1 F2400 X1.749 Y-28.724 E2662.30324
G1 X1.499 Y-28.355 E2662.32636
G0 F18000 X1.499 Y-28.475
G1 F2400 X1.5 Y28.475 E2665.28594
G0 F18000 X1.5 Y28.355
G1 F2400 X1.25 Y28.726 E2665.30519
G1 X1 Y28.355 E2665.32844
G0 F18000 X1 Y28.475
G1 F2400 X0.999 Y-28.475 E2668.28808
G0 F18000 X0.999 Y-28.355
G1 F2400 X0.749 Y-28.724 E2668.30729
G1 X0.499 Y-28.355 E2668.33041
G0 F18000 X0.499 Y-28.475
G1 F2400 X0.5 Y28.475 E2671.28999
G0 F18000 X0.5 Y28.355
G1 F2400 X0.25 Y28.726 E2671.30924
G1 X0 Y28.355 E2671.33249
G0 F18000 X0 Y28.475
G1 F2400 X0 Y-28.475 E2674.29212
G0 F18000 X0 Y-28.355
G1 F2400 X-0.25 Y-28.725 E2674.31137
G1 X-0.5 Y-28.356 E2674.33452
G0 F18000 X-0.5 Y-28.476
G1 F2400 X-0.499 Y28.474 E2677.2941
G0 F18000 X-0.499 Y28.354
G1 F2400 X-0.749 Y28.725 E2677.31338
G1 X-0.999 Y28.354 E2677.33666
G0 F18000 X-0.999 Y28.474
G1 F2400 X-1 Y-28.476 E2680.29629
G0 F18000 X-1 Y-28.356
G1 F2400 X-1.25 Y-28.725 E2680.31548
G1 X-1.5 Y-28.356 E2680.33863
G0 F18000 X-1.5 Y-28.476
G1 F2400 X-1.499 Y28.474 E2683.29821
G0 F18000 X-1.499 Y28.354
G1 F2400 X-1.749 Y28.725 E2683.31749
G1 X-1.999 Y28.354 E2683.34077
G0 F18000 X-1.999 Y28.474
G1 F2400 X-2 Y-28.476 E2686.3004
G0 F18000 X-2 Y-28.356
G1 F2400 X-2.25 Y-28.725 E2686.31959
G1 X-2.5 Y-28.356 E2686.34274
G0 F18000 X-2.5 Y-28.476
G1 F2400 X-2.499 Y28.474 E2689.30232
G0 F18000 X-2.499 Y28.354
G1 F2400 X-2.749 Y28.725 E2689.32159
G1 X-2.999 Y28.354 E2689.34487
G0 F18000 X-2.999 Y28.474
G1 F2400 X-3 Y-28.476 E2692.30451
G0 F18000 X-3 Y-28.356
G1 F2400 X-3.25 Y-28.725 E2692.3237
G1 X-3.5 Y-28.356 E2692.34685
G0 F18000 X-3.5 Y-28.476
G1 F2400 X-3.499 Y28.474 E2695.30643
G0 F18000 X-3.499 Y28.354
G1 F2400 X-3.749 Y28.725 E2695.3257
G1 X-3.999 Y28.354 E2695.34898
G0 F18000 X-3.999 Y28.474
G1 F2400 X-4 Y-28.476 E2698.30861
G0 F18000 X-4 Y-28.356
G1 F2400 X-4.25 Y-28.725 E2698.32781
G1 X-4.5 Y-28.356 E2698.35096
G0 F18000 X-4.5 Y-28.476
G1 F2400 X-4.499 Y28.474 E2701.31054
G0 F18000 X-4.499 Y28.354
G1 F2400 X-4.749 Y28.725 E2701.32981
G1 X-4.999 Y28.354 E2701.35309
G0 F18000 X-4.999 Y28.474
G1 F2400 X-5 Y-28.476 E2704.31272
G0 F18000 X-5 Y-28.356
G1 F2400 X-5.25 Y-28.725 E2704.33191
G1 X-5.5 Y-28.356 E2704.35506
G0 F18000 X-5.5 Y-28.476
G1 F2400 X-5.499 Y28.474 E2707.31464
G0 F18000 X-5.499 Y28.354
G1 F2400 X-5.749 Y28.725 E2707.33392
G1 X-5.999 Y28.354 E2707.3572
G0 F18000 X-5.999 Y28.474
G1 F2400 X-6 Y-28.476 E2710.31683
G0 F18000 X-6 Y-28.356
G1 F2400 X-6.25 Y-28.725 E2710.33602
G1 X-6.5 Y-28.356 E2710.35917
G0 F18000 X-6.5 Y-28.476
G1 F2400 X-6.499 Y28.474 E2713.31875
G0 F18000 X-6.499 Y28.354
G1 F2400 X-6.749 Y28.725 E2713.33803
G1 X-6.999 Y28.354 E2713.3613
G0 F18000 X-6.999 Y28.474
G1 F2400 X-7 Y-28.476 E2716.32094
G0 F18000 X-7 Y-28.356
G1 F2400 X-7.25 Y-28.725 E2716.34013
G1 X-7.5 Y-28.356 E2716.36328
G0 F18000 X-7.5 Y-28.476
G1 F2400 X-7.499 Y28.474 E2719.32286
G0 F18000 X-7.499 Y28.354
G1 F2400 X-7.749 Y28.724 E2719.3421
G1 X-7.999 Y28.354 E2719.36533
G0 F18000 X-7.999 Y28.474
G1 F2400 X-8 Y-28.476 E2722.32497
G0 F18000 X-8 Y-28.356
G1 F2400 X-8.25 Y-28.726 E2722.34424
G1 X-8.5 Y-28.356 E2722.36743
G0 F18000 X-8.5 Y-28.476
G1 F2400 X-8.499 Y28.474 E2725.32701
G0 F18000 X-8.499 Y28.354
G1 F2400 X-8.749 Y28.724 E2725.34621
G1 X-8.999 Y28.354 E2725.36944
G0 F18000 X-8.999 Y28.474
G1 F2400 X-9 Y-28.476 E2728.32907
G0 F18000 X-9 Y-28.356
G1 F2400 X-9.25 Y-28.726 E2728.34835
G1 X-9.5 Y-28.356 E2728.37154
G0 F18000 X-9.5 Y-28.476
G1 F2400 X-9.499 Y28.474 E2731.33112
G0 F18000 X-9.499 Y28.354
G1 F2400 X-9.749 Y28.724 E2731.35031
G1 X-9.999 Y28.354 E2731.37355
G0 F18000 X-9.999 Y28.474
G1 F2400 X-10 Y-28.476 E2734.33318
G0 F18000 X-10 Y-28.356
G1 F2400 X-10.25 Y-28.726 E2734.35246
G1 X-10.5 Y-28.356 E2734.37565
G0 F18000 X-10.5 Y-28.476
G1 F2400 X-10.499 Y28.474 E2737.33523
G0 F18000 X-10.499 Y28.354
G1 F2400 X-10.749 Y28.724 E2737.35442
G1 X-10.999 Y28.354 E2737.37766
G0 F18000 X-10.999 Y28.474
G1 F2400 X-11 Y-28.476 E2740.33729
G0 F18000 X-11 Y-28.356
G1 F2400 X-11.25 Y-28.726 E2740.35656
G1 X-11.5 Y-28.356 E2740.37976
G0 F18000 X-11.5 Y-28.476
G1 F2400 X-11.499 Y28.474 E2743.33934
G0 F18000 X-11.499 Y28.354
G1 F2400 X-11.749 Y28.724 E2743.35853
G1 X-11.999 Y28.354 E2743.38176
G0 F18000 X-11.999 Y28.474
G1 F2400 X-12 Y-28.476 E2746.3414
G0 F18000 X-12 Y-28.356
G1 F2400 X-12.25 Y-28.726 E2746.36067
G1 X-12.5 Y-28.356 E2746.38386
G0 F18000 X-12.5 Y-28.476
G1 F2400 X-12.499 Y28.474 E2749.34344
G0 F18000 X-12.499 Y28.354
G1 F2400 X-12.749 Y28.724 E2749.36264
G1 X-12.999 Y28.354 E2749.38587
G0 F18000 X-12.999 Y28.474
G1 F2400 X-13 Y-28.476 E2752.3455
G0 F18000 X-13 Y-28.356
G1 F2400 X-13.25 Y-28.726 E2752.36478
G1 X-13.5 Y-28.356 E2752.38797
G0 F18000 X-13.5 Y-28.476
G1 F2400 X-13.499 Y28.474 E2755.34755
G0 F18000 X-13.499 Y28.354
G1 F2400 X-13.749 Y28.724 E2755.36674
G1 X-13.999 Y28.354 E2755.38998
G0 F18000 X-13.999 Y28.474
G1 F2400 X-14 Y-28.476 E2758.34961
G0 F18000 X-14 Y-28.356
G1 F2400 X-14.25 Y-28.726 E2758.36889
G1 X-14.5 Y-28.356 E2758.39208
G0 F18000 X-14.5 Y-28.476
G1 F2400 X-14.499 Y28.474 E2761.35166
G0 F18000 X-14.499 Y28.354
G1 F2400 X-14.749 Y28.724 E2761.37085
G1 X-14.999 Y28.354 E2761.39409
G0 F18000 X-14.999 Y28.474
G1 F2400 X-15 Y-28.475 E2764.35367
G0 F18000 X-15 Y-28.355
G1 F2400 X-15.25 Y-28.725 E2764.37294
G1 X-15.5 Y-28.355 E2764.39614
G0 F18000 X-15.5 Y-28.475
G1 F2400 X-15.499 Y28.474 E2767.35566
G0 F18000 X-15.499 Y28.354
G1 F2400 X-15.749 Y28.723 E2767.37487
G1 X-15.999 Y28.354 E2767.39806
G0 F18000 X-15.999 Y28.474
G1 F2400 X-16 Y-28.475 E2770.35764
G0 F18000 X-16 Y-28.355
G1 F2400 X-16.25 Y-28.726 E2770.377
G1 X-16.5 Y-28.355 E2770.40023
G0 F18000 X-16.5 Y-28.475
G1 F2400 X-16.499 Y28.474 E2773.35976
G0 F18000 X-16.499 Y28.354
G1 F2400 X-16.749 Y28.723 E2773.37892
G1 X-16.999 Y28.354 E2773.40211
G0 F18000 X-16.999 Y28.474
G1 F2400 X-17 Y-28.475 E2776.36169
G0 F18000 X-17 Y-28.355
G1 F2400 X-17.25 Y-28.726 E2776.38105
G1 X-17.5 Y-28.355 E2776.40428
G0 F18000 X-17.5 Y-28.475
G1 F2400 X-17.499 Y23.245 E2779.09207
G0 F18000 X-17.499 Y23.034
G1 F2400 X-17.499 Y25.233 E2779.20635
G0 F18000 X-17.499 Y25.009
G1 F2400 X-17.499 Y28.474 E2779.38642
G0 F18000 X-17.499 Y28.354
G1 F2400 X-17.749 Y28.723 E2779.40558
G1 X-17.999 Y28.354 E2779.42877
G0 F18000 X-17.999 Y28.474
G1 F2400 X-17.999 Y25.563 E2779.58005
G0 F18000 X-17.999 Y25.709
G1 F2400 X-17.999 Y22.539 E2779.74479
G0 F18000 X-17.999 Y22.689
G1 F2400 X-18 Y-28.475 E2782.40373
G0 F18000 X-18 Y-28.355
G1 F2400 X-18.25 Y-28.726 E2782.42309
G1 X-18.5 Y-28.355 E2782.44632
G0 F18000 X-18.5 Y-28.475
G1 F2400 X-18.499 Y22.431 E2785.0918
G0 F18000 X-18.499 Y22.309
G1 F2400 X-18.499 Y25.939 E2785.28045
G0 F18000 X-18.499 Y25.812
G1 F2400 X-18.499 Y28.474 E2785.41879
G0 F18000 X-18.499 Y28.354
G1 F2400 X-18.749 Y28.723 E2785.43795
G1 X-18.999 Y28.354 E2785.46114
G0 F18000 X-18.999 Y28.474
G1 F2400 X-18.999 Y25.902 E2785.59481
G0 F18000 X-18.999 Y26.022
G1 F2400 X-18.999 Y22.23 E2785.79187
G0 F18000 X-18.999 Y22.351
G1 F2400 X-19 Y-22.919 E2788.14451
G0 F18000 X-19 Y-22.763
G1 F2400 X-19 Y-25.505 E2788.28706
G0 F18000 X-19 Y-25.321
G1 F2400 X-19 Y-28.475 E2788.45102
G0 F18000 X-19 Y-28.355
G1 F2400 X-19.25 Y-28.726 E2788.47038
G1 X-19.5 Y-28.355 E2788.49361
G0 F18000 X-19.5 Y-28.475
G1 F2400 X-19.5 Y-25.722 E2788.63663
G0 F18000 X-19.5 Y-25.85
G1 F2400 X-19.5 Y-22.422 E2788.81473
G0 F18000 X-19.5 Y-22.555
G1 F2400 X-19.499 Y22.413 E2791.15162
G0 F18000 X-19.499 Y22.286
G1 F2400 X-19.499 Y25.974 E2791.34328
G0 F18000 X-19.499 Y25.851
G1 F2400 X-19.499 Y28.474 E2791.47959
G0 F18000 X-19.499 Y28.354
G1 F2400 X-19.749 Y28.723 E2791.49875
G1 X-19.999 Y28.354 E2791.52194
G0 F18000 X-19.999 Y28.474
G1 F2400 X-19.999 Y25.643 E2791.66907
G0 F18000 X-19.999 Y25.776
G1 F2400 X-19.999 Y22.482 E2791.84025
G0 F18000 X-19.999 Y22.628
G1 F2400 X-20 Y-22.385 E2794.17953
G0 F18000 X-20 Y-22.263
G1 F2400 X-20 Y-25.998 E2794.37369
G0 F18000 X-20 Y-25.878
G1 F2400 X-20 Y-28.475 E2794.5087
G0 F18000 X-20 Y-28.355
G1 F2400 X-20.25 Y-28.726 E2794.52806
G1 X-20.5 Y-28.355 E2794.55129
G0 F18000 X-20.5 Y-28.475
G1 F2400 X-20.5 Y-25.894 E2794.68537
G0 F18000 X-20.5 Y-26.016
G1 F2400 X-20.5 Y-22.246 E2794.88125
G0 F18000 X-20.5 Y-22.366
G1 F2400 X-20.499 Y23.097 E2797.24386
G0 F18000 X-20.499 Y22.915
G1 F2400 X-20.499 Y25.366 E2797.37123
G0 F18000 X-20.499 Y25.156
G1 F2400 X-20.499 Y28.474 E2797.54367
G0 F18000 X-20.499 Y28.354
G1 F2400 X-20.749 Y28.723 E2797.56282
G1 X-20.999 Y28.354 E2797.58602
G0 F18000 X-20.999 Y28.474
G1 F2400 X-21 Y-22.492 E2800.23467
G0 F18000 X-21 Y-22.364
G1 F2400 X-21 Y-25.896 E2800.41827
G0 F18000 X-21 Y-25.764
G1 F2400 X-21 Y-28.475 E2800.55921
G0 F18000 X-21 Y-28.355
G1 F2400 X-21.25 Y-28.726 E2800.57857
G1 X-21.5 Y-28.355 E2800.60181
G0 F18000 X-21.5 Y-28.475
G1 F2400 X-21.5 Y-25.449 E2800.75901
G0 F18000 X-21.5 Y-25.605
G1 F2400 X-21.5 Y-22.64 E2800.91305
G0 F18000 X-21.5 Y-22.786
G1 F2400 X-21.499 Y28.474 E2803.57692
G0 F18000 X-21.499 Y28.354
G1 F2400 X-21.749 Y28.723 E2803.59608
G1 X-21.999 Y28.354 E2803.61927
G0 F18000 X-21.999 Y28.474
G1 F2400 X-22 Y-23.528 E2806.32176
G0 F18000 X-22 Y-23.248
G1 F2400 X-22 Y-25.025 E2806.41416
G0 F18000 X-22 Y-24.699
G1 F2400 X-22 Y-28.475 E2806.61045
G0 F18000 X-22 Y-28.355
G1 F2400 X-22.25 Y-28.726 E2806.62981
G1 X-22.5 Y-28.355 E2806.65304
G0 F18000 X-22.5 Y-28.475
G1 F2400 X-22.499 Y28.474 E2809.61257
G0 F18000 X-22.499 Y28.354
G1 F2400 X-22.749 Y28.723 E2809.63173
G1 X-22.999 Y28.354 E2809.65492
G0 F18000 X-22.999 Y28.474
G1 F2400 X-23 Y-28.475 E2812.6145
G0 F18000 X-23 Y-28.355
G1 F2400 X-23.25 Y-28.726 E2812.63386
G1 X-23.5 Y-28.355 E2812.65709
G0 F18000 X-23.5 Y-28.475
G1 F2400 X-23.499 Y28.474 E2815.61662
G0 F18000 X-23.499 Y28.354
G1 F2400 X-23.749 Y28.722 E2815.63579
G1 X-23.999 Y28.354 E2815.65894
G0 F18000 X-23.999 Y28.474
G1 F2400 X-24 Y-28.475 E2818.61852
G0 F18000 X-24 Y-28.355
G1 F2400 X-24.25 Y-28.727 E2818.63791
G1 X-24.5 Y-28.356 E2818.66115
G0 F18000 X-24.5 Y-28.476
G1 F2400 X-24.499 Y28.473 E2821.62068
G0 F18000 X-24.499 Y28.353
G1 F2400 X-24.749 Y28.722 E2821.63983
G1 X-24.999 Y28.353 E2821.66303
G0 F18000 X-24.999 Y28.473
G1 F2400 X-25 Y-28.476 E2824.62261
G0 F18000 X-25 Y-28.356
G1 F2400 X-25.25 Y-28.727 E2824.64196
G1 X-25.5 Y-28.356 E2824.6652
G0 F18000 X-25.5 Y-28.476
G1 F2400 X-25.499 Y28.473 E2827.62473
G0 F18000 X-25.499 Y28.353
G1 F2400 X-25.749 Y28.722 E2827.64388
G1 X-25.999 Y28.353 E2827.66708
G0 F18000 X-25.999 Y28.473
G1 F2400 X-26 Y-28.476 E2830.62666
G0 F18000 X-26 Y-28.356
G1 F2400 X-26.25 Y-28.727 E2830.64601
G1 X-26.5 Y-28.356 E2830.66925
G0 F18000 X-26.5 Y-28.476
G1 F2400 X-26.499 Y28.473 E2833.62878
G0 F18000 X-26.499 Y28.353
G1 F2400 X-26.749 Y28.722 E2833.64794
G1 X-26.999 Y28.353 E2833.67113
G0 F18000 X-26.999 Y28.473
G1 F2400 X-27 Y-28.476 E2836.63071
G0 F18000 X-27 Y-28.356
G1 F2400 X-27.25 Y-28.727 E2836.65007
G1 X-27.5 Y-28.356 E2836.6733
G0 F18000 X-27.5 Y-28.476
G1 F2400 X-27.499 Y28.473 E2839.63283
G0 F18000 X-27.499 Y28.353
G1 F2400 X-27.749 Y28.722 E2839.65199
G1 X-27.999 Y28.353 E2839.67518
G0 F18000 X-27.999 Y28.473
G1 F2400 X-28 Y-28.476 E2842.63476
G0 F18000 X-28 Y-28.356
G1 F2400 X-28.25 Y-28.727 E2842.65412
G1 X-28.5 Y-28.356 E2842.67735
G0 F18000 X-28.5 Y-28.476
G1 F2400 X-28.499 Y28.473 E2845.63688
G0 F18000 X-28.499 Y28.353
G1 F2400 X-28.749 Y28.722 E2845.65604
G1 X-28.999 Y28.353 E2845.67923
G0 F18000 X-28.999 Y28.473
G1 F2400 X-29 Y-28.476 E2848.63881
G0 F18000 X-29 Y-28.356
G1 F2400 X-29.25 Y-28.727 E2848.65817
G1 X-29.5 Y-28.356 E2848.6814
G0 F18000 X-29.5 Y-28.476
G1 F2400 X-29.499 Y28.473 E2851.64093
G0 F18000 X-29.499 Y28.353
G1 F2400 X-29.749 Y28.722 E2851.66009
G1 X-29.999 Y28.353 E2851.68328
G0 F18000 X-29.999 Y28.473
G1 F2400 X-30 Y-28.476 E2854.64286
G0 F18000 X-30 Y-28.356
G1 F2400 X-30.25 Y-28.727 E2854.66222
G1 X-30.5 Y-28.356 E2854.68545
G0 F18000 X-30.5 Y-28.476
G1 F2400 X-30.499 Y28.473 E2857.64498
G0 F18000 X-30.499 Y28.353
G1 F2400 X-30.749 Y28.722 E2857.66414
G1 X-30.999 Y28.353 E2857.68733
G0 F18000 X-30.999 Y28.473
G1 F2400 X-31 Y-28.476 E2860.64691
G0 F18000 X-31 Y-28.356
G1 F2400 X-31.25 Y-28.727 E2860.66627
G1 X-31.5 Y-28.356 E2860.6895
G0 F18000 X-31.5 Y-28.476
G1 F2400 X-31.499 Y28.473 E2863.64903
G0 F18000 X-31.499 Y28.353
G1 F2400 X-31.749 Y28.721 E2863.66815
G1 X-31.999 Y28.353 E2863.6913
G0 F18000 X-31.999 Y28.473
G1 F2400 X-32 Y-28.476 E2866.65088
G0 F18000 X-32 Y-28.356
G1 F2400 X-32.25 Y-28.728 E2866.67028
G1 X-32.5 Y-28.356 E2866.69355
G0 F18000 X-32.5 Y-28.476
G1 F2400 X-32.499 Y28.473 E2869.65308
G0 F18000 X-32.499 Y28.353
G1 F2400 X-32.749 Y28.721 E2869.6722
G1 X-33 Y28.353 E2869.69538
G0 F18000 X-33 Y28.473
G1 F2400 X-33 Y-28.476 E2872.65496
G0 F18000 X-33 Y-28.356
G1 F2400 X-33.25 Y-28.728 E2872.67436
G1 X-33.5 Y-28.356 E2872.69763
G0 F18000 X-33.5 Y-28.476
G1 F2400 X-33.5 Y28.473 E2875.65716
G0 F18000 X-33.5 Y28.353
G1 F2400 X-33.75 Y28.721 E2875.67628
G1 X-34 Y28.353 E2875.69943
G0 F18000 X-34 Y28.473
G1 F2400 X-34 Y-28.476 E2878.65901
G0 F18000 X-34 Y-28.356
G1 F2400 X-34.25 Y-28.728 E2878.67841
G1 X-34.5 Y-28.356 E2878.70169
G0 F18000 X-34.5 Y-28.476
G1 F2400 X-34.5 Y28.473 E2881.66121
G0 F18000 X-34.5 Y28.353
G1 F2400 X-34.75 Y28.721 E2881.68034
G1 X-35 Y28.353 E2881.70348
G0 F18000 X-35 Y28.473
G1 F2400 X-35 Y-28.476 E2884.66306
G0 F18000 X-35 Y-28.356
G1 F2400 X-35.25 Y-28.709 E2884.68246
G1 X-35.5 Y-28.356 E2884.70493
G0 F18000 X-35.5 Y-28.476
G1 F2400 X-35.5 Y28.473 E2887.66446
G0 F18000 X-35.5 Y28.353
G1 F2400 X-35.5 Y28.69 E2887.68197
G0 F18000 X-36 Y28.445
G1 F2400 X-36 Y-28.445 E2890.63848
G1 X-36 Y28.445 E2893.59495
G0 F18000 X-18.5 Y-23.58
G0 X-18.5 Y-23.58
G1 F2400 X-18.5 Y-24.724 E2893.65445
G0 F18000 X30.499 Y-19.483
G1 F2400 X30.499 Y-18.582 E2893.70122
G0 F18000 X30.5 Y8.446
G1 F2400 X30.5 Y9.304 E2893.74581
; LAYER:6
G0 F18000 X36.54 Y27.618 Z1.8
G0 X36.54 Y27.618
; TYPE:WALL-INNER
G1 F2400 X36.487 Y28.02 E2893.76688
G1 X36.371 Y28.293 E2893.7823
G1 X36.28 Y28.43 E2893.79085
G1 X36.172 Y28.552 E2893.79931
G1 X36.029 Y28.675 E2893.80912
G1 X35.895 Y28.76 E2893.81736
G1 X35.638 Y28.867 E2893.83183
G1 X35.238 Y28.92 E2893.8528
G1 X-35.311 Y28.91 E2897.51916
G1 X-35.658 Y28.859 E2897.53744
G1 X-35.928 Y28.74 E2897.55282
G1 X-36.168 Y28.556 E2897.56858
G1 X-36.279 Y28.43 E2897.57734
G1 X-36.37 Y28.293 E2897.58591
G1 X-36.486 Y28.02 E2897.60135
G1 X-36.539 Y27.618 E2897.62243
G1 X-36.539 Y-27.617 E2900.49293
G1 X-36.486 Y-28.019 E2900.51405
G1 X-36.445 Y-28.141 E2900.52077
G1 X-36.366 Y-28.301 E2900.53007
G1 X-36.287 Y-28.419 E2900.53746
G1 X-36.151 Y-28.568 E2900.54795
G1 X-36.027 Y-28.673 E2900.55639
G1 X-35.892 Y-28.76 E2900.56472
G1 X-35.637 Y-28.866 E2900.57904
G1 X-35.237 Y-28.919 E2900.59997
G1 X35.312 Y-28.909 E2904.26628
G1 X35.659 Y-28.858 E2904.28449
G1 X35.787 Y-28.812 E2904.29155
G1 X35.937 Y-28.734 E2904.30031
G1 X36.177 Y-28.547 E2904.31609
G1 X36.282 Y-28.428 E2904.3243
G1 X36.367 Y-28.301 E2904.3322
G1 X36.446 Y-28.141 E2904.34142
G1 X36.487 Y-28.019 E2904.34806
G1 X36.54 Y-27.617 E2904.36908
G1 X36.54 Y27.618 E2907.23954
G0 F18000 X37.04 Y27.652
; TYPE:WALL-OUTER
G1 F2100 X36.977 Y28.131 E2907.26464
G1 X36.906 Y28.34 E2907.27611
G1 X36.806 Y28.543 E2907.28787
G1 X36.678 Y28.735 E2907.29987
G1 X36.526 Y28.908 E2907.31183
G1 X36.329 Y29.076 E2907.32529
G1 X36.133 Y29.201 E2907.33737
G1 X35.932 Y29.295 E2907.3489
G1 X35.749 Y29.357 E2907.35894
G1 X35.272 Y29.42 E2907.38395
G1 X-35.349 Y29.41 E2911.05405
G1 X-35.78 Y29.347 E2911.07674
G1 X-35.987 Y29.272 E2911.08823
G1 X-36.191 Y29.166 E2911.10022
G1 X-36.378 Y29.036 E2911.1121
G1 X-36.526 Y28.907 E2911.12234
G1 X-36.677 Y28.735 E2911.13427
G1 X-36.805 Y28.543 E2911.14629
G1 X-36.905 Y28.34 E2911.15807
G1 X-36.976 Y28.131 E2911.16956
G1 X-37.039 Y27.652 E2911.19468
G1 X-37.039 Y-27.651 E2914.06872
G1 X-36.976 Y-28.13 E2914.09387
G1 X-36.905 Y-28.339 E2914.10537
G1 X-36.803 Y-28.547 E2914.11744
G1 X-36.68 Y-28.731 E2914.12895
G1 X-36.501 Y-28.928 E2914.14279
G1 X-36.325 Y-29.076 E2914.15473
G1 X-36.134 Y-29.199 E2914.16652
G1 X-35.931 Y-29.294 E2914.17815
G1 X-35.748 Y-29.356 E2914.18816
G1 X-35.271 Y-29.419 E2914.21312
G1 X35.35 Y-29.409 E2917.88316
G1 X35.781 Y-29.346 E2917.90579
G1 X35.988 Y-29.271 E2917.91722
G1 X36.196 Y-29.163 E2917.92937
G1 X36.377 Y-29.038 E2917.94078
G1 X36.531 Y-28.902 E2917.95142
G1 X36.678 Y-28.736 E2917.9629
G1 X36.804 Y-28.547 E2917.97466
G1 X36.906 Y-28.339 E2917.98666
G1 X36.977 Y-28.13 E2917.99808
G1 X37.04 Y-27.651 E2918.02314
G1 X37.04 Y27.652 E2920.89712
G0 F18000 X36.35 Y27.499
; TYPE:FILL
G1 F2400 X-36.098 Y27.5 E2924.66217
G0 F18000 X-35.978 Y27.5
G1 F2400 X-36.349 Y27.25 E2924.6815
G1 X-35.978 Y27 E2924.70471
G0 F18000 X-36.098 Y27
G1 F2400 X36.35 Y26.999 E2928.4697
G0 F18000 X36.35 Y26.499
G1 F2400 X-36.098 Y26.5 E2932.23475
G0 F18000 X-35.978 Y26.5
G1 F2400 X-36.349 Y26.25 E2932.25408
G1 X-35.978 Y26 E2932.27729
G0 F18000 X-36.098 Y26
G1 F2400 X36.35 Y25.999 E2936.04229
G0 F18000 X36.35 Y25.499
G1 F2400 X-17.906 Y25.5 E2938.86191
G0 F18000 X-17.734 Y25.5
G1 F2400 X-20.365 Y25.5 E2938.9987
G0 F18000 X-20.18 Y25.5
G1 F2400 X-36.098 Y25.5 E2939.82599
G0 F18000 X-35.978 Y25.5
G1 F2400 X-36.349 Y25.25 E2939.84532
G1 X-35.978 Y25 E2939.86853
G0 F18000 X-36.098 Y25
G1 F2400 X-20.608 Y25 E2940.67348
G0 F18000 X-20.752 Y25
G1 F2400 X-17.362 Y25 E2940.8496
G0 F18000 X-17.496 Y25
G1 F2400 X36.35 Y24.999 E2943.64787
G0 F18000 X36.35 Y24.499
G1 F2400 X-17.311 Y24.5 E2946.43657
G0 F18000 X-17.188 Y24.5
G1 F2400 X-20.922 Y24.5 E2946.63068
G0 F18000 X-20.802 Y24.5
G1 F2400 X-36.098 Y24.5 E2947.42565
G0 F18000 X-35.978 Y24.5
G1 F2400 X-36.349 Y24.25 E2947.44498
G1 X-35.978 Y24 E2947.46819
G0 F18000 X-36.098 Y24
G1 F2400 X-20.831 Y24 E2948.26155
G0 F18000 X-20.953 Y24
G1 F2400 X-17.157 Y24 E2948.45877
G0 F18000 X-17.278 Y24
G1 F2400 X36.35 Y23.999 E2951.24571
G0 F18000 X36.35 Y23.499
G1 F2400 X-17.388 Y23.5 E2954.03842
G0 F18000 X-17.26 Y23.5
G1 F2400 X-20.85 Y23.5 E2954.22504
G0 F18000 X-20.716 Y23.5
G1 F2400 X-36.098 Y23.5 E2955.02447
G0 F18000 X-35.978 Y23.5
G1 F2400 X-36.349 Y23.25 E2955.04381
G1 X-35.978 Y23 E2955.06701
G0 F18000 X-36.098 Y23
G1 F2400 X-20.414 Y23 E2955.88204
G0 F18000 X-20.574 Y23
G1 F2400 X-17.524 Y23 E2956.0405
G0 F18000 X-17.669 Y23
G1 F2400 X36.35 Y22.999 E2958.84776
G0 F18000 X36.35 Y22.499
G1 F2400 X-18.347 Y22.5 E2961.6903
G0 F18000 X-18.08 Y22.5
G1 F2400 X-20.025 Y22.5 E2961.79143
G0 F18000 X-19.756 Y22.5
G1 F2400 X-36.098 Y22.5 E2962.64076
G0 F18000 X-35.978 Y22.5
G1 F2400 X-36.349 Y22.25 E2962.66009
G1 X-35.978 Y22 E2962.6833
G0 F18000 X-36.098 Y22
G1 F2400 X36.35 Y21.999 E2966.4483
G0 F18000 X36.35 Y21.499
G1 F2400 X-36.098 Y21.5 E2970.21334
G0 F18000 X-35.978 Y21.5
G1 F2400 X-36.349 Y21.25 E2970.23268
G1 X-35.977 Y21 E2970.25593
G0 F18000 X-36.097 Y21
G1 F2400 X36.35 Y20.999 E2974.02087
G0 F18000 X36.35 Y20.499
G1 F2400 X-36.097 Y20.5 E2977.78586
G0 F18000 X-35.977 Y20.5
G1 F2400 X-36.349 Y20.25 E2977.80523
G1 X-35.977 Y20 E2977.82848
G0 F18000 X-36.097 Y20
G1 F2400 X36.35 Y19.999 E2981.59343
G0 F18000 X36.35 Y19.499
G1 F2400 X-36.097 Y19.5 E2985.35842
G0 F18000 X-35.977 Y19.5
G1 F2400 X-36.349 Y19.25 E2985.37779
G1 X-35.977 Y19 E2985.40104
G0 F18000 X-36.097 Y19
G1 F2400 X36.35 Y18.999 E2989.16598
G0 F18000 X36.35 Y18.499
G1 F2400 X-36.097 Y18.5 E2992.93098
G0 F18000 X-35.977 Y18.5
G1 F2400 X-36.349 Y18.25 E2992.95035
G1 X-35.977 Y18 E2992.9736
G0 F18000 X-36.097 Y18
G1 F2400 X36.35 Y17.999 E2996.73854
G0 F18000 X36.35 Y17.499
G1 F2400 X-36.097 Y17.5 E3000.50353
G0 F18000 X-35.977 Y17.5
G1 F2400 X-36.349 Y17.25 E3000.5229
G1 X-35.977 Y17 E3000.54615
G0 F18000 X-36.097 Y17
G1 F2400 X36.35 Y16.999 E3004.3111
G0 F18000 X36.35 Y16.499
G1 F2400 X-36.097 Y16.5 E3008.07609
G0 F18000 X-35.977 Y16.5
G1 F2400 X-36.349 Y16.25 E3008.09546
G1 X-35.977 Y16 E3008.11871
