; Generated with MatterSlice 1.0
; filamentDiameter = 1.75
; extrusionWidth = 0.5
; firstLayerExtrusionWidth = 0.4
; layerThickness = 0.25
; firstLayerThickness = 0.3
; automatic settings before start_gcode
G21 ; set units to millimeters
M107 ; fan off
T0 ; set the active extruder to 0
; settings from start_gcode
M104 S190
M190 S60
M109 S190
G28
; automatic settings after start_gcode
T0 ; set the active extruder to 0
G90 ; use absolute coordinates
G92 E0 ; reset the expected extruder position
M82 ; use absolute distance for extrusion
; Layer count: 36
; LAYER:0
M107
G0 F18000 X53.99 Y-34.745 Z0.3
; TYPE:SKIRT
G1 Z0.3
G1 F6600 E0
G1 F720 X54.967 Y-34.609 E0.04921
G1 X55.709 Y-34.348 E0.08843
G1 X56.307 Y-34.047 E0.12181
G1 X56.845 Y-33.678 E0.15433
G1 X57.32 Y-33.264 E0.18573
G1 X57.762 Y-32.76 E0.21914
G1 X58.133 Y-32.205 E0.2524
G1 X58.43 Y-31.604 E0.2858
G1 X58.683 Y-30.856 E0.32515
G1 X58.807 Y-29.913 E0.37255
G1 X58.811 Y29.885 E3.35584
G1 X58.683 Y30.858 E3.4048
G1 X58.43 Y31.605 E3.44415
G1 X58.133 Y32.206 E3.47759
G1 X57.754 Y32.773 E3.51162
G1 X57.286 Y33.297 E3.54667
G1 X56.783 Y33.729 E3.57975
G1 X56.225 Y34.096 E3.61307
G1 X55.588 Y34.402 E3.64832
G1 X54.84 Y34.633 E3.68738
G1 X53.946 Y34.75 E3.73236
G1 X-53.989 Y34.746 E9.11726
G1 X-54.966 Y34.61 E9.16653
G1 X-55.708 Y34.349 E9.20581
G1 X-56.306 Y34.048 E9.23926
G1 X-56.839 Y33.683 E9.27153
G1 X-57.321 Y33.265 E9.3034
G1 X-57.765 Y32.755 E9.33717
G1 X-58.132 Y32.206 E9.37014
G1 X-58.429 Y31.605 E9.40361
G1 X-58.682 Y30.858 E9.44297
G1 X-58.81 Y29.886 E9.49189
G1 X-58.81 Y-29.885 E12.47388
G1 X-58.682 Y-30.857 E12.52283
G1 X-58.429 Y-31.604 E12.56221
G1 X-58.132 Y-32.205 E12.59568
G1 X-57.757 Y-32.766 E12.62936
G1 X-57.287 Y-33.296 E12.6647
G1 X-56.777 Y-33.731 E12.69814
G1 X-56.224 Y-34.095 E12.73115
G1 X-55.587 Y-34.401 E12.76639
G1 X-54.839 Y-34.632 E12.80541
G1 X-53.945 Y-34.749 E12.85035
G1 X53.99 Y-34.745 E18.2352
G0 F18000 X53.962 Y-34.345
G1 F720 X54.872 Y-34.218 E18.28103
G1 X55.552 Y-33.979 E18.31698
G1 X56.104 Y-33.702 E18.34777
G1 X56.6 Y-33.362 E18.37774
G1 X57.036 Y-32.98 E18.40663
G1 X57.444 Y-32.516 E18.43742
G1 X57.786 Y-32.004 E18.46809
G1 X58.06 Y-31.451 E18.49884
G1 X58.292 Y-30.765 E18.53492
G1 X58.407 Y-29.887 E18.57905
G1 X58.411 Y29.859 E21.55974
G1 X58.292 Y30.767 E21.60543
G1 X58.06 Y31.452 E21.64151
G1 X57.786 Y32.005 E21.6723
G1 X57.437 Y32.527 E21.70362
G1 X57.006 Y33.011 E21.73596
G1 X56.542 Y33.409 E21.76646
G1 X56.028 Y33.747 E21.79715
G1 X55.442 Y34.029 E21.82959
G1 X54.754 Y34.241 E21.86551
G1 X53.92 Y34.35 E21.90747
G1 X-53.961 Y34.346 E27.28968
G1 X-54.871 Y34.219 E27.33557
G1 X-55.551 Y33.98 E27.37157
G1 X-56.103 Y33.703 E27.40243
G1 X-56.594 Y33.366 E27.43218
G1 X-57.037 Y32.981 E27.4615
G1 X-57.446 Y32.512 E27.49258
G1 X-57.785 Y32.005 E27.52303
G1 X-58.059 Y31.452 E27.55385
G1 X-58.291 Y30.767 E27.58994
G1 X-58.41 Y29.859 E27.63564
G1 X-58.41 Y-29.858 E30.61493
G1 X-58.291 Y-30.766 E30.66066
G1 X-58.059 Y-31.451 E30.69678
G1 X-57.785 Y-32.004 E30.72759
G1 X-57.439 Y-32.522 E30.75868
G1 X-57.006 Y-33.01 E30.79123
G1 X-56.536 Y-33.411 E30.82205
G1 X-56.027 Y-33.746 E30.85244
G1 X-55.441 Y-34.028 E30.88486
G1 X-54.753 Y-34.24 E30.92074
G1 X-53.919 Y-34.349 E30.96266
G1 X53.962 Y-34.345 E36.34482
G0 F18000 X53.726 Y-30.945
; TYPE:WALL-OUTER
G1 F720 X54.064 Y-30.898 E36.36184
G1 X54.218 Y-30.844 E36.36996
G1 X54.373 Y-30.766 E36.3786
G1 X54.633 Y-30.564 E36.39499
G1 X54.743 Y-30.439 E36.40326
G1 X54.836 Y-30.3 E36.41156
G1 X54.913 Y-30.144 E36.4202
G1 X54.964 Y-29.992 E36.42815
G1 X55.007 Y-29.667 E36.44446
G1 X55.011 Y29.639 E39.40319
G1 X54.964 Y29.993 E39.42101
G1 X54.913 Y30.145 E39.42901
G1 X54.836 Y30.301 E39.43769
G1 X54.743 Y30.44 E39.44603
G1 X54.621 Y30.576 E39.45515
G1 X54.491 Y30.688 E39.46371
G1 X54.349 Y30.782 E39.4722
G1 X54.198 Y30.854 E39.48055
G1 X54.026 Y30.907 E39.48953
G1 X53.7 Y30.95 E39.50593
G1 X-53.725 Y30.946 E44.86539
G1 X-54.063 Y30.899 E44.88246
G1 X-54.217 Y30.845 E44.89065
G1 X-54.372 Y30.767 E44.89935
G1 X-54.629 Y30.569 E44.91558
G1 X-54.742 Y30.44 E44.92417
G1 X-54.835 Y30.301 E44.93254
G1 X-54.912 Y30.145 E44.94124
G1 X-54.963 Y29.993 E44.94926
G1 X-55.01 Y29.639 E44.96708
G1 X-55.01 Y-29.638 E47.92442
G1 X-54.963 Y-29.992 E47.94228
G1 X-54.912 Y-30.144 E47.95031
G1 X-54.835 Y-30.3 E47.95901
G1 X-54.745 Y-30.435 E47.96712
G1 X-54.617 Y-30.579 E47.97674
G1 X-54.49 Y-30.687 E47.98505
G1 X-54.348 Y-30.781 E47.99353
G1 X-54.197 Y-30.853 E48.00185
G1 X-54.025 Y-30.906 E48.0108
G1 X-53.699 Y-30.949 E48.02716
G1 X53.726 Y-30.945 E53.38657
G0 F18000 X53.7 Y-30.545
; TYPE:WALL-INNER
G1 F720 X53.97 Y-30.507 E53.40016
G1 X54.169 Y-30.421 E53.41096
G1 X54.347 Y-30.284 E53.42214
G1 X54.49 Y-30.096 E53.43388
G1 X54.572 Y-29.903 E53.4443
G1 X54.607 Y-29.638 E53.45758
G1 X54.611 Y29.61 E56.41343
G1 X54.572 Y29.904 E56.42822
G1 X54.49 Y30.097 E56.43869
G1 X54.339 Y30.292 E56.45099
G1 X54.154 Y30.431 E56.46254
G1 X53.944 Y30.514 E56.4738
G1 X53.671 Y30.55 E56.48754
G1 X-53.699 Y30.546 E61.84425
G1 X-53.969 Y30.508 E61.8579
G1 X-54.168 Y30.422 E61.86876
G1 X-54.347 Y30.285 E61.88005
G1 X-54.489 Y30.097 E61.89183
G1 X-54.571 Y29.904 E61.90231
G1 X-54.61 Y29.61 E61.91712
G1 X-54.61 Y-29.609 E64.87157
G1 X-54.571 Y-29.903 E64.8864
G1 X-54.489 Y-30.096 E64.89689
G1 X-54.339 Y-30.29 E64.90914
G1 X-54.153 Y-30.43 E64.92074
G1 X-53.943 Y-30.513 E64.93198
G1 X-53.67 Y-30.549 E64.94567
G1 X53.7 Y-30.545 E70.30234
G0 F18000 X53.718 Y-30.4
; TYPE:FILL
G1 F720 X-53.731 Y-30.399 E75.66299
G0 F18000 X-54.378 Y-29.999
G1 F720 X54.378 Y-30 E81.0888
G0 F18000 X54.467 Y-29.6
G1 F720 X-54.47 Y-29.599 E86.52369
G0 F18000 X-54.47 Y-29.199
G1 F720 X54.467 Y-29.2 E91.95853
G0 F18000 X54.467 Y-28.8
G1 F720 X-54.47 Y-28.799 E97.39341
G0 F18000 X-54.47 Y-28.399
G1 F720 X54.467 Y-28.4 E102.82825
G0 F18000 X54.467 Y-28
G1 F720 X-54.47 Y-27.999 E108.26314
G0 F18000 X-54.47 Y-27.599
G1 F720 X54.467 Y-27.6 E113.69798
G0 F18000 X54.467 Y-27.2
G1 F720 X-54.47 Y-27.199 E119.13287
G0 F18000 X-54.47 Y-26.799
G1 F720 X54.467 Y-26.8 E124.56771
G0 F18000 X54.467 Y-26.4
G1 F720 X-54.47 Y-26.399 E130.0026
G0 F18000 X-54.47 Y-25.999
G1 F720 X54.467 Y-26 E135.43744
G0 F18000 X54.467 Y-25.6
G1 F720 X-54.47 Y-25.599 E140.87233
G0 F18000 X-54.47 Y-25.199
G1 F720 X54.467 Y-25.2 E146.30717
G0 F18000 X54.467 Y-24.8
G1 F720 X-54.47 Y-24.799 E151.74205
G0 F18000 X-54.47 Y-24.399
G1 F720 X54.467 Y-24.4 E157.17689
G0 F18000 X54.467 Y-24
G1 F720 X-54.47 Y-23.999 E162.61178
G0 F18000 X-54.47 Y-23.599
G1 F720 X54.467 Y-23.6 E168.04662
G0 F18000 X54.467 Y-23.2
G1 F720 X-54.47 Y-23.199 E173.48151
G0 F18000 X-54.47 Y-22.799
G1 F720 X54.467 Y-22.8 E178.91635
G0 F18000 X54.467 Y-22.4
G1 F720 X-54.47 Y-22.399 E184.35124
G0 F18000 X-54.47 Y-21.999
G1 F720 X54.468 Y-22 E189.78613
G0 F18000 X54.468 Y-21.6
G1 F720 X-54.47 Y-21.599 E195.22107
G0 F18000 X-54.47 Y-21.199
G1 F720 X54.468 Y-21.2 E200.65596
G0 F18000 X54.468 Y-20.8
G1 F720 X-54.47 Y-20.799 E206.09089
G0 F18000 X-54.47 Y-20.399
G1 F720 X54.468 Y-20.4 E211.52578
G0 F18000 X54.468 Y-20
G1 F720 X-54.47 Y-19.999 E216.96072
G0 F18000 X-54.47 Y-19.599
G1 F720 X54.468 Y-19.6 E222.39561
G0 F18000 X54.468 Y-19.2
G1 F720 X-54.47 Y-19.199 E227.83055
G0 F18000 X-54.47 Y-18.799
G1 F720 X54.468 Y-18.8 E233.26544
G0 F18000 X54.468 Y-18.4
G1 F720 X-54.47 Y-18.399 E238.70038
G0 F18000 X-54.47 Y-17.999
G1 F720 X54.468 Y-18 E244.13527
G0 F18000 X54.468 Y-17.6
G1 F720 X-54.47 Y-17.599 E249.57021
G0 F18000 X-54.47 Y-17.199
G1 F720 X54.468 Y-17.2 E255.0051
G0 F18000 X54.468 Y-16.8
G1 F720 X-54.47 Y-16.799 E260.44003
G0 F18000 X-54.47 Y-16.399
G1 F720 X54.468 Y-16.4 E265.87492
G0 F18000 X54.468 Y-16
G1 F720 X-54.47 Y-15.999 E271.30986
G0 F18000 X-54.47 Y-15.599
G1 F720 X54.468 Y-15.6 E276.74475
G0 F18000 X54.468 Y-15.2
G1 F720 X-54.47 Y-15.199 E282.17969
G0 F18000 X-54.47 Y-14.799
G1 F720 X54.468 Y-14.8 E287.61458
G0 F18000 X54.468 Y-14.4
G1 F720 X-54.47 Y-14.399 E293.04952
G0 F18000 X-54.47 Y-13.999
G1 F720 X54.468 Y-14 E298.48441
G0 F18000 X54.468 Y-13.6
G1 F720 X-54.47 Y-13.599 E303.91935
G0 F18000 X-54.47 Y-13.199
G1 F720 X54.468 Y-13.2 E309.35423
G0 F18000 X54.468 Y-12.8
G1 F720 X-54.47 Y-12.799 E314.78917
G0 F18000 X-54.47 Y-12.399
G1 F720 X54.468 Y-12.4 E320.22406
G0 F18000 X54.468 Y-12
G1 F720 X-54.47 Y-11.999 E325.659
G0 F18000 X-54.47 Y-11.599
G1 F720 X54.468 Y-11.6 E331.09389
G0 F18000 X54.468 Y-11.2
G1 F720 X-54.47 Y-11.199 E336.52883
G0 F18000 X-54.47 Y-10.799
G1 F720 X54.468 Y-10.8 E341.96372
G0 F18000 X54.468 Y-10.4
G1 F720 X-54.47 Y-10.399 E347.39866
G0 F18000 X-54.47 Y-9.999
G1 F720 X54.468 Y-10 E352.83355
G0 F18000 X54.468 Y-9.6
G1 F720 X-54.47 Y-9.599 E358.26849
G0 F18000 X-54.47 Y-9.199
G1 F720 X54.468 Y-9.2 E363.70337
G0 F18000 X54.468 Y-8.8
G1 F720 X-54.47 Y-8.799 E369.13831
G0 F18000 X-54.47 Y-8.399
G1 F720 X54.468 Y-8.4 E374.5732
G0 F18000 X54.468 Y-8
G1 F720 X-54.47 Y-7.999 E380.00814
G0 F18000 X-54.47 Y-7.599
G1 F720 X54.468 Y-7.6 E385.44303
G0 F18000 X54.469 Y-7.2
G1 F720 X-54.47 Y-7.199 E390.87802
G0 F18000 X-54.47 Y-6.799
G1 F720 X54.469 Y-6.8 E396.31296
G0 F18000 X54.469 Y-6.4
G1 F720 X-54.47 Y-6.399 E401.74795
G0 F18000 X-54.47 Y-5.999
G1 F720 X54.469 Y-6 E407.18289
G0 F18000 X54.469 Y-5.6
G1 F720 X-54.47 Y-5.599 E412.61787
G0 F18000 X-54.47 Y-5.199
G1 F720 X54.469 Y-5.2 E418.05281
G0 F18000 X54.469 Y-4.8
G1 F720 X-54.47 Y-4.799 E423.4878
G0 F18000 X-54.47 Y-4.399
G1 F720 X54.469 Y-4.4 E428.92274
G0 F18000 X54.469 Y-4
G1 F720 X-54.47 Y-3.999 E434.35773
G0 F18000 X-54.47 Y-3.599
G1 F720 X54.469 Y-3.6 E439.79267
G0 F18000 X54.469 Y-3.2
G1 F720 X-54.47 Y-3.199 E445.22766
G0 F18000 X-54.47 Y-2.799
G1 F720 X54.469 Y-2.8 E450.6626
G0 F18000 X54.469 Y-2.4
G1 F720 X-54.47 Y-2.399 E456.09758
G0 F18000 X-54.47 Y-1.999
G1 F720 X54.469 Y-2 E461.53252
G0 F18000 X54.469 Y-1.6
G1 F720 X-54.47 Y-1.599 E466.96751
G0 F18000 X-54.47 Y-1.199
G1 F720 X54.469 Y-1.2 E472.40245
G0 F18000 X54.469 Y-0.8
G1 F720 X-54.47 Y-0.799 E477.83744
G0 F18000 X-54.47 Y-0.399
G1 F720 X54.469 Y-0.4 E483.27238
G0 F18000 X54.469 Y0
G1 F720 X-54.47 Y0 E488.70737
G0 F18000 X-54.47 Y0.4
G1 F720 X54.469 Y0.399 E494.14231
G0 F18000 X54.469 Y0.799
G1 F720 X-54.47 Y0.8 E499.5773
G0 F18000 X-54.47 Y1.2
G1 F720 X54.469 Y1.199 E505.01223
G0 F18000 X54.469 Y1.599
G1 F720 X-54.47 Y1.6 E510.44722
G0 F18000 X-54.47 Y2
G1 F720 X54.469 Y1.999 E515.88216
G0 F18000 X54.469 Y2.399
G1 F720 X-54.47 Y2.4 E521.31715
G0 F18000 X-54.47 Y2.8
G1 F720 X54.469 Y2.799 E526.75209
G0 F18000 X54.469 Y3.199
G1 F720 X-54.47 Y3.2 E532.18708
G0 F18000 X-54.47 Y3.6
G1 F720 X54.469 Y3.599 E537.62202
G0 F18000 X54.469 Y3.999
G1 F720 X-54.47 Y4 E543.05701
G0 F18000 X-54.47 Y4.4
G1 F720 X54.469 Y4.399 E548.49194
G0 F18000 X54.469 Y4.799
G1 F720 X-54.47 Y4.8 E553.92693
G0 F18000 X-54.47 Y5.2
G1 F720 X54.469 Y5.199 E559.36187
G0 F18000 X54.469 Y5.599
G1 F720 X-54.47 Y5.6 E564.79686
G0 F18000 X-54.47 Y6
G1 F720 X54.469 Y5.999 E570.2318
G0 F18000 X54.469 Y6.399
G1 F720 X-54.47 Y6.4 E575.66679
G0 F18000 X-54.47 Y6.8
G1 F720 X54.469 Y6.799 E581.10173
G0 F18000 X54.469 Y7.199
G1 F720 X-54.47 Y7.2 E586.53672
G0 F18000 X-54.47 Y7.6
G1 F720 X54.47 Y7.599 E591.97171
G0 F18000 X54.47 Y7.999
G1 F720 X-54.47 Y8 E597.40674
G0 F18000 X-54.47 Y8.4
G1 F720 X54.47 Y8.399 E602.84173
G0 F18000 X54.47 Y8.799
G1 F720 X-54.47 Y8.8 E608.27677
G0 F18000 X-54.47 Y9.2
G1 F720 X54.47 Y9.199 E613.71176
G0 F18000 X54.47 Y9.599
G1 F720 X-54.47 Y9.6 E619.1468
G0 F18000 X-54.47 Y10
G1 F720 X54.47 Y9.999 E624.58179
G0 F18000 X54.47 Y10.399
G1 F720 X-54.47 Y10.4 E630.01683
G0 F18000 X-54.47 Y10.8
G1 F720 X54.47 Y10.799 E635.45182
G0 F18000 X54.47 Y11.199
G1 F720 X-54.47 Y11.2 E640.88685
G0 F18000 X-54.47 Y11.6
G1 F720 X54.47 Y11.599 E646.32184
G0 F18000 X54.47 Y11.999
G1 F720 X-54.47 Y12 E651.75688
G0 F18000 X-54.47 Y12.4
G1 F720 X54.47 Y12.399 E657.19187
G0 F18000 X54.47 Y12.799
G1 F720 X-54.47 Y12.8 E662.62691
G0 F18000 X-54.47 Y13.2
G1 F720 X54.47 Y13.199 E668.0619
G0 F18000 X54.47 Y13.599
G1 F720 X-54.47 Y13.6 E673.49694
G0 F18000 X-54.47 Y14
G1 F720 X54.47 Y13.999 E678.93193
G0 F18000 X54.47 Y14.399
G1 F720 X-54.47 Y14.4 E684.36696
G0 F18000 X-54.47 Y14.8
G1 F720 X54.47 Y14.799 E689.80195
G0 F18000 X54.47 Y15.199
G1 F720 X-54.47 Y15.2 E695.23699
G0 F18000 X-54.47 Y15.6
G1 F720 X54.47 Y15.599 E700.67198
G0 F18000 X54.47 Y15.999
G1 F720 X-54.47 Y16 E706.10702
G0 F18000 X-54.47 Y16.4
G1 F720 X54.47 Y16.399 E711.54201
G0 F18000 X54.47 Y16.799
G1 F720 X-54.47 Y16.8 E716.97705
G0 F18000 X-54.47 Y17.2
G1 F720 X54.47 Y17.199 E722.41203
G0 F18000 X54.47 Y17.599
G1 F720 X-54.47 Y17.6 E727.84707
G0 F18000 X-54.47 Y18
G1 F720 X54.47 Y17.999 E733.28206
G0 F18000 X54.47 Y18.399
G1 F720 X-54.47 Y18.4 E738.7171
G0 F18000 X-54.47 Y18.8
G1 F720 X54.47 Y18.799 E744.15209
G0 F18000 X54.47 Y19.199
G1 F720 X-54.47 Y19.2 E749.58713
G0 F18000 X-54.47 Y19.6
G1 F720 X54.47 Y19.599 E755.02212
G0 F18000 X54.47 Y19.999
G1 F720 X-54.47 Y20 E760.45716
G0 F18000 X-54.47 Y20.4
G1 F720 X54.47 Y20.399 E765.89214
G0 F18000 X54.47 Y20.799
G1 F720 X-54.47 Y20.8 E771.32718
G0 F18000 X-54.47 Y21.2
G1 F720 X54.47 Y21.199 E776.76217
G0 F18000 X54.47 Y21.599
G1 F720 X-54.47 Y21.6 E782.19721
G0 F18000 X-54.47 Y22
G1 F720 X54.47 Y21.999 E787.6322
G0 F18000 X54.471 Y22.399
G1 F720 X-54.47 Y22.4 E793.06729
G0 F18000 X-54.47 Y22.8
G1 F720 X54.471 Y22.799 E798.50233
G0 F18000 X54.471 Y23.199
G1 F720 X-54.47 Y23.2 E803.93742
G0 F18000 X-54.47 Y23.6
G1 F720 X54.471 Y23.599 E809.37245
G0 F18000 X54.471 Y23.999
G1 F720 X-54.47 Y24 E814.80754
G0 F18000 X-54.47 Y24.4
G1 F720 X54.471 Y24.399 E820.24258
G0 F18000 X54.471 Y24.799
G1 F720 X-54.47 Y24.8 E825.67767
G0 F18000 X-54.47 Y25.2
G1 F720 X54.471 Y25.199 E831.11271
G0 F18000 X54.471 Y25.599
G1 F720 X-54.47 Y25.6 E836.5478
G0 F18000 X-54.47 Y26
G1 F720 X54.471 Y25.999 E841.98284
G0 F18000 X54.471 Y26.399
G1 F720 X-54.47 Y26.4 E847.41792
G0 F18000 X-54.47 Y26.8
G1 F720 X54.471 Y26.799 E852.85296
G0 F18000 X54.471 Y27.199
G1 F720 X-54.47 Y27.2 E858.28805
G0 F18000 X-54.47 Y27.6
G1 F720 X54.471 Y27.599 E863.72309
G0 F18000 X54.471 Y27.999
G1 F720 X-54.47 Y28 E869.15818
G0 F18000 X-54.47 Y28.4
G1 F720 X54.471 Y28.399 E874.59322
G0 F18000 X54.471 Y28.799
G1 F720 X-54.47 Y28.8 E880.02831
G0 F18000 X-54.47 Y29.2
G1 F720 X54.471 Y29.199 E885.46334
G0 F18000 X54.471 Y29.599
G1 F720 X-54.47 Y29.6 E890.89843
G0 F18000 X-54.377 Y30
G1 F720 X54.379 Y29.999 E896.32424
G0 F18000 X53.74 Y30.399
G1 F720 X-53.724 Y30.4 E901.68564
; LAYER:1
G0 F18000 X-53.653 Y30.4 Z0.55
; TYPE:WALL-INNER
G1 F2400 X-53.952 Y30.355 E901.70141
G1 X-54.106 Y30.283 E901.71029
G1 X-54.24 Y30.18 E901.71911
G1 X-54.359 Y30.023 E901.72938
G1 X-54.424 Y29.87 E901.73804
G1 X-54.46 Y29.598 E901.75231
G1 X-54.46 Y-29.597 E904.82861
G1 X-54.424 Y-29.869 E904.84292
G1 X-54.359 Y-30.022 E904.85158
G1 X-54.219 Y-30.195 E904.86316
G1 X-54.068 Y-30.304 E904.87282
G1 X-53.926 Y-30.364 E904.88081
G1 X-53.658 Y-30.399 E904.89481
G1 X53.653 Y-30.399 E910.4716
G1 X53.953 Y-30.354 E910.48735
G1 X54.107 Y-30.282 E910.49617
G1 X54.24 Y-30.179 E910.50488
G1 X54.36 Y-30.022 E910.51511
G1 X54.425 Y-29.869 E910.5237
G1 X54.461 Y-29.598 E910.53785
G1 X54.461 Y29.598 E913.61416
G1 X54.425 Y29.87 E913.62841
G1 X54.36 Y30.023 E913.63705
G1 X54.222 Y30.193 E913.64843
G1 X54.069 Y30.305 E913.65829
G1 X53.927 Y30.365 E913.6663
G1 X53.659 Y30.4 E913.68034
G1 X-53.653 Y30.4 E919.25724
G0 F18000 X-53.693 Y30.9
; TYPE:WALL-OUTER
G1 F2100 X-54.076 Y30.843 E919.27741
G1 X-54.216 Y30.791 E919.28522
G1 X-54.362 Y30.713 E919.29387
G1 X-54.594 Y30.534 E919.30914
G1 X-54.698 Y30.415 E919.31739
G1 X-54.793 Y30.273 E919.3263
G1 X-54.864 Y30.129 E919.33466
G1 X-54.914 Y29.981 E919.3428
G1 X-54.96 Y29.632 E919.3611
G1 X-54.96 Y-29.631 E922.44093
G1 X-54.914 Y-29.98 E922.45927
G1 X-54.864 Y-30.128 E922.46742
G1 X-54.793 Y-30.272 E922.47579
G1 X-54.704 Y-30.405 E922.48412
G1 X-54.565 Y-30.557 E922.49483
G1 X-54.306 Y-30.745 E922.51145
G1 X-54.039 Y-30.853 E922.52639
G1 X-53.692 Y-30.899 E922.54454
G1 X53.694 Y-30.899 E928.12522
G1 X54.077 Y-30.842 E928.14534
G1 X54.217 Y-30.79 E928.15308
G1 X54.363 Y-30.712 E928.16166
G1 X54.594 Y-30.533 E928.17682
G1 X54.702 Y-30.409 E928.18532
G1 X54.794 Y-30.272 E928.19386
G1 X54.865 Y-30.128 E928.20215
G1 X54.915 Y-29.98 E928.21022
G1 X54.961 Y-29.632 E928.22841
G1 X54.961 Y29.632 E931.30825
G1 X54.915 Y29.981 E931.32655
G1 X54.865 Y30.129 E931.33466
G1 X54.794 Y30.273 E931.34301
G1 X54.703 Y30.41 E931.35155
G1 X54.569 Y30.555 E931.36182
G1 X54.438 Y30.663 E931.37064
G1 X54.307 Y30.746 E931.3787
G1 X54.04 Y30.854 E931.39367
G1 X53.693 Y30.9 E931.41186
G1 X-53.693 Y30.9 E936.9926
G0 F18000 X-53.499 Y30.209
; TYPE:FILL
G1 F2400 X-53.5 Y-30.208 E940.1324
G0 F18000 X-53 Y-30.208
G1 F2400 X-52.999 Y30.209 E943.27216
G0 F18000 X-52.499 Y30.209
G1 F2400 X-52.5 Y-30.208 E946.41197
G0 F18000 X-52 Y-30.208
G1 F2400 X-51.999 Y30.209 E949.55173
G0 F18000 X-51.499 Y30.209
G1 F2400 X-51.5 Y-30.208 E952.69154
G0 F18000 X-51 Y-30.208
G1 F2400 X-50.999 Y30.209 E955.83129
G0 F18000 X-50.499 Y30.209
G1 F2400 X-50.5 Y-30.208 E958.9711
G0 F18000 X-50 Y-30.208
G1 F2400 X-49.999 Y30.209 E962.11086
G0 F18000 X-49.499 Y30.209
G1 F2400 X-49.5 Y-30.208 E965.25067
G0 F18000 X-49 Y-30.208
G1 F2400 X-48.999 Y30.209 E968.39042
G0 F18000 X-48.499 Y30.209
G1 F2400 X-48.5 Y-30.208 E971.53023
G0 F18000 X-48 Y-30.208
G1 F2400 X-47.999 Y30.209 E974.66999
G0 F18000 X-47.499 Y30.209
G1 F2400 X-47.5 Y-30.208 E977.8098
G0 F18000 X-47 Y-30.208
G1 F2400 X-46.999 Y30.209 E980.94955
G0 F18000 X-46.499 Y30.209
G1 F2400 X-46.5 Y-30.208 E984.08936
G0 F18000 X-46 Y-30.208
G1 F2400 X-45.999 Y30.209 E987.22912
G0 F18000 X-45.499 Y30.209
G1 F2400 X-45.5 Y-30.208 E990.36893
G0 F18000 X-45 Y-30.208
G1 F2400 X-44.999 Y30.209 E993.50868
G0 F18000 X-44.499 Y30.209
G1 F2400 X-44.5 Y-30.208 E996.64849
G0 F18000 X-44 Y-30.208
G1 F2400 X-43.999 Y30.209 E999.78825
G0 F18000 X-43.499 Y30.209
G1 F2400 X-43.5 Y-30.208 E1002.92806
G0 F18000 X-43 Y-30.208
G1 F2400 X-42.999 Y30.209 E1006.06782
G0 F18000 X-42.499 Y30.209
G1 F2400 X-42.5 Y-30.208 E1009.20762
G0 F18000 X-42 Y-30.208
G1 F2400 X-41.999 Y30.209 E1012.34738
G0 F18000 X-41.499 Y30.209
G1 F2400 X-41.5 Y-30.208 E1015.48719
G0 F18000 X-41 Y-30.208
G1 F2400 X-40.999 Y30.209 E1018.62695
G0 F18000 X-40.499 Y30.209
G1 F2400 X-40.5 Y-30.208 E1021.76676
G0 F18000 X-40 Y-30.208
G1 F2400 X-39.999 Y30.209 E1024.90651
G0 F18000 X-39.499 Y30.209
G1 F2400 X-39.5 Y-30.208 E1028.04632
G0 F18000 X-39 Y-30.208
G1 F2400 X-38.999 Y30.209 E1031.18608
G0 F18000 X-38.499 Y30.209
G1 F2400 X-38.5 Y-30.208 E1034.32589
G0 F18000 X-38 Y-30.208
G1 F2400 X-37.999 Y30.209 E1037.46564
G0 F18000 X-37.499 Y30.209
G1 F2400 X-37.5 Y-30.208 E1040.60545
G0 F18000 X-37 Y-30.208
G1 F2400 X-36.999 Y30.209 E1043.74521
G0 F18000 X-36.499 Y30.209
G1 F2400 X-36.5 Y-30.208 E1046.88502
G0 F18000 X-36 Y-30.208
G1 F2400 X-35.999 Y30.209 E1050.02477
G0 F18000 X-35.499 Y30.209
G1 F2400 X-35.5 Y-30.208 E1053.16458
G0 F18000 X-35 Y-30.208
G1 F2400 X-34.999 Y30.209 E1056.30434
G0 F18000 X-34.499 Y30.209
G1 F2400 X-34.5 Y-30.208 E1059.44415
G0 F18000 X-34 Y-30.208
G1 F2400 X-33.999 Y30.209 E1062.5839
G0 F18000 X-33.499 Y30.209
G1 F2400 X-33.5 Y-30.208 E1065.72371
G0 F18000 X-33 Y-30.208
G1 F2400 X-32.999 Y30.209 E1068.86347
G0 F18000 X-32.499 Y30.209
G1 F2400 X-32.5 Y-30.208 E1072.00328
G0 F18000 X-32 Y-30.208
G1 F2400 X-31.999 Y30.209 E1075.14304
G0 F18000 X-31.499 Y30.209
G1 F2400 X-31.5 Y-30.208 E1078.28284
G0 F18000 X-31 Y-30.208
G1 F2400 X-30.999 Y30.209 E1081.4226
G0 F18000 X-30.499 Y30.209
G1 F2400 X-30.5 Y-30.208 E1084.56241
G0 F18000 X-30 Y-30.208
G1 F2400 X-29.999 Y30.209 E1087.70217
G0 F18000 X-29.499 Y30.209
G1 F2400 X-29.5 Y-30.208 E1090.84198
G0 F18000 X-29 Y-30.208
G1 F2400 X-28.999 Y30.209 E1093.98173
G0 F18000 X-28.499 Y30.209
G1 F2400 X-28.5 Y-30.208 E1097.12154
G0 F18000 X-28 Y-30.208
G1 F2400 X-27.999 Y30.209 E1100.2613
G0 F18000 X-27.499 Y30.209
G1 F2400 X-27.5 Y-30.208 E1103.40111
G0 F18000 X-27 Y-30.208
G1 F2400 X-26.999 Y30.209 E1106.54086
G0 F18000 X-26.499 Y30.209
G1 F2400 X-26.5 Y-30.208 E1109.68067
G0 F18000 X-26 Y-30.208
G1 F2400 X-25.999 Y30.209 E1112.82043
G0 F18000 X-25.499 Y30.209
G1 F2400 X-25.5 Y-30.208 E1115.96024
G0 F18000 X-25 Y-30.208
G1 F2400 X-24.999 Y30.209 E1119.09999
G0 F18000 X-24.499 Y30.209
G1 F2400 X-24.5 Y-30.208 E1122.2398
G0 F18000 X-24 Y-30.208
G1 F2400 X-23.999 Y30.209 E1125.37956
G0 F18000 X-23.499 Y30.209
G1 F2400 X-23.5 Y-30.208 E1128.51937
G0 F18000 X-23 Y-30.208
G1 F2400 X-22.999 Y30.209 E1131.65912
G0 F18000 X-22.499 Y30.209
G1 F2400 X-22.5 Y-30.208 E1134.79893
G0 F18000 X-22 Y-30.208
G1 F2400 X-21.999 Y30.209 E1137.93869
G0 F18000 X-21.499 Y30.209
G1 F2400 X-21.5 Y-30.208 E1141.0785
G0 F18000 X-21 Y-30.208
G1 F2400 X-20.999 Y30.209 E1144.21826
G0 F18000 X-20.499 Y30.209
G1 F2400 X-20.5 Y-30.208 E1147.35806
G0 F18000 X-20 Y-30.208
G1 F2400 X-19.999 Y30.209 E1150.49782
G0 F18000 X-19.499 Y30.209
G1 F2400 X-19.5 Y-30.208 E1153.63763
G0 F18000 X-19 Y-30.208
G1 F2400 X-18.999 Y30.209 E1156.77739
G0 F18000 X-18.499 Y30.209
G1 F2400 X-18.5 Y-30.208 E1159.9172
G0 F18000 X-18 Y-30.208
G1 F2400 X-17.999 Y30.209 E1163.05695
G0 F18000 X-17.499 Y30.209
G1 F2400 X-17.5 Y-30.208 E1166.19676
G0 F18000 X-17 Y-30.208
G1 F2400 X-16.999 Y30.209 E1169.33652
G0 F18000 X-16.499 Y30.209
G1 F2400 X-16.5 Y-30.208 E1172.47633
G0 F18000 X-16 Y-30.208
G1 F2400 X-15.999 Y30.209 E1175.61608
G0 F18000 X-15.499 Y30.209
G1 F2400 X-15.5 Y-30.208 E1178.75589
G0 F18000 X-15 Y-30.208
G1 F2400 X-14.999 Y30.209 E1181.89565
G0 F18000 X-14.499 Y30.209
G1 F2400 X-14.5 Y-30.209 E1185.03551
G0 F18000 X-14 Y-30.209
G1 F2400 X-13.999 Y30.209 E1188.17532
G0 F18000 X-13.499 Y30.209
G1 F2400 X-13.5 Y-30.209 E1191.31518
G0 F18000 X-13 Y-30.209
G1 F2400 X-12.999 Y30.209 E1194.45499
G0 F18000 X-12.499 Y30.209
G1 F2400 X-12.5 Y-30.209 E1197.59485
G0 F18000 X-12 Y-30.209
G1 F2400 X-11.999 Y30.209 E1200.73466
G0 F18000 X-11.499 Y30.209
G1 F2400 X-11.5 Y-30.209 E1203.87452
G0 F18000 X-11 Y-30.209
G1 F2400 X-10.999 Y30.209 E1207.01433
G0 F18000 X-10.499 Y30.209
G1 F2400 X-10.5 Y-30.209 E1210.15419
G0 F18000 X-10 Y-30.209
G1 F2400 X-9.999 Y30.209 E1213.294
G0 F18000 X-9.499 Y30.209
G1 F2400 X-9.5 Y-30.209 E1216.43386
G0 F18000 X-9 Y-30.209
G1 F2400 X-8.999 Y30.209 E1219.57367
G0 F18000 X-8.499 Y30.209
G1 F2400 X-8.5 Y-30.209 E1222.71353
G0 F18000 X-8 Y-30.209
G1 F2400 X-7.999 Y30.209 E1225.85333
G0 F18000 X-7.499 Y30.209
G1 F2400 X-7.5 Y-30.209 E1228.9932
G0 F18000 X-7 Y-30.209
G1 F2400 X-6.999 Y30.209 E1232.133
G0 F18000 X-6.499 Y30.209
G1 F2400 X-6.5 Y-30.209 E1235.27286
G0 F18000 X-6 Y-30.209
G1 F2400 X-5.999 Y30.209 E1238.41267
G0 F18000 X-5.499 Y30.209
G1 F2400 X-5.5 Y-30.209 E1241.55253
G0 F18000 X-5 Y-30.209
G1 F2400 X-4.999 Y30.209 E1244.69234
G0 F18000 X-4.499 Y30.209
G1 F2400 X-4.5 Y-30.209 E1247.8322
G0 F18000 X-4 Y-30.209
G1 F2400 X-3.999 Y30.209 E1250.97201
G0 F18000 X-3.499 Y30.209
G1 F2400 X-3.5 Y-30.209 E1254.11187
G0 F18000 X-3 Y-30.209
G1 F2400 X-2.999 Y30.209 E1257.25168
G0 F18000 X-2.499 Y30.209
G1 F2400 X-2.5 Y-30.209 E1260.39154
G0 F18000 X-2 Y-30.209
G1 F2400 X-1.999 Y30.209 E1263.53135
G0 F18000 X-1.499 Y30.209
G1 F2400 X-1.5 Y-30.209 E1266.67121
G0 F18000 X-1 Y-30.209
G1 F2400 X-0.999 Y30.209 E1269.81102
G0 F18000 X-0.499 Y30.209
G1 F2400 X-0.5 Y-30.209 E1272.95088
G0 F18000 X0 Y-30.208
G1 F2400 X0 Y30.209 E1276.09064
G0 F18000 X0.5 Y30.21
G1 F2400 X0.499 Y-30.208 E1279.2305
G0 F18000 X0.999 Y-30.208
G1 F2400 X1 Y30.21 E1282.37031
G0 F18000 X1.5 Y30.21
G1 F2400 X1.499 Y-30.208 E1285.51017
G0 F18000 X1.999 Y-30.208
G1 F2400 X2 Y30.21 E1288.64998
G0 F18000 X2.5 Y30.21
G1 F2400 X2.499 Y-30.208 E1291.78984
G0 F18000 X2.999 Y-30.208
G1 F2400 X3 Y30.21 E1294.92965
G0 F18000 X3.5 Y30.21
G1 F2400 X3.499 Y-30.208 E1298.06951
G0 F18000 X3.999 Y-30.208
G1 F2400 X4 Y30.21 E1301.20932
G0 F18000 X4.5 Y30.21
G1 F2400 X4.499 Y-30.208 E1304.34918
G0 F18000 X4.999 Y-30.208
G1 F2400 X5 Y30.21 E1307.48898
G0 F18000 X5.5 Y30.21
G1 F2400 X5.499 Y-30.208 E1310.62885
G0 F18000 X5.999 Y-30.208
G1 F2400 X6 Y30.21 E1313.76865
G0 F18000 X6.5 Y30.21
G1 F2400 X6.499 Y-30.208 E1316.90851
G0 F18000 X6.999 Y-30.208
G1 F2400 X7 Y30.21 E1320.04832
G0 F18000 X7.5 Y30.21
G1 F2400 X7.499 Y-30.208 E1323.18818
G0 F18000 X7.999 Y-30.208
G1 F2400 X8 Y30.21 E1326.32799
G0 F18000 X8.5 Y30.21
G1 F2400 X8.499 Y-30.208 E1329.46785
G0 F18000 X8.999 Y-30.208
G1 F2400 X9 Y30.21 E1332.60766
G0 F18000 X9.5 Y30.21
G1 F2400 X9.499 Y-30.208 E1335.74752
G0 F18000 X9.999 Y-30.208
G1 F2400 X10 Y30.21 E1338.88733
G0 F18000 X10.5 Y30.21
G1 F2400 X10.499 Y-30.208 E1342.02719
G0 F18000 X10.999 Y-30.208
G1 F2400 X11 Y30.21 E1345.167
G0 F18000 X11.5 Y30.21
G1 F2400 X11.499 Y-30.208 E1348.30686
G0 F18000 X11.999 Y-30.208
G1 F2400 X12 Y30.21 E1351.44667
G0 F18000 X12.5 Y30.21
G1 F2400 X12.499 Y-30.208 E1354.58653
G0 F18000 X12.999 Y-30.208
G1 F2400 X13 Y30.21 E1357.72634
G0 F18000 X13.5 Y30.21
G1 F2400 X13.499 Y-30.208 E1360.8662
G0 F18000 X13.999 Y-30.208
G1 F2400 X14 Y30.21 E1364.00601
G0 F18000 X14.5 Y30.21
G1 F2400 X14.499 Y-30.208 E1367.14587
G0 F18000 X14.999 Y-30.208
G1 F2400 X15 Y30.209 E1370.28563
G0 F18000 X15.5 Y30.209
G1 F2400 X15.499 Y-30.208 E1373.42544
G0 F18000 X15.999 Y-30.208
G1 F2400 X16 Y30.209 E1376.56519
G0 F18000 X16.5 Y30.209
G1 F2400 X16.499 Y-30.208 E1379.705
G0 F18000 X16.999 Y-30.208
G1 F2400 X17 Y30.209 E1382.84476
G0 F18000 X17.5 Y30.209
G1 F2400 X17.499 Y-30.208 E1385.98457
G0 F18000 X17.999 Y-30.208
G1 F2400 X18 Y30.209 E1389.12432
G0 F18000 X18.5 Y30.209
G1 F2400 X18.499 Y-30.208 E1392.26413
G0 F18000 X18.999 Y-30.208
G1 F2400 X19 Y30.209 E1395.40389
G0 F18000 X19.5 Y30.209
G1 F2400 X19.499 Y-30.208 E1398.5437
G0 F18000 X19.999 Y-30.208
G1 F2400 X20 Y30.209 E1401.68345
G0 F18000 X20.5 Y30.209
G1 F2400 X20.499 Y-30.208 E1404.82326
G0 F18000 X20.999 Y-30.208
G1 F2400 X21 Y30.209 E1407.96302
G0 F18000 X21.5 Y30.209
G1 F2400 X21.499 Y-30.208 E1411.10283
G0 F18000 X21.999 Y-30.208
G1 F2400 X22 Y30.209 E1414.24259
G0 F18000 X22.5 Y30.209
G1 F2400 X22.499 Y-30.208 E1417.38239
G0 F18000 X22.999 Y-30.208
G1 F2400 X23 Y30.209 E1420.52215
G0 F18000 X23.5 Y30.209
G1 F2400 X23.499 Y-30.208 E1423.66196
G0 F18000 X23.999 Y-30.208
G1 F2400 X24 Y30.209 E1426.80172
G0 F18000 X24.5 Y30.209
G1 F2400 X24.499 Y-30.208 E1429.94152
G0 F18000 X24.999 Y-30.208
G1 F2400 X25 Y30.209 E1433.08128
G0 F18000 X25.5 Y30.209
G1 F2400 X25.499 Y-30.208 E1436.22109
G0 F18000 X25.999 Y-30.208
G1 F2400 X26 Y30.209 E1439.36085
G0 F18000 X26.5 Y30.209
G1 F2400 X26.499 Y-30.208 E1442.50066
G0 F18000 X26.999 Y-30.208
G1 F2400 X27 Y30.209 E1445.64041
G0 F18000 X27.5 Y30.209
G1 F2400 X27.499 Y-30.208 E1448.78022
G0 F18000 X27.999 Y-30.208
G1 F2400 X28 Y30.209 E1451.91998
G0 F18000 X28.5 Y30.209
G1 F2400 X28.499 Y-30.208 E1455.05979
G0 F18000 X28.999 Y-30.208
G1 F2400 X29 Y30.209 E1458.19954
G0 F18000 X29.5 Y30.209
G1 F2400 X29.499 Y-30.208 E1461.33935
G0 F18000 X29.999 Y-30.208
G1 F2400 X30 Y30.209 E1464.47911
G0 F18000 X30.5 Y30.209
G1 F2400 X30.499 Y-30.208 E1467.61892
G0 F18000 X30.999 Y-30.208
G1 F2400 X31 Y30.209 E1470.75867
G0 F18000 X31.5 Y30.209
G1 F2400 X31.499 Y-30.208 E1473.89848
G0 F18000 X31.999 Y-30.208
G1 F2400 X32 Y30.209 E1477.03824
G0 F18000 X32.5 Y30.209
G1 F2400 X32.499 Y-30.208 E1480.17805
G0 F18000 X32.999 Y-30.208
G1 F2400 X33 Y30.209 E1483.31781
G0 F18000 X33.5 Y30.209
G1 F2400 X33.499 Y-30.208 E1486.45761
G0 F18000 X33.999 Y-30.208
G1 F2400 X34 Y30.209 E1489.59737
G0 F18000 X34.5 Y30.209
G1 F2400 X34.499 Y-30.208 E1492.73718
G0 F18000 X34.999 Y-30.208
G1 F2400 X35 Y30.209 E1495.87694
G0 F18000 X35.5 Y30.209
G1 F2400 X35.499 Y-30.208 E1499.01674
G0 F18000 X35.999 Y-30.208
G1 F2400 X36 Y30.209 E1502.1565
G0 F18000 X36.5 Y30.209
G1 F2400 X36.499 Y-30.208 E1505.29631
G0 F18000 X36.999 Y-30.208
G1 F2400 X37 Y30.209 E1508.43607
G0 F18000 X37.5 Y30.209
G1 F2400 X37.499 Y-30.208 E1511.57588
G0 F18000 X37.999 Y-30.208
G1 F2400 X38 Y30.209 E1514.71563
G0 F18000 X38.5 Y30.209
G1 F2400 X38.499 Y-30.208 E1517.85544
G0 F18000 X38.999 Y-30.208
G1 F2400 X39 Y30.209 E1520.9952
G0 F18000 X39.5 Y30.209
G1 F2400 X39.499 Y-30.208 E1524.13501
G0 F18000 X39.999 Y-30.208
G1 F2400 X40 Y30.209 E1527.27476
G0 F18000 X40.5 Y30.209
G1 F2400 X40.499 Y-30.208 E1530.41457
G0 F18000 X40.999 Y-30.208
G1 F2400 X41 Y30.209 E1533.55433
G0 F18000 X41.5 Y30.209
G1 F2400 X41.499 Y-30.208 E1536.69414
G0 F18000 X41.999 Y-30.208
G1 F2400 X42 Y30.209 E1539.83389
G0 F18000 X42.5 Y30.209
G1 F2400 X42.499 Y-30.208 E1542.9737
G0 F18000 X42.999 Y-30.208
G1 F2400 X43 Y30.209 E1546.11346
G0 F18000 X43.5 Y30.209
G1 F2400 X43.499 Y-30.208 E1549.25327
G0 F18000 X43.999 Y-30.208
G1 F2400 X44 Y30.209 E1552.39303
G0 F18000 X44.5 Y30.209
G1 F2400 X44.499 Y-30.208 E1555.53283
G0 F18000 X44.999 Y-30.208
G1 F2400 X45 Y30.209 E1558.67259
G0 F18000 X45.5 Y30.209
G1 F2400 X45.499 Y-30.208 E1561.8124
G0 F18000 X45.999 Y-30.208
G1 F2400 X46 Y30.209 E1564.95216
G0 F18000 X46.5 Y30.209
G1 F2400 X46.499 Y-30.208 E1568.09197
G0 F18000 X46.999 Y-30.208
G1 F2400 X47 Y30.209 E1571.23172
G0 F18000 X47.5 Y30.209
G1 F2400 X47.499 Y-30.208 E1574.37153
G0 F18000 X47.999 Y-30.208
G1 F2400 X48 Y30.209 E1577.51129
G0 F18000 X48.5 Y30.209
G1 F2400 X48.499 Y-30.208 E1580.6511
G0 F18000 X48.999 Y-30.208
G1 F2400 X49 Y30.209 E1583.79085
G0 F18000 X49.5 Y30.209
G1 F2400 X49.499 Y-30.208 E1586.93066
G0 F18000 X49.999 Y-30.208
G1 F2400 X50 Y30.209 E1590.07042
G0 F18000 X50.5 Y30.209
G1 F2400 X50.499 Y-30.208 E1593.21023
G0 F18000 X50.999 Y-30.208
G1 F2400 X51 Y30.209 E1596.34998
G0 F18000 X51.5 Y30.209
G1 F2400 X51.499 Y-30.208 E1599.48979
G0 F18000 X51.999 Y-30.208
G1 F2400 X52 Y30.209 E1602.62955
G0 F18000 X52.5 Y30.209
G1 F2400 X52.499 Y-30.208 E1605.76936
G0 F18000 X52.999 Y-30.208
G1 F2400 X53 Y30.209 E1608.90911
G0 F18000 X53.5 Y30.209
G1 F2400 X53.499 Y-30.208 E1612.04892
G0 F18000 X53.999 Y-30.122
G1 F2400 X54 Y30.119 E1615.17953
G0 F18000 X-53.999 Y30.122
G0 X-53.999 Y30.122
G1 F2400 X-54 Y-30.118 E1618.31014
; LAYER:2
M106 S153
G0 F18000 X-54.054 Y-30.31 Z0.8
; TYPE:WALL-INNER
G1 F2400 X-53.928 Y-30.363 E1618.31722
G1 X-53.658 Y-30.399 E1618.33133
G1 X53.659 Y-30.399 E1623.90843
G1 X53.918 Y-30.365 E1623.922
G1 X54.112 Y-30.277 E1623.93305
G1 X54.281 Y-30.128 E1623.94473
G1 X54.402 Y-29.937 E1623.95643
G1 X54.45 Y-29.683 E1623.96981
G1 X54.461 Y-29.598 E1623.97422
G1 X54.461 Y29.598 E1627.05052
G1 X54.425 Y29.87 E1627.06478
G1 X54.36 Y30.023 E1627.07342
G1 X54.21 Y30.204 E1627.08563
G1 X54.055 Y30.311 E1627.09542
G1 X53.929 Y30.364 E1627.10253
G1 X53.659 Y30.4 E1627.11668
G1 X-53.658 Y30.4 E1632.69383
G1 X-53.917 Y30.366 E1632.70746
G1 X-54.111 Y30.278 E1632.71858
G1 X-54.28 Y30.129 E1632.73033
G1 X-54.401 Y29.938 E1632.74211
G1 X-54.424 Y29.87 E1632.74585
G1 X-54.46 Y29.598 E1632.76012
G1 X-54.46 Y-29.597 E1635.83642
G1 X-54.424 Y-29.869 E1635.85073
G1 X-54.368 Y-30.005 E1635.8584
G1 X-54.263 Y-30.146 E1635.86754
G1 X-54.054 Y-30.31 E1635.88134
G0 F18000 X-54.286 Y-30.755
; TYPE:WALL-OUTER
G1 F2100 X-54.039 Y-30.853 E1635.89512
G1 X-53.692 Y-30.899 E1635.91327
G1 X53.693 Y-30.899 E1641.4939
G1 X54.039 Y-30.854 E1641.51203
G1 X54.238 Y-30.779 E1641.52306
G1 X54.379 Y-30.701 E1641.53141
G1 X54.511 Y-30.604 E1641.5399
G1 X54.667 Y-30.448 E1641.55132
G1 X54.795 Y-30.27 E1641.56268
G1 X54.865 Y-30.128 E1641.57086
G1 X54.915 Y-29.98 E1641.57893
G1 X54.961 Y-29.631 E1641.59717
G1 X54.961 Y29.632 E1644.67695
G1 X54.915 Y29.981 E1644.69525
G1 X54.865 Y30.129 E1644.70337
G1 X54.794 Y30.273 E1644.71171
G1 X54.703 Y30.409 E1644.72021
G1 X54.551 Y30.571 E1644.73176
G1 X54.426 Y30.671 E1644.74008
G1 X54.288 Y30.755 E1644.74847
G1 X54.04 Y30.854 E1644.76235
G1 X53.693 Y30.9 E1644.78054
G1 X-53.692 Y30.9 E1650.36123
G1 X-54.038 Y30.855 E1650.37941
G1 X-54.237 Y30.78 E1650.39051
G1 X-54.378 Y30.702 E1650.39893
G1 X-54.51 Y30.605 E1650.40749
G1 X-54.666 Y30.449 E1650.41899
G1 X-54.794 Y30.271 E1650.43041
G1 X-54.864 Y30.129 E1650.43866
G1 X-54.914 Y29.981 E1650.4468
G1 X-54.96 Y29.632 E1650.4651
G1 X-54.96 Y-29.631 E1653.54494
G1 X-54.914 Y-29.98 E1653.56328
G1 X-54.864 Y-30.128 E1653.57143
G1 X-54.795 Y-30.267 E1653.57952
G1 X-54.63 Y-30.49 E1653.59394
G1 X-54.419 Y-30.674 E1653.60849
G1 X-54.286 Y-30.755 E1653.61656
G0 F18000 X-54.134 Y-29.999
; TYPE:FILL
G1 F2400 X54.136 Y-30 E1659.24319
G0 F18000 X54.271 Y-29.5
G1 F2400 X-54.27 Y-29.499 E1664.88395
G0 F18000 X-54.27 Y-28.999
G1 F2400 X54.271 Y-29 E1670.52466
G0 F18000 X54.271 Y-28.5
G1 F2400 X-54.27 Y-28.499 E1676.16543
G0 F18000 X-54.27 Y-27.999
G1 F2400 X54.271 Y-28 E1681.80614
G0 F18000 X54.271 Y-27.5
G1 F2400 X-54.27 Y-27.499 E1687.4469
G0 F18000 X-54.27 Y-26.999
G1 F2400 X54.271 Y-27 E1693.08761
G0 F18000 X54.271 Y-26.5
G1 F2400 X-54.27 Y-26.499 E1698.72838
G0 F18000 X-54.27 Y-25.999
G1 F2400 X54.271 Y-26 E1704.36909
G0 F18000 X54.271 Y-25.5
G1 F2400 X-54.27 Y-25.499 E1710.00985
G0 F18000 X-54.27 Y-24.999
G1 F2400 X54.271 Y-25 E1715.65056
G0 F18000 X54.271 Y-24.5
G1 F2400 X-54.27 Y-24.499 E1721.29132
G0 F18000 X-54.27 Y-23.999
G1 F2400 X54.271 Y-24 E1726.93203
G0 F18000 X54.271 Y-23.5
G1 F2400 X-54.27 Y-23.499 E1732.5728
G0 F18000 X-54.27 Y-22.999
G1 F2400 X54.271 Y-23 E1738.21351
G0 F18000 X54.271 Y-22.5
G1 F2400 X-54.27 Y-22.499 E1743.85427
G0 F18000 X-54.27 Y-21.999
G1 F2400 X54.271 Y-22 E1749.49498
G0 F18000 X54.271 Y-21.5
G1 F2400 X-54.27 Y-21.499 E1755.13575
G0 F18000 X-54.27 Y-20.999
G1 F2400 X54.271 Y-21 E1760.77646
G0 F18000 X54.271 Y-20.5
G1 F2400 X-54.27 Y-20.499 E1766.41722
G0 F18000 X-54.27 Y-19.999
G1 F2400 X54.271 Y-20 E1772.05793
G0 F18000 X54.271 Y-19.5
G1 F2400 X-54.27 Y-19.499 E1777.69869
G0 F18000 X-54.27 Y-18.999
G1 F2400 X54.271 Y-19 E1783.33941
G0 F18000 X54.271 Y-18.5
G1 F2400 X-54.27 Y-18.499 E1788.98017
G0 F18000 X-54.27 Y-17.999
G1 F2400 X54.271 Y-18 E1794.62088
G0 F18000 X54.271 Y-17.5
G1 F2400 X-54.27 Y-17.499 E1800.26164
G0 F18000 X-54.27 Y-16.999
G1 F2400 X54.271 Y-17 E1805.90235
G0 F18000 X54.271 Y-16.5
G1 F2400 X-54.27 Y-16.499 E1811.54312
G0 F18000 X-54.27 Y-15.999
G1 F2400 X54.271 Y-16 E1817.18383
G0 F18000 X54.271 Y-15.5
G1 F2400 X-54.27 Y-15.499 E1822.82459
G0 F18000 X-54.27 Y-14.999
G1 F2400 X54.271 Y-15 E1828.4653
G0 F18000 X54.271 Y-14.5
G1 F2400 X-54.27 Y-14.499 E1834.10606
G0 F18000 X-54.27 Y-13.999
G1 F2400 X54.271 Y-14 E1839.74678
G0 F18000 X54.271 Y-13.5
G1 F2400 X-54.27 Y-13.499 E1845.38754
G0 F18000 X-54.27 Y-12.999
G1 F2400 X54.271 Y-13 E1851.02825
G0 F18000 X54.271 Y-12.5
G1 F2400 X-54.27 Y-12.499 E1856.66901
G0 F18000 X-54.27 Y-11.999
G1 F2400 X54.271 Y-12 E1862.30972
G0 F18000 X54.271 Y-11.5
G1 F2400 X-54.27 Y-11.499 E1867.95049
G0 F18000 X-54.27 Y-10.999
G1 F2400 X54.271 Y-11 E1873.5912
G0 F18000 X54.271 Y-10.5
G1 F2400 X-54.27 Y-10.499 E1879.23196
G0 F18000 X-54.27 Y-9.999
G1 F2400 X54.271 Y-10 E1884.87267
G0 F18000 X54.271 Y-9.5
G1 F2400 X-54.27 Y-9.499 E1890.51343
G0 F18000 X-54.27 Y-8.999
G1 F2400 X54.271 Y-9 E1896.15415
G0 F18000 X54.271 Y-8.5
G1 F2400 X-54.27 Y-8.499 E1901.79491
G0 F18000 X-54.27 Y-7.999
G1 F2400 X54.271 Y-8 E1907.43562
G0 F18000 X54.271 Y-7.5
G1 F2400 X-54.27 Y-7.499 E1913.07638
G0 F18000 X-54.27 Y-6.999
G1 F2400 X54.271 Y-7 E1918.71709
G0 F18000 X54.271 Y-6.5
G1 F2400 X-54.27 Y-6.499 E1924.35786
G0 F18000 X-54.27 Y-5.999
G1 F2400 X54.271 Y-6 E1929.99857
G0 F18000 X54.271 Y-5.5
G1 F2400 X-54.27 Y-5.499 E1935.63933
G0 F18000 X-54.27 Y-4.999
G1 F2400 X54.271 Y-5 E1941.28004
G0 F18000 X54.271 Y-4.5
G1 F2400 X-54.27 Y-4.499 E1946.9208
G0 F18000 X-54.27 Y-3.999
G1 F2400 X54.271 Y-4 E1952.56152
G0 F18000 X54.271 Y-3.5
G1 F2400 X-54.27 Y-3.499 E1958.20228
G0 F18000 X-54.27 Y-2.999
G1 F2400 X54.271 Y-3 E1963.84299
G0 F18000 X54.271 Y-2.5
G1 F2400 X-54.27 Y-2.499 E1969.48375
G0 F18000 X-54.27 Y-1.999
G1 F2400 X54.271 Y-2 E1975.12446
G0 F18000 X54.271 Y-1.5
G1 F2400 X-54.27 Y-1.499 E1980.76523
G0 F18000 X-54.27 Y-0.999
G1 F2400 X54.271 Y-1 E1986.40594
G0 F18000 X54.271 Y-0.5
G1 F2400 X-54.27 Y-0.499 E1992.0467
G0 F18000 X-54.27 Y0
G1 F2400 X54.271 Y0 E1997.68741
G0 F18000 X54.271 Y0.499
G1 F2400 X-54.27 Y0.5 E2003.32817
G0 F18000 X-54.27 Y1
G1 F2400 X54.271 Y0.999 E2008.96889
G0 F18000 X54.271 Y1.499
G1 F2400 X-54.27 Y1.5 E2014.60965
G0 F18000 X-54.27 Y2
G1 F2400 X54.271 Y1.999 E2020.25036
G0 F18000 X54.271 Y2.499
G1 F2400 X-54.27 Y2.5 E2025.89112
G0 F18000 X-54.27 Y3
G1 F2400 X54.271 Y2.999 E2031.53183
G0 F18000 X54.271 Y3.499
G1 F2400 X-54.27 Y3.5 E2037.1726
G0 F18000 X-54.27 Y4
G1 F2400 X54.271 Y3.999 E2042.81331
G0 F18000 X54.271 Y4.499
G1 F2400 X-54.27 Y4.5 E2048.45407
G0 F18000 X-54.27 Y5
G1 F2400 X54.271 Y4.999 E2054.09478
G0 F18000 X54.271 Y5.499
G1 F2400 X-54.27 Y5.5 E2059.73554
G0 F18000 X-54.27 Y6
G1 F2400 X54.271 Y5.999 E2065.37626
G0 F18000 X54.271 Y6.499
G1 F2400 X-54.27 Y6.5 E2071.01702
G0 F18000 X-54.27 Y7
G1 F2400 X54.271 Y6.999 E2076.65773
G0 F18000 X54.271 Y7.499
G1 F2400 X-54.27 Y7.5 E2082.29849
G0 F18000 X-54.27 Y8
G1 F2400 X54.271 Y7.999 E2087.9392
G0 F18000 X54.271 Y8.499
G1 F2400 X-54.27 Y8.5 E2093.57997
G0 F18000 X-54.27 Y9
G1 F2400 X54.271 Y8.999 E2099.22068
G0 F18000 X54.271 Y9.499
G1 F2400 X-54.27 Y9.5 E2104.86144
G0 F18000 X-54.27 Y10
G1 F2400 X54.271 Y9.999 E2110.50215
G0 F18000 X54.271 Y10.499
G1 F2400 X-54.27 Y10.5 E2116.14291
G0 F18000 X-54.27 Y11
G1 F2400 X54.271 Y10.999 E2121.78363
G0 F18000 X54.271 Y11.499
G1 F2400 X-54.27 Y11.5 E2127.42439
G0 F18000 X-54.27 Y12
G1 F2400 X54.271 Y11.999 E2133.0651
G0 F18000 X54.271 Y12.499
G1 F2400 X-54.27 Y12.5 E2138.70586
G0 F18000 X-54.27 Y13
G1 F2400 X54.271 Y12.999 E2144.34657
G0 F18000 X54.271 Y13.499
G1 F2400 X-54.27 Y13.5 E2149.98734
G0 F18000 X-54.27 Y14
G1 F2400 X54.271 Y13.999 E2155.62805
G0 F18000 X54.271 Y14.499
G1 F2400 X-54.27 Y14.5 E2161.26881
G0 F18000 X-54.27 Y15
G1 F2400 X54.271 Y14.999 E2166.90952
G0 F18000 X54.271 Y15.499
G1 F2400 X-54.27 Y15.5 E2172.55028
G0 F18000 X-54.27 Y16
G1 F2400 X54.271 Y15.999 E2178.191
G0 F18000 X54.271 Y16.499
G1 F2400 X-54.27 Y16.5 E2183.83176
G0 F18000 X-54.27 Y17
G1 F2400 X54.271 Y16.999 E2189.47247
G0 F18000 X54.271 Y17.499
G1 F2400 X-54.27 Y17.5 E2195.11323
G0 F18000 X-54.27 Y18
G1 F2400 X54.271 Y17.999 E2200.75394
G0 F18000 X54.271 Y18.499
G1 F2400 X-54.27 Y18.5 E2206.39471
G0 F18000 X-54.27 Y19
G1 F2400 X54.271 Y18.999 E2212.03542
G0 F18000 X54.271 Y19.499
G1 F2400 X-54.27 Y19.5 E2217.67618
G0 F18000 X-54.27 Y20
G1 F2400 X54.271 Y19.999 E2223.31689
G0 F18000 X54.271 Y20.499
G1 F2400 X-54.27 Y20.5 E2228.95766
G0 F18000 X-54.27 Y21
G1 F2400 X54.271 Y20.999 E2234.59837
G0 F18000 X54.271 Y21.499
G1 F2400 X-54.27 Y21.5 E2240.23913
G0 F18000 X-54.27 Y22
G1 F2400 X54.271 Y21.999 E2245.87984
G0 F18000 X54.271 Y22.499
G1 F2400 X-54.27 Y22.5 E2251.5206
G0 F18000 X-54.27 Y23
G1 F2400 X54.271 Y22.999 E2257.16131
G0 F18000 X54.271 Y23.499
G1 F2400 X-54.27 Y23.5 E2262.80208
G0 F18000 X-54.27 Y24
G1 F2400 X54.271 Y23.999 E2268.44279
G0 F18000 X54.271 Y24.499
G1 F2400 X-54.27 Y24.5 E2274.08355
G0 F18000 X-54.27 Y25
G1 F2400 X54.271 Y24.999 E2279.72426
G0 F18000 X54.271 Y25.499
G1 F2400 X-54.27 Y25.5 E2285.36503
G0 F18000 X-54.27 Y26
G1 F2400 X54.271 Y25.999 E2291.00574
G0 F18000 X54.271 Y26.499
G1 F2400 X-54.27 Y26.5 E2296.6465
G0 F18000 X-54.27 Y27
G1 F2400 X54.271 Y26.999 E2302.28721
G0 F18000 X54.271 Y27.499
G1 F2400 X-54.27 Y27.5 E2307.92797
G0 F18000 X-54.27 Y28
G1 F2400 X54.271 Y27.999 E2313.56868
G0 F18000 X54.271 Y28.499
G1 F2400 X-54.27 Y28.5 E2319.20945
G0 F18000 X-54.27 Y29
G1 F2400 X54.271 Y28.999 E2324.85016
G0 F18000 X54.271 Y29.499
G1 F2400 X-54.27 Y29.5 E2330.49092
G0 F18000 X-54.137 Y30
G1 F2400 X54.132 Y29.999 E2336.1175
; LAYER:3
G0 F18000 X54.302 Y30.105 Z1.05
; TYPE:WALL-INNER
G1 F2400 X54.205 Y30.207 E2336.12481
G1 X54.085 Y30.295 E2336.13255
G1 X53.927 Y30.365 E2336.14153
G1 X53.659 Y30.4 E2336.15557
G1 X-53.658 Y30.4 E2341.73273
G1 X-53.912 Y30.367 E2341.74609
G1 X-54.035 Y30.319 E2341.753
G1 X-54.165 Y30.24 E2341.76095
G1 X-54.272 Y30.137 E2341.7687
G1 X-54.355 Y30.024 E2341.77602
G1 X-54.425 Y29.864 E2341.78512
G1 X-54.46 Y29.598 E2341.79907
G1 X-54.46 Y-29.597 E2344.87537
G1 X-54.426 Y-29.852 E2344.88878
G1 X-54.376 Y-29.981 E2344.896
G1 X-54.302 Y-30.101 E2344.90335
G1 X-54.202 Y-30.207 E2344.91092
G1 X-54.084 Y-30.294 E2344.91853
G1 X-53.926 Y-30.364 E2344.92749
G1 X-53.658 Y-30.399 E2344.94149
G1 X53.659 Y-30.399 E2350.51859
G1 X53.913 Y-30.366 E2350.53189
G1 X54.035 Y-30.319 E2350.53867
G1 X54.166 Y-30.239 E2350.54662
G1 X54.273 Y-30.136 E2350.5543
G1 X54.356 Y-30.023 E2350.56155
G1 X54.426 Y-29.863 E2350.57058
G1 X54.461 Y-29.6 E2350.58431
G1 X54.461 Y29.598 E2353.66072
G1 X54.427 Y29.853 E2353.67409
G1 X54.377 Y29.982 E2353.68128
G1 X54.302 Y30.105 E2353.68876
G0 F18000 X54.702 Y30.41
; TYPE:WALL-OUTER
G1 F2100 X54.537 Y30.583 E2353.70119
G1 X54.338 Y30.73 E2353.71405
G1 X54.042 Y30.854 E2353.73072
G1 X53.693 Y30.9 E2353.74902
G1 X-53.692 Y30.9 E2359.32971
G1 X-54.038 Y30.855 E2359.34789
G1 X-54.254 Y30.771 E2359.35998
G1 X-54.471 Y30.64 E2359.3732
G1 X-54.648 Y30.469 E2359.38603
G1 X-54.792 Y30.272 E2359.39874
G1 X-54.914 Y29.981 E2359.41516
G1 X-54.96 Y29.632 E2359.43346
G1 X-54.96 Y-29.631 E2362.5133
G1 X-54.915 Y-29.974 E2362.53132
G1 X-54.823 Y-30.21 E2362.54451
G1 X-54.703 Y-30.406 E2362.55647
G1 X-54.537 Y-30.581 E2362.56901
G1 X-54.333 Y-30.73 E2362.58213
G1 X-54.041 Y-30.853 E2362.59857
G1 X-53.692 Y-30.899 E2362.61682
G1 X53.693 Y-30.899 E2368.19745
G1 X54.039 Y-30.854 E2368.21558
G1 X54.255 Y-30.77 E2368.2276
G1 X54.472 Y-30.639 E2368.24075
G1 X54.649 Y-30.468 E2368.2535
G1 X54.793 Y-30.271 E2368.26614
G1 X54.915 Y-29.98 E2368.28249
G1 X54.961 Y-29.631 E2368.30073
G1 X54.961 Y29.632 E2371.38052
G1 X54.916 Y29.975 E2371.3985
G1 X54.824 Y30.211 E2371.41166
G1 X54.702 Y30.41 E2371.42379
G0 F18000 X54 Y30.118
; TYPE:FILL
G1 F2400 X53.999 Y-30.113 E2374.55393
G0 F18000 X53.499 Y-30.208
G1 F2400 X53.5 Y30.209 E2377.69369
G0 F18000 X53 Y30.209
G1 F2400 X52.999 Y-30.208 E2380.8335
G0 F18000 X52.499 Y-30.208
G1 F2400 X52.5 Y30.209 E2383.97326
G0 F18000 X52 Y30.209
G1 F2400 X51.999 Y-30.208 E2387.11306
G0 F18000 X51.499 Y-30.208
G1 F2400 X51.5 Y30.209 E2390.25282
G0 F18000 X51 Y30.209
G1 F2400 X50.999 Y-30.208 E2393.39263
G0 F18000 X50.499 Y-30.208
G1 F2400 X50.5 Y30.209 E2396.53239
G0 F18000 X50 Y30.209
G1 F2400 X49.999 Y-30.208 E2399.6722
G0 F18000 X49.499 Y-30.208
G1 F2400 X49.5 Y30.209 E2402.81195
G0 F18000 X49 Y30.209
G1 F2400 X48.999 Y-30.208 E2405.95176
G0 F18000 X48.499 Y-30.208
G1 F2400 X48.5 Y30.209 E2409.09152
G0 F18000 X48 Y30.209
G1 F2400 X47.999 Y-30.208 E2412.23133
G0 F18000 X47.499 Y-30.208
G1 F2400 X47.5 Y30.209 E2415.37108
G0 F18000 X47 Y30.209
G1 F2400 X46.999 Y-30.208 E2418.51089
G0 F18000 X46.499 Y-30.208
G1 F2400 X46.5 Y30.209 E2421.65065
G0 F18000 X46 Y30.209
G1 F2400 X45.999 Y-30.208 E2424.79046
G0 F18000 X45.499 Y-30.208
G1 F2400 X45.5 Y30.209 E2427.93021
G0 F18000 X45 Y30.209
G1 F2400 X44.999 Y-30.208 E2431.07002
G0 F18000 X44.499 Y-30.208
G1 F2400 X44.5 Y30.209 E2434.20978
G0 F18000 X44 Y30.209
G1 F2400 X43.999 Y-30.208 E2437.34959
G0 F18000 X43.499 Y-30.208
G1 F2400 X43.5 Y30.209 E2440.48934
G0 F18000 X43 Y30.209
G1 F2400 X42.999 Y-30.208 E2443.62915
G0 F18000 X42.499 Y-30.208
G1 F2400 X42.5 Y30.209 E2446.76891
G0 F18000 X42 Y30.209
G1 F2400 X41.999 Y-30.208 E2449.90872
G0 F18000 X41.499 Y-30.208
G1 F2400 X41.5 Y30.209 E2453.04848
G0 F18000 X41 Y30.209
G1 F2400 X40.999 Y-30.208 E2456.18828
G0 F18000 X40.499 Y-30.208
G1 F2400 X40.5 Y30.209 E2459.32804
G0 F18000 X40 Y30.209
G1 F2400 X39.999 Y-30.208 E2462.46785
G0 F18000 X39.499 Y-30.208
G1 F2400 X39.5 Y30.209 E2465.60761
G0 F18000 X39 Y30.209
G1 F2400 X38.999 Y-30.208 E2468.74742
G0 F18000 X38.499 Y-30.208
G1 F2400 X38.5 Y30.209 E2471.88717
G0 F18000 X38 Y30.209
G1 F2400 X37.999 Y-30.208 E2475.02698
G0 F18000 X37.499 Y-30.208
G1 F2400 X37.5 Y30.209 E2478.16674
G0 F18000 X37 Y30.209
G1 F2400 X36.999 Y-30.208 E2481.30655
G0 F18000 X36.499 Y-30.208
G1 F2400 X36.5 Y30.209 E2484.4463
G0 F18000 X36 Y30.209
G1 F2400 X35.999 Y-30.208 E2487.58611
G0 F18000 X35.499 Y-30.208
G1 F2400 X35.5 Y30.209 E2490.72587
G0 F18000 X35 Y30.209
G1 F2400 X34.999 Y-30.208 E2493.86568
G0 F18000 X34.499 Y-30.208
G1 F2400 X34.5 Y30.209 E2497.00543
G0 F18000 X34 Y30.209
G1 F2400 X33.999 Y-30.208 E2500.14524
G0 F18000 X33.499 Y-30.208
G1 F2400 X33.5 Y30.209 E2503.285
G0 F18000 X33 Y30.209
G1 F2400 X32.999 Y-30.208 E2506.42481
G0 F18000 X32.499 Y-30.208
G1 F2400 X32.5 Y30.209 E2509.56457
G0 F18000 X32 Y30.209
G1 F2400 X31.999 Y-30.208 E2512.70437
G0 F18000 X31.499 Y-30.208
G1 F2400 X31.5 Y30.209 E2515.84413
G0 F18000 X31 Y30.209
G1 F2400 X30.999 Y-30.208 E2518.98394
G0 F18000 X30.499 Y-30.208
G1 F2400 X30.5 Y30.209 E2522.1237
G0 F18000 X30 Y30.209
G1 F2400 X29.999 Y-30.208 E2525.2635
G0 F18000 X29.499 Y-30.208
G1 F2400 X29.5 Y30.209 E2528.40326
G0 F18000 X29 Y30.209
G1 F2400 X28.999 Y-30.208 E2531.54307
G0 F18000 X28.499 Y-30.208
G1 F2400 X28.5 Y30.209 E2534.68283
G0 F18000 X28 Y30.209
G1 F2400 X27.999 Y-30.208 E2537.82264
G0 F18000 X27.499 Y-30.208
G1 F2400 X27.5 Y30.209 E2540.96239
G0 F18000 X27 Y30.209
G1 F2400 X26.999 Y-30.208 E2544.1022
G0 F18000 X26.499 Y-30.208
G1 F2400 X26.5 Y30.209 E2547.24196
G0 F18000 X26 Y30.209
G1 F2400 X25.999 Y-30.208 E2550.38177
G0 F18000 X25.499 Y-30.208
G1 F2400 X25.5 Y30.209 E2553.52152
G0 F18000 X25 Y30.209
G1 F2400 X24.999 Y-30.208 E2556.66133
G0 F18000 X24.499 Y-30.208
G1 F2400 X24.5 Y30.209 E2559.80109
G0 F18000 X24 Y30.209
G1 F2400 X23.999 Y-30.208 E2562.9409
G0 F18000 X23.499 Y-30.208
G1 F2400 X23.5 Y30.209 E2566.08065
G0 F18000 X23 Y30.209
G1 F2400 X22.999 Y-30.208 E2569.22046
G0 F18000 X22.499 Y-30.208
G1 F2400 X22.5 Y30.209 E2572.36022
G0 F18000 X22 Y30.209
G1 F2400 X21.999 Y-30.208 E2575.50003
G0 F18000 X21.499 Y-30.208
G1 F2400 X21.5 Y30.209 E2578.63979
G0 F18000 X21 Y30.209
G1 F2400 X20.999 Y-30.208 E2581.77959
G0 F18000 X20.499 Y-30.208
G1 F2400 X20.5 Y30.209 E2584.91935
G0 F18000 X20 Y30.209
G1 F2400 X19.999 Y-30.208 E2588.05916
G0 F18000 X19.499 Y-30.208
G1 F2400 X19.5 Y30.209 E2591.19892
G0 F18000 X19 Y30.209
G1 F2400 X18.999 Y-30.208 E2594.33872
G0 F18000 X18.499 Y-30.208
G1 F2400 X18.5 Y30.209 E2597.47848
G0 F18000 X18 Y30.209
G1 F2400 X17.999 Y-30.208 E2600.61829
G0 F18000 X17.499 Y-30.208
G1 F2400 X17.5 Y30.209 E2603.75805
G0 F18000 X17 Y30.209
G1 F2400 X16.999 Y-30.208 E2606.89786
G0 F18000 X16.499 Y-30.208
G1 F2400 X16.5 Y30.209 E2610.03761
G0 F18000 X16 Y30.209
G1 F2400 X15.999 Y-30.208 E2613.17742
G0 F18000 X15.499 Y-30.208
G1 F2400 X15.5 Y30.209 E2616.31718
G0 F18000 X15 Y30.209
G1 F2400 X14.999 Y-30.208 E2619.45699
G0 F18000 X14.499 Y-30.208
G1 F2400 X14.5 Y30.21 E2622.5968
G0 F18000 X14 Y30.21
G1 F2400 X13.999 Y-30.208 E2625.73666
G0 F18000 X13.499 Y-30.208
G1 F2400 X13.5 Y30.21 E2628.87646
G0 F18000 X13 Y30.21
G1 F2400 X12.999 Y-30.208 E2632.01633
G0 F18000 X12.499 Y-30.208
G1 F2400 X12.5 Y30.21 E2635.15613
G0 F18000 X12 Y30.21
G1 F2400 X11.999 Y-30.208 E2638.29599
G0 F18000 X11.499 Y-30.208
G1 F2400 X11.5 Y30.21 E2641.4358
G0 F18000 X11 Y30.21
G1 F2400 X10.999 Y-30.208 E2644.57566
G0 F18000 X10.499 Y-30.208
G1 F2400 X10.5 Y30.21 E2647.71547
G0 F18000 X10 Y30.21
G1 F2400 X9.999 Y-30.208 E2650.85533
G0 F18000 X9.499 Y-30.208
G1 F2400 X9.5 Y30.21 E2653.99514
G0 F18000 X9 Y30.21
G1 F2400 X8.999 Y-30.208 E2657.135
G0 F18000 X8.499 Y-30.208
G1 F2400 X8.5 Y30.21 E2660.27481
G0 F18000 X8 Y30.21
G1 F2400 X7.999 Y-30.208 E2663.41467
G0 F18000 X7.499 Y-30.208
G1 F2400 X7.5 Y30.21 E2666.55448
G0 F18000 X7 Y30.21
G1 F2400 X6.999 Y-30.208 E2669.69434
G0 F18000 X6.499 Y-30.208
G1 F2400 X6.5 Y30.21 E2672.83415
G0 F18000 X6 Y30.21
G1 F2400 X5.999 Y-30.208 E2675.97401
G0 F18000 X5.499 Y-30.208
G1 F2400 X5.5 Y30.21 E2679.11382
G0 F18000 X5 Y30.21
G1 F2400 X4.999 Y-30.208 E2682.25368
G0 F18000 X4.499 Y-30.208
G1 F2400 X4.5 Y30.21 E2685.39349
G0 F18000 X4 Y30.21
G1 F2400 X3.999 Y-30.208 E2688.53335
G0 F18000 X3.499 Y-30.208
G1 F2400 X3.5 Y30.21 E2691.67316
G0 F18000 X3 Y30.21
G1 F2400 X2.999 Y-30.208 E2694.81302
G0 F18000 X2.499 Y-30.208
G1 F2400 X2.5 Y30.21 E2697.95283
G0 F18000 X2 Y30.21
G1 F2400 X1.999 Y-30.208 E2701.09269
G0 F18000 X1.499 Y-30.208
G1 F2400 X1.5 Y30.21 E2704.2325
G0 F18000 X1 Y30.21
G1 F2400 X0.999 Y-30.208 E2707.37236
G0 F18000 X0.499 Y-30.208
G1 F2400 X0.5 Y30.21 E2710.51217
G0 F18000 X0 Y30.21
G1 F2400 X0 Y-30.209 E2713.65208
G0 F18000 X-0.5 Y-30.209
G1 F2400 X-0.499 Y30.209 E2716.79189
G0 F18000 X-0.999 Y30.209
G1 F2400 X-1 Y-30.209 E2719.93175
G0 F18000 X-1.5 Y-30.209
G1 F2400 X-1.499 Y30.209 E2723.07156
G0 F18000 X-1.999 Y30.209
G1 F2400 X-2 Y-30.209 E2726.21142
G0 F18000 X-2.5 Y-30.209
G1 F2400 X-2.499 Y30.209 E2729.35123
G0 F18000 X-2.999 Y30.209
G1 F2400 X-3 Y-30.209 E2732.49109
G0 F18000 X-3.5 Y-30.209
G1 F2400 X-3.499 Y30.209 E2735.6309
G0 F18000 X-3.999 Y30.209
G1 F2400 X-4 Y-30.209 E2738.77076
G0 F18000 X-4.5 Y-30.209
G1 F2400 X-4.499 Y30.209 E2741.91057
G0 F18000 X-4.999 Y30.209
G1 F2400 X-5 Y-30.209 E2745.05043
G0 F18000 X-5.5 Y-30.209
G1 F2400 X-5.499 Y30.209 E2748.19024
G0 F18000 X-5.999 Y30.209
G1 F2400 X-6 Y-30.209 E2751.3301
G0 F18000 X-6.5 Y-30.209
G1 F2400 X-6.499 Y30.209 E2754.4699
G0 F18000 X-6.999 Y30.209
G1 F2400 X-7 Y-30.209 E2757.60977
G0 F18000 X-7.5 Y-30.209
G1 F2400 X-7.499 Y30.209 E2760.74957
G0 F18000 X-7.999 Y30.209
G1 F2400 X-8 Y-30.209 E2763.88943
G0 F18000 X-8.5 Y-30.209
G1 F2400 X-8.499 Y30.209 E2767.02924
G0 F18000 X-8.999 Y30.209
G1 F2400 X-9 Y-30.209 E2770.1691
G0 F18000 X-9.5 Y-30.209
G1 F2400 X-9.499 Y30.209 E2773.30891
G0 F18000 X-9.999 Y30.209
G1 F2400 X-10 Y-30.209 E2776.44877
G0 F18000 X-10.5 Y-30.209
G1 F2400 X-10.499 Y30.209 E2779.58858
G0 F18000 X-10.999 Y30.209
G1 F2400 X-11 Y-30.209 E2782.72844
G0 F18000 X-11.5 Y-30.209
G1 F2400 X-11.499 Y30.209 E2785.86825
G0 F18000 X-11.999 Y30.209
G1 F2400 X-12 Y-30.209 E2789.00811
G0 F18000 X-12.5 Y-30.209
G1 F2400 X-12.499 Y30.209 E2792.14792
G0 F18000 X-12.999 Y30.209
G1 F2400 X-13 Y-30.209 E2795.28778
G0 F18000 X-13.5 Y-30.209
G1 F2400 X-13.499 Y30.209 E2798.42759
G0 F18000 X-13.999 Y30.209
G1 F2400 X-14 Y-30.209 E2801.56745
G0 F18000 X-14.5 Y-30.209
G1 F2400 X-14.499 Y30.209 E2804.70726
G0 F18000 X-14.999 Y30.209
G1 F2400 X-15 Y-30.208 E2807.84707
G0 F18000 X-15.5 Y-30.208
G1 F2400 X-15.499 Y30.209 E2810.98683
G0 F18000 X-15.999 Y30.209
G1 F2400 X-16 Y-30.208 E2814.12663
G0 F18000 X-16.5 Y-30.208
G1 F2400 X-16.499 Y30.209 E2817.26639
G0 F18000 X-16.999 Y30.209
G1 F2400 X-17 Y-30.208 E2820.4062
G0 F18000 X-17.5 Y-30.208
G1 F2400 X-17.499 Y30.209 E2823.54596
G0 F18000 X-17.999 Y30.209
G1 F2400 X-18 Y-30.208 E2826.68577
G0 F18000 X-18.5 Y-30.208
G1 F2400 X-18.499 Y30.209 E2829.82552
G0 F18000 X-18.999 Y30.209
G1 F2400 X-19 Y-30.208 E2832.96533
G0 F18000 X-19.5 Y-30.208
G1 F2400 X-19.499 Y30.209 E2836.10509
G0 F18000 X-19.999 Y30.209
G1 F2400 X-20 Y-30.208 E2839.2449
G0 F18000 X-20.5 Y-30.208
G1 F2400 X-20.499 Y30.209 E2842.38465
G0 F18000 X-20.999 Y30.209
G1 F2400 X-21 Y-30.208 E2845.52446
G0 F18000 X-21.5 Y-30.208
G1 F2400 X-21.499 Y30.209 E2848.66422
G0 F18000 X-21.999 Y30.209
G1 F2400 X-22 Y-30.208 E2851.80403
G0 F18000 X-22.5 Y-30.208
G1 F2400 X-22.499 Y30.209 E2854.94378
G0 F18000 X-22.999 Y30.209
G1 F2400 X-23 Y-30.208 E2858.08359
G0 F18000 X-23.5 Y-30.208
G1 F2400 X-23.499 Y30.209 E2861.22335
G0 F18000 X-23.999 Y30.209
G1 F2400 X-24 Y-30.208 E2864.36316
G0 F18000 X-24.5 Y-30.208
G1 F2400 X-24.499 Y30.209 E2867.50291
G0 F18000 X-24.999 Y30.209
G1 F2400 X-25 Y-30.208 E2870.64272
G0 F18000 X-25.5 Y-30.208
G1 F2400 X-25.499 Y30.209 E2873.78248
G0 F18000 X-25.999 Y30.209
G1 F2400 X-26 Y-30.208 E2876.92229
G0 F18000 X-26.5 Y-30.208
G1 F2400 X-26.499 Y30.209 E2880.06205
G0 F18000 X-26.999 Y30.209
G1 F2400 X-27 Y-30.208 E2883.20185
G0 F18000 X-27.5 Y-30.208
G1 F2400 X-27.499 Y30.209 E2886.34161
G0 F18000 X-27.999 Y30.209
G1 F2400 X-28 Y-30.208 E2889.48142
G0 F18000 X-28.5 Y-30.208
G1 F2400 X-28.499 Y30.209 E2892.62118
G0 F18000 X-28.999 Y30.209
G1 F2400 X-29 Y-30.208 E2895.76099
G0 F18000 X-29.5 Y-30.208
G1 F2400 X-29.499 Y30.209 E2898.90074
G0 F18000 X-29.999 Y30.209
G1 F2400 X-30 Y-30.208 E2902.04055
G0 F18000 X-30.5 Y-30.208
G1 F2400 X-30.499 Y30.209 E2905.18031
G0 F18000 X-30.999 Y30.209
G1 F2400 X-31 Y-30.208 E2908.32012
G0 F18000 X-31.5 Y-30.208
G1 F2400 X-31.499 Y30.209 E2911.45987
G0 F18000 X-31.999 Y30.209
G1 F2400 X-32 Y-30.208 E2914.59968
G0 F18000 X-32.5 Y-30.208
G1 F2400 X-32.499 Y30.209 E2917.73944
G0 F18000 X-32.999 Y30.209
G1 F2400 X-33 Y-30.208 E2920.87925
G0 F18000 X-33.5 Y-30.208
G1 F2400 X-33.499 Y30.209 E2924.019
G0 F18000 X-33.999 Y30.209
G1 F2400 X-34 Y-30.208 E2927.15881
G0 F18000 X-34.5 Y-30.208
G1 F2400 X-34.499 Y30.209 E2930.29857
G0 F18000 X-34.999 Y30.209
G1 F2400 X-35 Y-30.208 E2933.43838
G0 F18000 X-35.5 Y-30.208
G1 F2400 X-35.499 Y30.209 E2936.57813
G0 F18000 X-35.999 Y30.209
G1 F2400 X-36 Y-30.208 E2939.71794
G0 F18000 X-36.5 Y-30.208
G1 F2400 X-36.499 Y30.209 E2942.8577
G0 F18000 X-36.999 Y30.209
G1 F2400 X-37 Y-30.208 E2945.99751
G0 F18000 X-37.5 Y-30.208
G1 F2400 X-37.499 Y30.209 E2949.13727
G0 F18000 X-37.999 Y30.209
G1 F2400 X-38 Y-30.208 E2952.27707
G0 F18000 X-38.5 Y-30.208
G1 F2400 X-38.499 Y30.209 E2955.41683
G0 F18000 X-38.999 Y30.209
G1 F2400 X-39 Y-30.208 E2958.55664
G0 F18000 X-39.5 Y-30.208
G1 F2400 X-39.499 Y30.209 E2961.6964
G0 F18000 X-39.999 Y30.209
G1 F2400 X-40 Y-30.208 E2964.83621
G0 F18000 X-40.5 Y-30.208
G1 F2400 X-40.499 Y30.209 E2967.97596
G0 F18000 X-40.999 Y30.209
G1 F2400 X-41 Y-30.208 E2971.11577
G0 F18000 X-41.5 Y-30.208
G1 F2400 X-41.499 Y30.209 E2974.25553
G0 F18000 X-41.999 Y30.209
G1 F2400 X-42 Y-30.208 E2977.39534
G0 F18000 X-42.5 Y-30.208
G1 F2400 X-42.499 Y30.209 E2980.53509
G0 F18000 X-42.999 Y30.209
G1 F2400 X-43 Y-30.208 E2983.6749
G0 F18000 X-43.5 Y-30.208
G1 F2400 X-43.499 Y30.209 E2986.81466
G0 F18000 X-43.999 Y30.209
G1 F2400 X-44 Y-30.208 E2989.95447
G0 F18000 X-44.5 Y-30.208
G1 F2400 X-44.499 Y30.209 E2993.09422
G0 F18000 X-44.999 Y30.209
G1 F2400 X-45 Y-30.208 E2996.23403
G0 F18000 X-45.5 Y-30.208
G1 F2400 X-45.499 Y30.209 E2999.37379
G0 F18000 X-45.999 Y30.209
G1 F2400 X-46 Y-30.208 E3002.5136
G0 F18000 X-46.5 Y-30.208
G1 F2400 X-46.499 Y30.209 E3005.65336
G0 F18000 X-46.999 Y30.209
G1 F2400 X-47 Y-30.208 E3008.79316
G0 F18000 X-47.5 Y-30.208
G1 F2400 X-47.499 Y30.209 E3011.93292
G0 F18000 X-47.999 Y30.209
G1 F2400 X-48 Y-30.208 E3015.07273
G0 F18000 X-48.5 Y-30.208
G1 F2400 X-48.499 Y30.209 E3018.21249
G0 F18000 X-48.999 Y30.209
G1 F2400 X-49 Y-30.208 E3021.35229
G0 F18000 X-49.5 Y-30.208
G1 F2400 X-49.499 Y30.209 E3024.49205
G0 F18000 X-49.999 Y30.209
G1 F2400 X-50 Y-30.208 E3027.63186
G0 F18000 X-50.5 Y-30.208
G1 F2400 X-50.499 Y30.209 E3030.77162
G0 F18000 X-50.999 Y30.209
G1 F2400 X-51 Y-30.208 E3033.91143
G0 F18000 X-51.5 Y-30.208
G1 F2400 X-51.499 Y30.209 E3037.05118
G0 F18000 X-51.999 Y30.209
G1 F2400 X-52 Y-30.208 E3040.19099
G0 F18000 X-52.5 Y-30.208
G1 F2400 X-52.499 Y30.209 E3043.33075
G0 F18000 X-52.999 Y30.209
G1 F2400 X-53 Y-30.208 E3046.47056
G0 F18000 X-53.5 Y-30.208
G1 F2400 X-53.499 Y30.209 E3049.61031
G0 F18000 X-53.999 Y30.112
G1 F2400 X-54 Y-30.118 E3052.7404
; LAYER:4
G0 F18000 X-54.085 Y-30.293 Z1.3
; TYPE:WALL-INNER
G1 F2400 X-53.921 Y-30.364 E3052.74966
G1 X-53.658 Y-30.399 E3052.76341
G1 X53.659 Y-30.399 E3058.34051
G1 X53.91 Y-30.366 E3058.35366
G1 X54.052 Y-30.31 E3058.36157
G1 X54.167 Y-30.24 E3058.36854
G1 X54.261 Y-30.15 E3058.37527
G1 X54.358 Y-30.019 E3058.3837
G1 X54.425 Y-29.869 E3058.39219
G1 X54.461 Y-29.597 E3058.4064
G1 X54.461 Y29.598 E3061.48265
G1 X54.428 Y29.852 E3061.49596
G1 X54.384 Y29.967 E3061.50236
G1 X54.301 Y30.104 E3061.51068
G1 X54.192 Y30.217 E3061.51884
G1 X54.086 Y30.294 E3061.52565
G1 X53.922 Y30.365 E3061.53494
G1 X53.659 Y30.4 E3061.54873
G1 X-53.658 Y30.4 E3067.12588
G1 X-53.909 Y30.367 E3067.13909
G1 X-54.051 Y30.311 E3067.14707
G1 X-54.166 Y30.241 E3067.15411
G1 X-54.26 Y30.151 E3067.16091
G1 X-54.357 Y30.02 E3067.16941
G1 X-54.424 Y29.87 E3067.17797
G1 X-54.46 Y29.598 E3067.19224
G1 X-54.46 Y-29.597 E3070.26854
G1 X-54.427 Y-29.851 E3070.28189
G1 X-54.383 Y-29.966 E3070.28832
G1 X-54.3 Y-30.103 E3070.29667
G1 X-54.191 Y-30.216 E3070.30483
G1 X-54.085 Y-30.293 E3070.31162
G0 F18000 X-54.332 Y-30.731
; TYPE:WALL-OUTER
G1 F2100 X-54.041 Y-30.853 E3070.328
G1 X-53.692 Y-30.899 E3070.34624
G1 X53.693 Y-30.899 E3075.92688
G1 X54.035 Y-30.854 E3075.9448
G1 X54.278 Y-30.758 E3075.95836
G1 X54.47 Y-30.64 E3075.97004
G1 X54.638 Y-30.481 E3075.98203
G1 X54.794 Y-30.27 E3075.99562
G1 X54.915 Y-29.98 E3076.01191
G1 X54.961 Y-29.631 E3076.03015
G1 X54.961 Y29.632 E3079.10993
G1 X54.916 Y29.975 E3079.12791
G1 X54.834 Y30.189 E3079.13982
G1 X54.703 Y30.408 E3079.15308
G1 X54.521 Y30.596 E3079.16668
G1 X54.333 Y30.732 E3079.17874
G1 X54.042 Y30.854 E3079.19514
G1 X53.693 Y30.9 E3079.21343
G1 X-53.692 Y30.9 E3084.79412
G1 X-54.034 Y30.855 E3084.8121
G1 X-54.277 Y30.759 E3084.82572
G1 X-54.469 Y30.641 E3084.83748
G1 X-54.637 Y30.482 E3084.84954
G1 X-54.793 Y30.271 E3084.86321
G1 X-54.914 Y29.981 E3084.87956
G1 X-54.96 Y29.632 E3084.89786
G1 X-54.96 Y-29.631 E3087.97769
G1 X-54.915 Y-29.974 E3087.99572
G1 X-54.833 Y-30.188 E3088.00766
G1 X-54.702 Y-30.407 E3088.02094
G1 X-54.52 Y-30.595 E3088.03454
G1 X-54.332 Y-30.731 E3088.04658
G0 F18000 X-54.133 Y-29.999
; TYPE:FILL
G1 F2400 X54.126 Y-30 E3093.67264
G0 F18000 X54.271 Y-29.5
G1 F2400 X-54.27 Y-29.499 E3099.3134
G0 F18000 X-54.27 Y-28.999
G1 F2400 X54.271 Y-29 E3104.95411
G0 F18000 X54.271 Y-28.5
G1 F2400 X-54.27 Y-28.499 E3110.59488
G0 F18000 X-54.27 Y-27.999
G1 F2400 X54.271 Y-28 E3116.23559
G0 F18000 X54.271 Y-27.5
G1 F2400 X-54.27 Y-27.499 E3121.87635
G0 F18000 X-54.27 Y-26.999
G1 F2400 X54.271 Y-27 E3127.51706
G0 F18000 X54.271 Y-26.5
G1 F2400 X-54.27 Y-26.499 E3133.15783
G0 F18000 X-54.27 Y-25.999
G1 F2400 X54.271 Y-26 E3138.79854
G0 F18000 X54.271 Y-25.5
G1 F2400 X46.858 Y-25.5 E3139.18378
G0 F18000 X47.045 Y-25.5
G1 F2400 X44.425 Y-25.5 E3139.31994
G0 F18000 X44.603 Y-25.5
G1 F2400 X-36.319 Y-25.499 E3143.52537
G0 F18000 X-36.132 Y-25.499
G1 F2400 X-38.759 Y-25.499 E3143.66195
G0 F18000 X-38.578 Y-25.499
G1 F2400 X-54.27 Y-25.499 E3144.4775
G0 F18000 X-54.27 Y-24.999
G1 F2400 X-38.997 Y-24.999 E3145.27117
G0 F18000 X-39.134 Y-24.999
G1 F2400 X-35.749 Y-24.999 E3145.44703
G0 F18000 X-35.891 Y-24.999
G1 F2400 X44.181 Y-25 E3149.60824
G0 F18000 X44.045 Y-25
G1 F2400 X47.426 Y-25 E3149.78394
G0 F18000 X47.286 Y-25
G1 F2400 X54.271 Y-25 E3150.14695
G0 F18000 X54.271 Y-24.5
G1 F2400 X47.478 Y-24.5 E3150.49997
G0 F18000 X47.601 Y-24.5
G1 F2400 X43.859 Y-24.5 E3150.69444
G0 F18000 X43.98 Y-24.5
G1 F2400 X-35.698 Y-24.499 E3154.83522
G0 F18000 X-35.574 Y-24.499
G1 F2400 X-39.318 Y-24.499 E3155.02985
G0 F18000 X-39.196 Y-24.499
G1 F2400 X-54.27 Y-24.499 E3155.81328
G0 F18000 X-54.27 Y-23.999
G1 F2400 X-39.237 Y-23.999 E3156.59448
G0 F18000 X-39.357 Y-23.999
G1 F2400 X-35.54 Y-23.999 E3156.79279
G0 F18000 X-35.66 Y-23.999
G1 F2400 X43.946 Y-24 E3160.92978
G0 F18000 X43.826 Y-24
G1 F2400 X47.642 Y-24 E3161.12809
G0 F18000 X47.521 Y-24
G1 F2400 X54.271 Y-24 E3161.47888
G0 F18000 X54.271 Y-23.5
G1 F2400 X47.418 Y-23.5 E3161.83503
G0 F18000 X47.547 Y-23.5
G1 F2400 X43.918 Y-23.5 E3162.02362
G0 F18000 X44.047 Y-23.5
G1 F2400 X-35.762 Y-23.499 E3166.17121
G0 F18000 X-35.632 Y-23.499
G1 F2400 X-39.254 Y-23.499 E3166.3595
G0 F18000 X-39.127 Y-23.499
G1 F2400 X-54.27 Y-23.499 E3167.14651
G0 F18000 X-54.27 Y-22.999
G1 F2400 X-38.848 Y-22.999 E3167.94793
G0 F18000 X-38.999 Y-22.999
G1 F2400 X-35.884 Y-22.999 E3168.10976
G0 F18000 X-36.041 Y-22.999
G1 F2400 X44.329 Y-23 E3172.28645
G0 F18000 X44.171 Y-23
G1 F2400 X47.294 Y-23 E3172.44875
G0 F18000 X47.138 Y-23
G1 F2400 X54.271 Y-23 E3172.81945
G0 F18000 X54.271 Y-22.5
G1 F2400 X46.522 Y-22.5 E3173.22215
G0 F18000 X46.766 Y-22.5
G1 F2400 X44.703 Y-22.5 E3173.32937
G0 F18000 X44.943 Y-22.5
G1 F2400 X-36.657 Y-22.499 E3177.57003
G0 F18000 X-36.414 Y-22.499
G1 F2400 X-38.47 Y-22.499 E3177.67693
G0 F18000 X-38.232 Y-22.499
G1 F2400 X-53.02 Y-22.499 E3178.4455
G0 F18000 X-52.9 Y-22.499
G1 F2400 X-54.27 Y-22.499 E3178.51675
G0 F18000 X-54.27 Y-21.999
G1 F2400 X-52.9 Y-21.999 E3178.5879
G0 F18000 X-53.02 Y-21.999
G1 F2400 X54.271 Y-22 E3184.16365
G0 F18000 X54.271 Y-21.5
G1 F2400 X-53.02 Y-21.499 E3189.73945
G0 F18000 X-52.9 Y-21.499
G1 F2400 X-54.27 Y-21.499 E3189.8107
G0 F18000 X-54.27 Y-20.999
G1 F2400 X-52.9 Y-20.999 E3189.88184
G0 F18000 X-53.02 Y-20.999
G1 F2400 X54.271 Y-21 E3195.45759
G0 F18000 X54.271 Y-20.5
G1 F2400 X16.506 Y-20.5 E3197.4202
G0 F18000 X16.715 Y-20.5
G1 F2400 X14.259 Y-20.5 E3197.54784
G0 F18000 X14.461 Y-20.5
G1 F2400 X-53.02 Y-20.499 E3201.05475
G0 F18000 X-52.9 Y-20.499
G1 F2400 X-54.27 Y-20.499 E3201.126
G0 F18000 X-54.27 Y-19.999
G1 F2400 X-52.9 Y-19.999 E3201.19715
G0 F18000 X-53.02 Y-19.999
G1 F2400 X13.973 Y-20 E3204.67865
G0 F18000 X13.837 Y-20
G1 F2400 X17.135 Y-20 E3204.85005
G0 F18000 X16.997 Y-20
G1 F2400 X54.271 Y-20 E3206.78714
G0 F18000 X54.271 Y-19.5
G1 F2400 X17.214 Y-19.5 E3208.71295
G0 F18000 X17.341 Y-19.5
G1 F2400 X13.628 Y-19.5 E3208.90591
G0 F18000 X13.751 Y-19.5
G1 F2400 X-53.02 Y-19.499 E3212.37593
G0 F18000 X-52.9 Y-19.499
G1 F2400 X-54.27 Y-19.499 E3212.44718
G0 F18000 X-54.27 Y-18.999
G1 F2400 X-52.9 Y-18.999 E3212.51833
G0 F18000 X-53.02 Y-18.999
G1 F2400 X13.692 Y-19 E3215.98523
G0 F18000 X13.572 Y-19
G1 F2400 X17.394 Y-19 E3216.18385
G0 F18000 X17.274 Y-19
G1 F2400 X54.271 Y-19 E3218.10655
G0 F18000 X54.271 Y-18.5
G1 F2400 X17.193 Y-18.5 E3220.03345
G0 F18000 X17.319 Y-18.5
G1 F2400 X13.65 Y-18.5 E3220.22413
G0 F18000 X13.776 Y-18.5
G1 F2400 X-53.02 Y-18.499 E3223.69545
G0 F18000 X-52.9 Y-18.499
G1 F2400 X-54.27 Y-18.499 E3223.7667
G0 F18000 X-54.27 Y-17.999
G1 F2400 X-52.9 Y-17.999 E3223.83784
G0 F18000 X-53.02 Y-17.999
G1 F2400 X14.022 Y-18 E3227.32189
G0 F18000 X13.873 Y-18
G1 F2400 X17.095 Y-18 E3227.48934
G0 F18000 X16.949 Y-18
G1 F2400 X54.271 Y-18 E3229.42892
G0 F18000 X54.271 Y-17.5
G1 F2400 X16.409 Y-17.5 E3231.39657
G0 F18000 X16.634 Y-17.5
G1 F2400 X14.344 Y-17.5 E3231.51558
G0 F18000 X14.55 Y-17.5
G1 F2400 X-53.02 Y-17.499 E3235.02712
G0 F18000 X-52.9 Y-17.499
G1 F2400 X-54.27 Y-17.499 E3235.09837
G0 F18000 X-54.27 Y-16.999
G1 F2400 X-52.9 Y-16.999 E3235.16952
G0 F18000 X-53.02 Y-16.999
G1 F2400 X54.271 Y-17 E3240.74527
G0 F18000 X54.271 Y-16.5
G1 F2400 X-53.02 Y-16.499 E3246.32107
G0 F18000 X-52.9 Y-16.499
G1 F2400 X-54.27 Y-16.499 E3246.39232
G0 F18000 X-54.27 Y-15.999
G1 F2400 X-52.9 Y-15.999 E3246.46347
G0 F18000 X-53.02 Y-15.999
G1 F2400 X54.271 Y-16 E3252.03922
G0 F18000 X54.271 Y-15.5
G1 F2400 X-53.02 Y-15.499 E3257.61502
G0 F18000 X-52.9 Y-15.499
G1 F2400 X-54.27 Y-15.499 E3257.68627
G0 F18000 X-54.27 Y-14.999
G1 F2400 X-52.9 Y-14.999 E3257.75741
G0 F18000 X-53.02 Y-14.999
G1 F2400 X54.271 Y-15 E3263.33316
G0 F18000 X54.271 Y-14.5
G1 F2400 X-54.27 Y-14.499 E3268.97392
G0 F18000 X-54.27 Y-13.999
G1 F2400 X54.271 Y-14 E3274.61464
G0 F18000 X54.271 Y-13.5
G1 F2400 X-54.27 Y-13.499 E3280.2554
G0 F18000 X-54.27 Y-12.999
G1 F2400 X54.271 Y-13 E3285.89611
G0 F18000 X54.271 Y-12.5
G1 F2400 X-54.27 Y-12.499 E3291.53687
G0 F18000 X-54.27 Y-11.999
G1 F2400 X54.271 Y-12 E3297.17758
G0 F18000 X54.271 Y-11.5
G1 F2400 X-54.27 Y-11.499 E3302.81835
G0 F18000 X-54.27 Y-10.999
G1 F2400 X54.271 Y-11 E3308.45906
G0 F18000 X54.271 Y-10.5
G1 F2400 X-54.27 Y-10.499 E3314.09982
G0 F18000 X-54.27 Y-9.999
G1 F2400 X54.271 Y-10 E3319.74053
G0 F18000 X54.271 Y-9.5
G1 F2400 X-54.27 Y-9.499 E3325.38129
G0 F18000 X-54.27 Y-8.999
G1 F2400 X54.271 Y-9 E3331.02201
G0 F18000 X54.271 Y-8.5
G1 F2400 X-54.27 Y-8.499 E3336.66277
G0 F18000 X-54.27 Y-7.999
G1 F2400 X54.271 Y-8 E3342.30348
G0 F18000 X54.271 Y-7.5
G1 F2400 X-54.27 Y-7.499 E3347.94424
G0 F18000 X-54.27 Y-6.999
G1 F2400 X54.271 Y-7 E3353.58495
G0 F18000 X54.271 Y-6.5
G1 F2400 X-54.27 Y-6.499 E3359.22572
G0 F18000 X-54.27 Y-5.999
G1 F2400 X54.271 Y-6 E3364.86643
G0 F18000 X54.271 Y-5.5
G1 F2400 X-54.27 Y-5.499 E3370.50719
G0 F18000 X-54.27 Y-4.999
G1 F2400 X54.271 Y-5 E3376.1479
G0 F18000 X54.271 Y-4.5
G1 F2400 X-54.27 Y-4.499 E3381.78867
G0 F18000 X-54.27 Y-3.999
G1 F2400 X54.271 Y-4 E3387.42938
G0 F18000 X54.271 Y-3.5
G1 F2400 X-54.27 Y-3.499 E3393.07014
G0 F18000 X-54.27 Y-2.999
G1 F2400 X54.271 Y-3 E3398.71085
G0 F18000 X54.271 Y-2.5
G1 F2400 X-54.27 Y-2.499 E3404.35161
G0 F18000 X-54.27 Y-1.999
G1 F2400 X54.271 Y-2 E3409.99232
G0 F18000 X54.271 Y-1.5
G1 F2400 X-54.27 Y-1.499 E3415.63309
G0 F18000 X-54.27 Y-0.999
G1 F2400 X54.271 Y-1 E3421.2738
G0 F18000 X54.271 Y-0.5
G1 F2400 X-54.27 Y-0.499 E3426.91456
G0 F18000 X-54.27 Y0
G1 F2400 X54.271 Y0 E3432.55527
G0 F18000 X54.271 Y0.499
G1 F2400 X-54.27 Y0.5 E3438.19604
G0 F18000 X-54.27 Y1
G1 F2400 X54.271 Y0.999 E3443.83675
G0 F18000 X54.271 Y1.499
G1 F2400 X-54.27 Y1.5 E3449.47751
G0 F18000 X-54.27 Y2
G1 F2400 X54.271 Y1.999 E3455.11822
G0 F18000 X54.271 Y2.499
G1 F2400 X-54.27 Y2.5 E3460.75898
G0 F18000 X-54.27 Y3
G1 F2400 X54.271 Y2.999 E3466.39969
G0 F18000 X54.271 Y3.499
G1 F2400 X-54.27 Y3.5 E3472.04046
G0 F18000 X-54.27 Y4
G1 F2400 X54.271 Y3.999 E3477.68117
G0 F18000 X54.271 Y4.499
G1 F2400 X-54.27 Y4.5 E3483.32193
G0 F18000 X-54.27 Y5
G1 F2400 X54.271 Y4.999 E3488.96264
G0 F18000 X54.271 Y5.499
G1 F2400 X-54.27 Y5.5 E3494.60341
G0 F18000 X-54.27 Y6
G1 F2400 X54.271 Y5.999 E3500.24412
G0 F18000 X54.271 Y6.499
G1 F2400 X-53.02 Y6.5 E3505.81992
G0 F18000 X-52.9 Y6.5
G1 F2400 X-54.27 Y6.5 E3505.89117
G0 F18000 X-54.27 Y7
G1 F2400 X-52.9 Y7 E3505.96231
G0 F18000 X-53.02 Y7
G1 F2400 X54.271 Y6.999 E3511.53806
G0 F18000 X54.271 Y7.499
G1 F2400 X16.636 Y7.499 E3513.49391
G0 F18000 X16.808 Y7.499
G1 F2400 X14.16 Y7.499 E3513.63153
G0 F18000 X14.338 Y7.499
G1 F2400 X-53.02 Y7.5 E3517.13205
G0 F18000 X-52.9 Y7.5
G1 F2400 X-54.27 Y7.5 E3517.2033
G0 F18000 X-54.27 Y8
G1 F2400 X-52.9 Y8 E3517.27445
G0 F18000 X-53.02 Y8
G1 F2400 X13.925 Y7.999 E3520.75346
G0 F18000 X13.79 Y7.999
G1 F2400 X17.184 Y7.999 E3520.92984
G0 F18000 X17.048 Y7.999
G1 F2400 X54.271 Y7.999 E3522.86428
G0 F18000 X54.271 Y8.499
G1 F2400 X17.24 Y8.499 E3524.78874
G0 F18000 X17.361 Y8.499
G1 F2400 X13.613 Y8.5 E3524.98352
G0 F18000 X13.734 Y8.5
G1 F2400 X-53.02 Y8.5 E3528.45266
G0 F18000 X-52.9 Y8.5
G1 F2400 X-54.27 Y8.5 E3528.52391
G0 F18000 X-54.27 Y9
G1 F2400 X-52.9 Y9 E3528.59506
G0 F18000 X-53.02 Y9
G1 F2400 X13.697 Y9 E3532.06222
G0 F18000 X13.577 Y9
G1 F2400 X17.389 Y8.999 E3532.26032
G0 F18000 X17.269 Y8.999
G1 F2400 X54.271 Y8.999 E3534.18328
G0 F18000 X54.271 Y9.499
G1 F2400 X17.162 Y9.499 E3536.11179
G0 F18000 X17.29 Y9.499
G1 F2400 X13.681 Y9.5 E3536.29935
G0 F18000 X13.807 Y9.5
G1 F2400 X-53.02 Y9.5 E3539.77228
G0 F18000 X-52.9 Y9.5
G1 F2400 X-54.27 Y9.5 E3539.84353
G0 F18000 X-54.27 Y10
G1 F2400 X-52.9 Y10 E3539.91467
G0 F18000 X-53.02 Y10
G1 F2400 X14.09 Y10 E3543.40226
G0 F18000 X13.942 Y10
G1 F2400 X17.035 Y9.999 E3543.563
G0 F18000 X16.878 Y9.999
G1 F2400 X54.271 Y9.999 E3545.50628
G0 F18000 X54.271 Y10.499
G1 F2400 X16.247 Y10.499 E3547.48234
G0 F18000 X16.491 Y10.499
G1 F2400 X14.472 Y10.5 E3547.58727
G0 F18000 X14.733 Y10.5
G1 F2400 X-53.02 Y10.5 E3551.10832
G0 F18000 X-52.9 Y10.5
G1 F2400 X-54.27 Y10.5 E3551.17957
G0 F18000 X-54.27 Y11
G1 F2400 X-52.9 Y11 E3551.25072
G0 F18000 X-53.02 Y11
G1 F2400 X54.271 Y10.999 E3556.82647
G0 F18000 X54.271 Y11.499
G1 F2400 X-53.02 Y11.5 E3562.40227
G0 F18000 X-52.9 Y11.5
G1 F2400 X-54.27 Y11.5 E3562.47352
G0 F18000 X-54.27 Y12
G1 F2400 X-52.9 Y12 E3562.54466
G0 F18000 X-53.02 Y12
G1 F2400 X54.271 Y11.999 E3568.12041
G0 F18000 X54.271 Y12.499
G1 F2400 X-53.02 Y12.5 E3573.69621
G0 F18000 X-52.9 Y12.5
G1 F2400 X-54.27 Y12.5 E3573.76746
G0 F18000 X-54.27 Y13
G1 F2400 X-52.9 Y13 E3573.83861
G0 F18000 X-53.02 Y13
G1 F2400 X54.271 Y12.999 E3579.41436
G0 F18000 X54.271 Y13.499
G1 F2400 X-53.02 Y13.5 E3584.99016
G0 F18000 X-52.9 Y13.5
G1 F2400 X-54.27 Y13.5 E3585.06141
G0 F18000 X-54.27 Y14
G1 F2400 X-52.9 Y14 E3585.13256
G0 F18000 X-53.02 Y14
G1 F2400 X54.271 Y13.999 E3590.70831
G0 F18000 X54.271 Y14.499
G1 F2400 X-53.02 Y14.5 E3596.28411
G0 F18000 X-52.9 Y14.5
G1 F2400 X-54.27 Y14.5 E3596.35536
G0 F18000 X-54.27 Y15
G1 F2400 X-52.9 Y15 E3596.4265
G0 F18000 X-53.02 Y15
G1 F2400 X54.271 Y14.999 E3602.00225
G0 F18000 X54.271 Y15.499
G1 F2400 X-53.02 Y15.5 E3607.57805
G0 F18000 X-52.9 Y15.5
G1 F2400 X-54.27 Y15.5 E3607.6493
G0 F18000 X-54.27 Y16
G1 F2400 X-52.9 Y16 E3607.72045
G0 F18000 X-53.02 Y16
G1 F2400 X54.271 Y15.999 E3613.2962
G0 F18000 X54.271 Y16.499
G1 F2400 X-53.02 Y16.5 E3618.872
G0 F18000 X-52.9 Y16.5
G1 F2400 X-54.27 Y16.5 E3618.94325
G0 F18000 X-54.27 Y17
G1 F2400 X54.271 Y16.999 E3624.58396
G0 F18000 X54.271 Y17.499
G1 F2400 X-54.27 Y17.5 E3630.22472
G0 F18000 X-54.27 Y18
G1 F2400 X54.271 Y17.999 E3635.86544
G0 F18000 X54.271 Y18.499
G1 F2400 X-54.27 Y18.5 E3641.5062
G0 F18000 X-54.27 Y19
G1 F2400 X54.271 Y18.999 E3647.14691
G0 F18000 X54.271 Y19.499
G1 F2400 X-54.27 Y19.5 E3652.78767
G0 F18000 X-54.27 Y20
G1 F2400 X54.271 Y19.999 E3658.42838
G0 F18000 X54.271 Y20.499
G1 F2400 X-54.27 Y20.5 E3664.06915
G0 F18000 X-54.27 Y21
G1 F2400 X54.271 Y20.999 E3669.70986
G0 F18000 X54.271 Y21.499
G1 F2400 X-54.27 Y21.5 E3675.35062
G0 F18000 X-54.27 Y22
G1 F2400 X54.271 Y21.999 E3680.99133
G0 F18000 X54.271 Y22.499
G1 F2400 X40.184 Y22.499 E3681.72342
G0 F18000 X40.432 Y22.499
G1 F2400 X38.383 Y22.499 E3681.8299
G0 F18000 X38.625 Y22.499
G1 F2400 X-35.394 Y22.5 E3685.67659
G0 F18000 X-35.147 Y22.5
G1 F2400 X-37.202 Y22.5 E3685.78344
G0 F18000 X-36.955 Y22.5
G1 F2400 X-54.27 Y22.5 E3686.68334
G0 F18000 X-54.27 Y23
G1 F2400 X-37.579 Y23 E3687.5507
G0 F18000 X-37.73 Y23
G1 F2400 X-34.618 Y23 E3687.71237
G0 F18000 X-34.766 Y23
G1 F2400 X38.003 Y22.999 E3691.49405
G0 F18000 X37.851 Y22.999
G1 F2400 X40.958 Y22.999 E3691.65552
G0 F18000 X40.811 Y22.999
G1 F2400 X54.271 Y22.999 E3692.35502
G0 F18000 X54.271 Y23.499
G1 F2400 X41.091 Y23.499 E3693.03997
G0 F18000 X41.218 Y23.499
G1 F2400 X37.598 Y23.499 E3693.2281
G0 F18000 X37.725 Y23.499
G1 F2400 X-34.491 Y23.5 E3696.98109
G0 F18000 X-34.366 Y23.5
G1 F2400 X-37.983 Y23.5 E3697.16911
G0 F18000 X-37.856 Y23.5
G1 F2400 X-54.27 Y23.5 E3698.02218
G0 F18000 X-54.27 Y24
G1 F2400 X-37.965 Y24 E3698.86949
G0 F18000 X-38.085 Y24
G1 F2400 X-34.265 Y24 E3699.06795
G0 F18000 X-34.385 Y24
G1 F2400 X37.62 Y23.999 E3702.80993
G0 F18000 X37.5 Y23.999
G1 F2400 X41.317 Y23.999 E3703.00829
G0 F18000 X41.197 Y23.999
G1 F2400 X54.271 Y23.999 E3703.68774
G0 F18000 X54.271 Y24.499
G1 F2400 X41.152 Y24.499 E3704.36952
G0 F18000 X41.275 Y24.499
G1 F2400 X37.534 Y24.499 E3704.56393
G0 F18000 X37.655 Y24.499
G1 F2400 X-34.423 Y24.5 E3708.30975
G0 F18000 X-34.302 Y24.5
G1 F2400 X-38.048 Y24.5 E3708.50448
G0 F18000 X-37.927 Y24.5
G1 F2400 X-54.27 Y24.5 E3709.35386
G0 F18000 X-54.27 Y25
G1 F2400 X-37.728 Y25 E3710.21348
G0 F18000 X-37.863 Y25
G1 F2400 X-34.488 Y25 E3710.38882
G0 F18000 X-34.625 Y25
G1 F2400 X37.854 Y24.999 E3714.15543
G0 F18000 X37.717 Y24.999
G1 F2400 X41.1 Y24.999 E3714.33124
G0 F18000 X40.961 Y24.999
G1 F2400 X54.271 Y24.999 E3715.02295
G0 F18000 X54.271 Y25.499
G1 F2400 X40.535 Y25.499 E3715.73679
G0 F18000 X40.718 Y25.499
G1 F2400 X38.097 Y25.499 E3715.873
G0 F18000 X38.27 Y25.499
G1 F2400 X-35.056 Y25.5 E3719.68368
G0 F18000 X-34.87 Y25.5
G1 F2400 X-37.484 Y25.5 E3719.81958
G0 F18000 X-37.305 Y25.5
G1 F2400 X-54.27 Y25.5 E3720.70128
G0 F18000 X-54.27 Y26
G1 F2400 X54.271 Y25.999 E3726.34199
G0 F18000 X54.271 Y26.499
G1 F2400 X-54.27 Y26.5 E3731.98276
G0 F18000 X-54.27 Y27
G1 F2400 X54.271 Y26.999 E3737.62347
G0 F18000 X54.271 Y27.499
G1 F2400 X-54.27 Y27.5 E3743.26423
G0 F18000 X-54.27 Y28
G1 F2400 X54.271 Y27.999 E3748.90494
G0 F18000 X54.271 Y28.499
G1 F2400 X-54.27 Y28.5 E3754.5457
G0 F18000 X-54.27 Y29
G1 F2400 X54.271 Y28.999 E3760.18642
G0 F18000 X54.271 Y29.499
G1 F2400 X-54.27 Y29.5 E3765.82718
G0 F18000 X-54.126 Y30
G1 F2400 X54.135 Y29.999 E3771.45334
G0 F18000 X39.693 Y25.999
G0 X39.693 Y25.999
G1 F2400 X39.094 Y25.999 E3771.48447
G0 F18000 X15.853 Y6.999
G0 X15.853 Y6.999
G1 F2400 X15.129 Y6.999 E3771.52209
G0 F18000 X45.443 Y-26
G1 F2400 X45.995 Y-26 E3771.55078
G0 F18000 X-37.175 Y-25.999
G0 X-37.175 Y-25.999
G1 F2400 X-37.738 Y-25.999 E3771.58009
G0 F18000 X-36.466 Y26
G0 X-36.466 Y26
G1 F2400 X-35.915 Y26 E3771.60867
; LAYER:5
G0 F18000 X-53.658 Y30.4 Z1.55
G0 X-53.658 Y30.4
; TYPE:WALL-INNER
G1 F2400 X-53.93 Y30.364 E3771.62298
G1 X-54.083 Y30.299 E3771.63167
G1 X-54.258 Y30.155 E3771.64349
G1 X-54.371 Y29.996 E3771.65366
G1 X-54.424 Y29.872 E3771.66068
G1 X-54.46 Y29.598 E3771.67505
G1 X-54.46 Y-29.591 E3774.75104
G1 X-54.412 Y-29.896 E3774.76713
G1 X-54.342 Y-30.045 E3774.77571
G1 X-54.184 Y-30.224 E3774.78813
G1 X-53.998 Y-30.34 E3774.7995
G1 X-53.93 Y-30.363 E3774.8032
G1 X-53.658 Y-30.399 E3774.81741
G1 X53.659 Y-30.399 E3780.39452
G1 X53.931 Y-30.363 E3780.40877
G1 X54.084 Y-30.298 E3780.41739
G1 X54.26 Y-30.153 E3780.4292
G1 X54.372 Y-29.995 E3780.43923
G1 X54.432 Y-29.828 E3780.4484
G1 X54.461 Y-29.598 E3780.4604
G1 X54.461 Y29.592 E3783.53639
G1 X54.413 Y29.897 E3783.55243
G1 X54.344 Y30.044 E3783.56087
G1 X54.18 Y30.229 E3783.57372
G1 X53.999 Y30.341 E3783.58478
G1 X53.931 Y30.364 E3783.58851
G1 X53.659 Y30.4 E3783.60277
G1 X-53.658 Y30.4 E3789.17992
G0 F18000 X-53.692 Y30.9
; TYPE:WALL-OUTER
G1 F2100 X-54.041 Y30.854 E3789.19827
G1 X-54.189 Y30.804 E3789.20644
G1 X-54.333 Y30.733 E3789.21483
G1 X-54.469 Y30.642 E3789.22337
G1 X-54.626 Y30.496 E3789.23455
G1 X-54.725 Y30.374 E3789.24275
G1 X-54.814 Y30.23 E3789.25158
G1 X-54.914 Y29.981 E3789.26554
G1 X-54.96 Y29.632 E3789.28384
G1 X-54.96 Y-29.629 E3792.36358
G1 X-54.898 Y-30.024 E3792.3844
G1 X-54.842 Y-30.171 E3792.3926
G1 X-54.768 Y-30.309 E3792.40076
G1 X-54.67 Y-30.444 E3792.40944
G1 X-54.504 Y-30.61 E3792.42164
G1 X-54.33 Y-30.733 E3792.43271
G1 X-54.189 Y-30.803 E3792.44086
G1 X-54.041 Y-30.853 E3792.44895
G1 X-53.692 Y-30.899 E3792.4672
G1 X53.693 Y-30.899 E3798.04783
G1 X54.042 Y-30.853 E3798.06612
G1 X54.19 Y-30.803 E3798.07422
G1 X54.334 Y-30.732 E3798.08254
G1 X54.467 Y-30.643 E3798.09083
G1 X54.626 Y-30.494 E3798.10212
G1 X54.728 Y-30.369 E3798.11047
G1 X54.815 Y-30.229 E3798.11899
G1 X54.915 Y-29.98 E3798.13288
G1 X54.961 Y-29.631 E3798.15113
G1 X54.961 Y29.63 E3801.23081
G1 X54.899 Y30.025 E3801.25159
G1 X54.844 Y30.171 E3801.25969
G1 X54.769 Y30.31 E3801.2679
G1 X54.67 Y30.447 E3801.27669
G1 X54.507 Y30.609 E3801.28863
G1 X54.331 Y30.735 E3801.29988
G1 X54.19 Y30.804 E3801.30804
G1 X54.042 Y30.854 E3801.31615
G1 X53.693 Y30.9 E3801.33445
G1 X-53.692 Y30.9 E3806.91514
G0 F18000 X-53.499 Y30.209
; TYPE:FILL
G1 F2400 X-53.5 Y16.664 E3807.61905
G0 F18000 X-53.5 Y16.784
G1 F2400 X-53.5 Y6.097 E3808.17445
G0 F18000 X-53.5 Y6.217
G1 F2400 X-53.5 Y-14.998 E3809.27697
G0 F18000 X-53.5 Y-14.878
G1 F2400 X-53.5 Y-22.727 E3809.68493
G0 F18000 X-53.5 Y-22.607
G1 F2400 X-53.5 Y-30.208 E3810.07999
G0 F18000 X-53 Y-30.208
G1 F2400 X-52.999 Y30.209 E3813.21975
G0 F18000 X-52.499 Y30.209
G1 F2400 X-52.5 Y-30.208 E3816.35956
G0 F18000 X-52 Y-30.208
G1 F2400 X-51.999 Y30.209 E3819.49932
G0 F18000 X-51.499 Y30.209
G1 F2400 X-51.5 Y-30.208 E3822.63912
G0 F18000 X-51 Y-30.208
G1 F2400 X-50.999 Y30.209 E3825.77888
G0 F18000 X-50.499 Y30.209
G1 F2400 X-50.5 Y-30.208 E3828.91869
G0 F18000 X-50 Y-30.208
G1 F2400 X-49.999 Y30.209 E3832.05845
G0 F18000 X-49.499 Y30.209
G1 F2400 X-49.5 Y-30.208 E3835.19825
G0 F18000 X-49 Y-30.208
G1 F2400 X-48.999 Y30.209 E3838.33801
G0 F18000 X-48.499 Y30.209
G1 F2400 X-48.5 Y-30.208 E3841.47782
G0 F18000 X-48 Y-30.208
G1 F2400 X-47.999 Y30.209 E3844.61758
G0 F18000 X-47.499 Y30.209
G1 F2400 X-47.5 Y-30.208 E3847.75739
G0 F18000 X-47 Y-30.208
G1 F2400 X-46.999 Y30.209 E3850.89714
G0 F18000 X-46.499 Y30.209
G1 F2400 X-46.5 Y-30.208 E3854.03695
G0 F18000 X-46 Y-30.208
G1 F2400 X-45.999 Y30.209 E3857.17671
G0 F18000 X-45.499 Y30.209
G1 F2400 X-45.5 Y-30.208 E3860.31652
G0 F18000 X-45 Y-30.208
G1 F2400 X-44.999 Y30.209 E3863.45627
G0 F18000 X-44.499 Y30.209
G1 F2400 X-44.5 Y-30.208 E3866.59608
G0 F18000 X-44 Y-30.208
G1 F2400 X-43.999 Y30.209 E3869.73584
G0 F18000 X-43.499 Y30.209
G1 F2400 X-43.5 Y-30.208 E3872.87565
G0 F18000 X-43 Y-30.208
G1 F2400 X-42.999 Y30.209 E3876.0154
G0 F18000 X-42.499 Y30.209
G1 F2400 X-42.5 Y-30.208 E3879.15521
G0 F18000 X-42 Y-30.208
G1 F2400 X-41.999 Y30.209 E3882.29497
G0 F18000 X-41.499 Y30.209
G1 F2400 X-41.5 Y-30.208 E3885.43478
G0 F18000 X-41 Y-30.208
G1 F2400 X-40.999 Y30.209 E3888.57454
G0 F18000 X-40.499 Y30.209
G1 F2400 X-40.5 Y-30.208 E3891.71434
G0 F18000 X-40 Y-30.208
G1 F2400 X-39.999 Y30.209 E3894.8541
G0 F18000 X-39.499 Y30.209
G1 F2400 X-39.5 Y-30.208 E3897.99391
G0 F18000 X-39 Y-30.208
G1 F2400 X-39 Y-24.993 E3898.26488
G0 F18000 X-39 Y-25.222
G1 F2400 X-39 Y-23 E3898.3803
G0 F18000 X-39 Y-23.225
G1 F2400 X-38.999 Y30.209 E3901.15716
G0 F18000 X-38.499 Y30.209
G1 F2400 X-38.5 Y-22.659 E3903.90465
G0 F18000 X-38.5 Y-22.518
G1 F2400 X-38.5 Y-25.699 E3904.07002
G0 F18000 X-38.5 Y-25.557
G1 F2400 X-38.5 Y-30.208 E3904.31178
G0 F18000 X-38 Y-30.208
G1 F2400 X-38 Y-25.815 E3904.54002
G0 F18000 X-38 Y-25.939
G1 F2400 X-38 Y-22.276 E3904.73033
G0 F18000 X-38 Y-22.405
G1 F2400 X-37.999 Y30.209 E3907.46458
G0 F18000 X-37.499 Y30.209
G1 F2400 X-37.5 Y25.32 E3907.71865
G0 F18000 X-37.5 Y25.485
G1 F2400 X-37.5 Y22.732 E3907.86172
G0 F18000 X-37.5 Y22.897
G1 F2400 X-37.5 Y-22.323 E3910.21176
G0 F18000 X-37.5 Y-22.203
G1 F2400 X-37.5 Y-26.017 E3910.41002
G0 F18000 X-37.5 Y-25.897
G1 F2400 X-37.5 Y-30.208 E3910.63411
G0 F18000 X-37 Y-30.208
G1 F2400 X-37 Y-25.843 E3910.8609
G0 F18000 X-37 Y-25.969
G1 F2400 X-37 Y-22.248 E3911.05423
G0 F18000 X-37 Y-22.374
G1 F2400 X-37 Y22.521 E3913.38732
G0 F18000 X-37 Y22.389
G1 F2400 X-37 Y25.835 E3913.56641
G0 F18000 X-37 Y25.704
G1 F2400 X-36.999 Y30.209 E3913.80053
G0 F18000 X-36.499 Y30.209
G1 F2400 X-36.5 Y25.869 E3914.02607
G0 F18000 X-36.5 Y25.992
G1 F2400 X-36.5 Y22.223 E3914.22195
G0 F18000 X-36.5 Y22.346
G1 F2400 X-36.5 Y-22.59 E3916.55722
G0 F18000 X-36.5 Y-22.454
G1 F2400 X-36.5 Y-25.77 E3916.7296
G0 F18000 X-36.5 Y-25.636
G1 F2400 X-36.5 Y-30.208 E3916.96726
G0 F18000 X-36 Y-30.208
G1 F2400 X-36 Y-25.165 E3917.22929
G0 F18000 X-36 Y-25.357
G1 F2400 X-36 Y-22.868 E3917.35858
G0 F18000 X-36 Y-23.055
G1 F2400 X-36 Y22.33 E3919.71714
G0 F18000 X-36 Y22.21
G1 F2400 X-36 Y26.011 E3919.91468
G0 F18000 X-36 Y25.891
G1 F2400 X-35.999 Y30.209 E3920.13908
G0 F18000 X-35.499 Y30.209
G1 F2400 X-35.5 Y25.773 E3920.36961
G0 F18000 X-35.5 Y25.899
G1 F2400 X-35.5 Y22.318 E3920.55571
G0 F18000 X-35.5 Y22.451
G1 F2400 X-35.5 Y-30.208 E3923.29235
G0 F18000 X-35 Y-30.208
G1 F2400 X-35 Y22.757 E3926.04483
G0 F18000 X-35 Y22.604
G1 F2400 X-35 Y25.608 E3926.20095
G0 F18000 X-35 Y25.453
G1 F2400 X-34.999 Y30.209 E3926.44811
G0 F18000 X-34.499 Y30.209
G1 F2400 X-34.5 Y24.729 E3926.7329
G0 F18000 X-34.5 Y25.019
G1 F2400 X-34.5 Y23.196 E3926.82764
G0 F18000 X-34.5 Y23.474
G1 F2400 X-34.5 Y-30.208 E3929.61744
G0 F18000 X-34 Y-30.208
G1 F2400 X-33.999 Y30.209 E3932.7572
G0 F18000 X-33.499 Y30.209
G1 F2400 X-33.5 Y-30.208 E3935.897
G0 F18000 X-33 Y-30.208
G1 F2400 X-32.999 Y30.209 E3939.03676
G0 F18000 X-32.499 Y30.209
G1 F2400 X-32.5 Y-30.208 E3942.17657
G0 F18000 X-32 Y-30.208
G1 F2400 X-31.999 Y30.209 E3945.31633
G0 F18000 X-31.499 Y30.209
G1 F2400 X-31.5 Y-30.208 E3948.45613
G0 F18000 X-31 Y-30.208
G1 F2400 X-30.999 Y30.209 E3951.59589
G0 F18000 X-30.499 Y30.209
G1 F2400 X-30.5 Y-30.208 E3954.7357
G0 F18000 X-30 Y-30.208
G1 F2400 X-29.999 Y30.209 E3957.87546
G0 F18000 X-29.499 Y30.209
G1 F2400 X-29.5 Y-30.208 E3961.01527
G0 F18000 X-29 Y-30.208
G1 F2400 X-28.999 Y30.209 E3964.15502
G0 F18000 X-28.499 Y30.209
G1 F2400 X-28.5 Y-30.208 E3967.29483
G0 F18000 X-28 Y-30.208
G1 F2400 X-27.999 Y30.209 E3970.43459
G0 F18000 X-27.499 Y30.209
G1 F2400 X-27.5 Y-30.208 E3973.5744
G0 F18000 X-27 Y-30.208
G1 F2400 X-26.999 Y30.209 E3976.71415
G0 F18000 X-26.499 Y30.209
G1 F2400 X-26.5 Y-30.208 E3979.85396
G0 F18000 X-26 Y-30.208
G1 F2400 X-25.999 Y30.209 E3982.99372
G0 F18000 X-25.499 Y30.209
G1 F2400 X-25.5 Y-30.208 E3986.13353
G0 F18000 X-25 Y-30.208
G1 F2400 X-24.999 Y30.209 E3989.27328
G0 F18000 X-24.499 Y30.209
G1 F2400 X-24.5 Y-30.208 E3992.41309
G0 F18000 X-24 Y-30.208
G1 F2400 X-23.999 Y30.209 E3995.55285
G0 F18000 X-23.499 Y30.209
G1 F2400 X-23.5 Y-30.208 E3998.69266
G0 F18000 X-23 Y-30.208
G1 F2400 X-22.999 Y30.209 E4001.83242
G0 F18000 X-22.499 Y30.209
G1 F2400 X-22.5 Y-30.208 E4004.97222
G0 F18000 X-22 Y-30.208
G1 F2400 X-21.999 Y30.209 E4008.11198
G0 F18000 X-21.499 Y30.209
G1 F2400 X-21.5 Y-30.208 E4011.25179
G0 F18000 X-21 Y-30.208
G1 F2400 X-20.999 Y30.209 E4014.39155
G0 F18000 X-20.499 Y30.209
G1 F2400 X-20.5 Y-30.208 E4017.53135
G0 F18000 X-20 Y-30.208
G1 F2400 X-19.999 Y30.209 E4020.67111
G0 F18000 X-19.499 Y30.209
G1 F2400 X-19.5 Y-30.208 E4023.81092
G0 F18000 X-19 Y-30.208
G1 F2400 X-18.999 Y30.209 E4026.95068
G0 F18000 X-18.499 Y30.209
G1 F2400 X-18.5 Y-30.208 E4030.09049
G0 F18000 X-18 Y-30.208
G1 F2400 X-17.999 Y30.209 E4033.23024
G0 F18000 X-17.499 Y30.209
G1 F2400 X-17.5 Y-30.208 E4036.37005
G0 F18000 X-17 Y-30.208
G1 F2400 X-16.999 Y30.209 E4039.50981
G0 F18000 X-16.499 Y30.209
G1 F2400 X-16.5 Y-30.208 E4042.64962
G0 F18000 X-16 Y-30.208
G1 F2400 X-15.999 Y30.209 E4045.78937
G0 F18000 X-15.499 Y30.209
G1 F2400 X-15.5 Y-30.208 E4048.92918
G0 F18000 X-15 Y-30.208
G1 F2400 X-14.999 Y30.209 E4052.06894
G0 F18000 X-14.499 Y30.209
G1 F2400 X-14.5 Y-30.209 E4055.2088
G0 F18000 X-14 Y-30.209
G1 F2400 X-13.999 Y30.209 E4058.34861
G0 F18000 X-13.499 Y30.209
G1 F2400 X-13.5 Y-30.209 E4061.48847
G0 F18000 X-13 Y-30.209
G1 F2400 X-12.999 Y30.209 E4064.62828
G0 F18000 X-12.499 Y30.209
G1 F2400 X-12.5 Y-30.209 E4067.76814
G0 F18000 X-12 Y-30.209
G1 F2400 X-11.999 Y30.209 E4070.90795
G0 F18000 X-11.499 Y30.209
G1 F2400 X-11.5 Y-30.209 E4074.04781
G0 F18000 X-11 Y-30.209
G1 F2400 X-10.999 Y30.209 E4077.18762
G0 F18000 X-10.499 Y30.209
G1 F2400 X-10.5 Y-30.209 E4080.32748
G0 F18000 X-10 Y-30.209
G1 F2400 X-9.999 Y30.209 E4083.46729
G0 F18000 X-9.499 Y30.209
G1 F2400 X-9.5 Y-30.209 E4086.60715
G0 F18000 X-9 Y-30.209
G1 F2400 X-8.999 Y30.209 E4089.74696
G0 F18000 X-8.499 Y30.209
G1 F2400 X-8.5 Y-30.209 E4092.88682
G0 F18000 X-8 Y-30.209
G1 F2400 X-7.999 Y30.209 E4096.02662
G0 F18000 X-7.499 Y30.209
G1 F2400 X-7.5 Y-30.209 E4099.16649
G0 F18000 X-7 Y-30.209
G1 F2400 X-6.999 Y30.209 E4102.30629
G0 F18000 X-6.499 Y30.209
G1 F2400 X-6.5 Y-30.209 E4105.44615
G0 F18000 X-6 Y-30.209
G1 F2400 X-5.999 Y30.209 E4108.58596
G0 F18000 X-5.499 Y30.209
G1 F2400 X-5.5 Y-30.209 E4111.72582
G0 F18000 X-5 Y-30.209
G1 F2400 X-4.999 Y30.209 E4114.86563
G0 F18000 X-4.499 Y30.209
G1 F2400 X-4.5 Y-30.209 E4118.00549
G0 F18000 X-4 Y-30.209
G1 F2400 X-3.999 Y30.209 E4121.1453
G0 F18000 X-3.499 Y30.209
G1 F2400 X-3.5 Y-30.209 E4124.28516
G0 F18000 X-3 Y-30.209
G1 F2400 X-2.999 Y30.209 E4127.42497
G0 F18000 X-2.499 Y30.209
G1 F2400 X-2.5 Y-30.209 E4130.56483
G0 F18000 X-2 Y-30.209
G1 F2400 X-1.999 Y30.209 E4133.70464
G0 F18000 X-1.499 Y30.209
G1 F2400 X-1.5 Y-30.209 E4136.8445
G0 F18000 X-1 Y-30.209
G1 F2400 X-0.999 Y30.209 E4139.98431
G0 F18000 X-0.499 Y30.209
G1 F2400 X-0.5 Y-30.209 E4143.12417
G0 F18000 X0 Y-30.209
G1 F2400 X0 Y30.21 E4146.26403
G0 F18000 X0.5 Y30.21
G1 F2400 X0.499 Y-30.208 E4149.40389
G0 F18000 X0.999 Y-30.208
G1 F2400 X1 Y30.21 E4152.5437
G0 F18000 X1.5 Y30.21
G1 F2400 X1.499 Y-30.208 E4155.68356
G0 F18000 X1.999 Y-30.208
G1 F2400 X2 Y30.21 E4158.82337
G0 F18000 X2.5 Y30.21
G1 F2400 X2.499 Y-30.208 E4161.96323
G0 F18000 X2.999 Y-30.208
G1 F2400 X3 Y30.21 E4165.10304
G0 F18000 X3.5 Y30.21
G1 F2400 X3.499 Y-30.208 E4168.2429
G0 F18000 X3.999 Y-30.208
G1 F2400 X4 Y30.21 E4171.38271
G0 F18000 X4.5 Y30.21
G1 F2400 X4.499 Y-30.208 E4174.52257
G0 F18000 X4.999 Y-30.208
G1 F2400 X5 Y30.21 E4177.66238
G0 F18000 X5.5 Y30.21
G1 F2400 X5.499 Y-30.208 E4180.80224
G0 F18000 X5.999 Y-30.208
G1 F2400 X6 Y30.21 E4183.94205
G0 F18000 X6.5 Y30.21
G1 F2400 X6.499 Y-30.208 E4187.08191
G0 F18000 X6.999 Y-30.208
G1 F2400 X7 Y30.21 E4190.22172
G0 F18000 X7.5 Y30.21
G1 F2400 X7.499 Y-30.208 E4193.36158
G0 F18000 X7.999 Y-30.208
G1 F2400 X8 Y30.21 E4196.50139
G0 F18000 X8.5 Y30.21
G1 F2400 X8.499 Y-30.208 E4199.64125
G0 F18000 X8.999 Y-30.208
G1 F2400 X9 Y30.21 E4202.78106
G0 F18000 X9.5 Y30.21
G1 F2400 X9.499 Y-30.208 E4205.92092
G0 F18000 X9.999 Y-30.208
G1 F2400 X10 Y30.21 E4209.06073
G0 F18000 X10.5 Y30.21
G1 F2400 X10.499 Y-30.208 E4212.20059
G0 F18000 X10.999 Y-30.208
G1 F2400 X11 Y30.21 E4215.3404
G0 F18000 X11.5 Y30.21
G1 F2400 X11.499 Y-30.208 E4218.48026
G0 F18000 X11.999 Y-30.208
G1 F2400 X12 Y30.21 E4221.62006
G0 F18000 X12.5 Y30.21
G1 F2400 X12.499 Y-30.208 E4224.75993
G0 F18000 X12.999 Y-30.208
G1 F2400 X13 Y30.21 E4227.89973
G0 F18000 X13.5 Y30.21
G1 F2400 X13.499 Y-30.208 E4231.0396
G0 F18000 X13.999 Y-30.208
G1 F2400 X13.999 Y-20.034 E4231.56828
G0 F18000 X13.999 Y-20.227
G1 F2400 X13.999 Y-17.844 E4231.69207
G0 F18000 X13.999 Y-18.036
G1 F2400 X14 Y7.872 E4233.03843
G0 F18000 X14 Y7.679
G1 F2400 X14 Y10.079 E4233.16315
G0 F18000 X14 Y9.877
G1 F2400 X14 Y30.21 E4234.21984
G0 F18000 X14.5 Y30.21
G1 F2400 X14.5 Y10.371 E4235.25085
G0 F18000 X14.5 Y10.519
G1 F2400 X14.5 Y7.243 E4235.4211
G0 F18000 X14.5 Y7.384
G1 F2400 X14.499 Y-17.539 E4236.71632
G0 F18000 X14.499 Y-17.401
G1 F2400 X14.499 Y-20.664 E4236.88595
G0 F18000 X14.499 Y-20.523
G1 F2400 X14.499 Y-30.208 E4237.38932
G0 F18000 X14.999 Y-30.208
G1 F2400 X14.999 Y-20.753 E4237.88063
G0 F18000 X14.999 Y-20.877
G1 F2400 X14.999 Y-17.185 E4238.07245
G0 F18000 X14.999 Y-17.312
G1 F2400 X15 Y7.153 E4239.34382
G0 F18000 X15 Y7.029
G1 F2400 X15 Y10.723 E4239.53579
G0 F18000 X15 Y10.597
G1 F2400 X15 Y30.209 E4240.55501
G0 F18000 X15.5 Y30.209
G1 F2400 X15.5 Y10.66 E4241.57095
G0 F18000 X15.5 Y10.781
G1 F2400 X15.5 Y6.967 E4241.76916
G0 F18000 X15.5 Y7.087
G1 F2400 X15.499 Y-17.246 E4243.03372
G0 F18000 X15.499 Y-17.126
G1 F2400 X15.499 Y-20.939 E4243.23193
G0 F18000 X15.499 Y-20.819
G1 F2400 X15.499 Y-30.208 E4243.71992
G0 F18000 X15.999 Y-30.208
G1 F2400 X15.999 Y-20.742 E4244.2118
G0 F18000 X15.999 Y-20.867
G1 F2400 X15.999 Y-17.193 E4244.40269
G0 F18000 X15.999 Y-17.321
G1 F2400 X16 Y7.164 E4245.67509
G0 F18000 X16 Y7.04
G1 F2400 X16 Y10.717 E4245.86618
G0 F18000 X16 Y10.589
G1 F2400 X16 Y30.209 E4246.88581
G0 F18000 X16.5 Y30.209
G1 F2400 X16.5 Y10.35 E4247.91787
G0 F18000 X16.5 Y10.488
G1 F2400 X16.5 Y7.256 E4248.08583
G0 F18000 X16.5 Y7.404
G1 F2400 X16.499 Y-17.555 E4249.38292
G0 F18000 X16.499 Y-17.417
G1 F2400 X16.499 Y-20.65 E4249.55099
G0 F18000 X16.499 Y-20.502
G1 F2400 X16.499 Y-30.208 E4250.05545
G0 F18000 X16.999 Y-30.208
G1 F2400 X16.999 Y-19.972 E4250.58736
G0 F18000 X16.999 Y-20.192
G1 F2400 X16.999 Y-17.874 E4250.70777
G0 F18000 X16.999 Y-18.09
G1 F2400 X17 Y7.937 E4252.06031
G0 F18000 X17 Y7.714
G1 F2400 X17 Y10.039 E4252.18114
G0 F18000 X17 Y9.824
G1 F2400 X17 Y30.209 E4253.24053
G0 F18000 X17.5 Y30.209
G1 F2400 X17.499 Y-30.208 E4256.38034
G0 F18000 X17.999 Y-30.208
G1 F2400 X18 Y30.209 E4259.52009
G0 F18000 X18.5 Y30.209
G1 F2400 X18.499 Y-30.208 E4262.6599
G0 F18000 X18.999 Y-30.208
G1 F2400 X19 Y30.209 E4265.79966
G0 F18000 X19.5 Y30.209
G1 F2400 X19.499 Y-30.208 E4268.93947
G0 F18000 X19.999 Y-30.208
G1 F2400 X20 Y30.209 E4272.07922
G0 F18000 X20.5 Y30.209
G1 F2400 X20.499 Y-30.208 E4275.21903
G0 F18000 X20.999 Y-30.208
G1 F2400 X21 Y30.209 E4278.35879
G0 F18000 X21.5 Y30.209
G1 F2400 X21.499 Y-30.208 E4281.4986
G0 F18000 X21.999 Y-30.208
G1 F2400 X22 Y30.209 E4284.63835
G0 F18000 X22.5 Y30.209
G1 F2400 X22.499 Y-30.208 E4287.77816
G0 F18000 X22.999 Y-30.208
G1 F2400 X23 Y30.209 E4290.91792
G0 F18000 X23.5 Y30.209
G1 F2400 X23.499 Y-30.208 E4294.05773
G0 F18000 X23.999 Y-30.208
G1 F2400 X24 Y30.209 E4297.19749
G0 F18000 X24.5 Y30.209
G1 F2400 X24.499 Y-30.208 E4300.33729
G0 F18000 X24.999 Y-30.208
G1 F2400 X25 Y30.209 E4303.47705
G0 F18000 X25.5 Y30.209
G1 F2400 X25.499 Y-30.208 E4306.61686
G0 F18000 X25.999 Y-30.208
G1 F2400 X26 Y30.209 E4309.75662
G0 F18000 X26.5 Y30.209
G1 F2400 X26.499 Y-30.208 E4312.89643
G0 F18000 X26.999 Y-30.208
G1 F2400 X27 Y30.209 E4316.03618
G0 F18000 X27.5 Y30.209
G1 F2400 X27.499 Y-30.208 E4319.17599
G0 F18000 X27.999 Y-30.208
G1 F2400 X28 Y30.209 E4322.31575
G0 F18000 X28.5 Y30.209
G1 F2400 X28.499 Y-30.208 E4325.45556
G0 F18000 X28.999 Y-30.208
G1 F2400 X29 Y30.209 E4328.59531
G0 F18000 X29.5 Y30.209
G1 F2400 X29.499 Y-30.208 E4331.73512
G0 F18000 X29.999 Y-30.208
G1 F2400 X30 Y30.209 E4334.87488
G0 F18000 X30.5 Y30.209
G1 F2400 X30.499 Y-30.208 E4338.01469
G0 F18000 X30.999 Y-30.208
G1 F2400 X31 Y30.209 E4341.15444
G0 F18000 X31.5 Y30.209
G1 F2400 X31.499 Y-30.208 E4344.29425
G0 F18000 X31.999 Y-30.208
G1 F2400 X32 Y30.209 E4347.43401
G0 F18000 X32.5 Y30.209
G1 F2400 X32.499 Y-30.208 E4350.57382
G0 F18000 X32.999 Y-30.208
G1 F2400 X33 Y30.209 E4353.71357
G0 F18000 X33.5 Y30.209
G1 F2400 X33.499 Y-30.208 E4356.85338
G0 F18000 X33.999 Y-30.208
G1 F2400 X34 Y30.209 E4359.99314
G0 F18000 X34.5 Y30.209
G1 F2400 X34.499 Y-30.208 E4363.13295
G0 F18000 X34.999 Y-30.208
G1 F2400 X35 Y30.209 E4366.27271
G0 F18000 X35.5 Y30.209
G1 F2400 X35.499 Y-30.208 E4369.41251
G0 F18000 X35.999 Y-30.208
G1 F2400 X36 Y30.209 E4372.55227
G0 F18000 X36.5 Y30.209
G1 F2400 X36.499 Y-30.208 E4375.69208
G0 F18000 X36.999 Y-30.208
G1 F2400 X37 Y30.209 E4378.83184
G0 F18000 X37.5 Y30.209
G1 F2400 X37.499 Y-30.208 E4381.97165
G0 F18000 X37.999 Y-30.208
G1 F2400 X38 Y23.004 E4384.73697
G0 F18000 X38 Y22.809
G1 F2400 X38 Y25.405 E4384.87188
G0 F18000 X38 Y25.216
G1 F2400 X38 Y30.209 E4385.13136
G0 F18000 X38.5 Y30.209
G1 F2400 X38.5 Y25.656 E4385.36797
G0 F18000 X38.5 Y25.795
G1 F2400 X38.5 Y22.427 E4385.543
G0 F18000 X38.5 Y22.568
G1 F2400 X38.499 Y-30.208 E4388.28572
G0 F18000 X38.999 Y-30.208
G1 F2400 X39 Y22.37 E4391.01809
G0 F18000 X39 Y22.247
G1 F2400 X39 Y25.975 E4391.21183
G0 F18000 X39 Y25.852
G1 F2400 X39 Y30.209 E4391.43826
G0 F18000 X39.5 Y30.209
G1 F2400 X39.5 Y25.899 E4391.66225
G0 F18000 X39.5 Y26.02
G1 F2400 X39.5 Y22.204 E4391.86056
G0 F18000 X39.5 Y22.324
G1 F2400 X39.499 Y-30.208 E4394.59059
G0 F18000 X39.999 Y-30.208
G1 F2400 X40 Y22.418 E4397.32546
G0 F18000 X40 Y22.293
G1 F2400 X40 Y25.926 E4397.51426
G0 F18000 X40 Y25.797
G1 F2400 X40 Y30.209 E4397.74355
G0 F18000 X40.5 Y30.209
G1 F2400 X40.5 Y25.53 E4397.98671
G0 F18000 X40.5 Y25.673
G1 F2400 X40.5 Y22.547 E4398.14917
G0 F18000 X40.5 Y22.693
G1 F2400 X40.499 Y-30.208 E4400.89838
G0 F18000 X40.999 Y-30.208
G1 F2400 X41 Y23.292 E4403.67866
G0 F18000 X41 Y23.059
G1 F2400 X41 Y25.173 E4403.78853
G0 F18000 X41 Y24.931
G1 F2400 X41 Y30.209 E4404.06282
G0 F18000 X41.5 Y30.209
G1 F2400 X41.499 Y-30.208 E4407.20263
G0 F18000 X41.999 Y-30.208
G1 F2400 X42 Y30.209 E4410.34238
G0 F18000 X42.5 Y30.209
G1 F2400 X42.499 Y-30.208 E4413.48219
G0 F18000 X42.999 Y-30.208
G1 F2400 X43 Y30.209 E4416.62195
G0 F18000 X43.5 Y30.209
G1 F2400 X43.499 Y-30.208 E4419.76176
G0 F18000 X43.999 Y-30.208
G1 F2400 X44 Y-24.563 E4420.05507
G0 F18000 X44 Y-24.912
G1 F2400 X44 Y-23.305 E4420.13853
G0 F18000 X44 Y-23.659
G1 F2400 X44 Y30.209 E4422.93795
G0 F18000 X44.5 Y30.209
G1 F2400 X44.5 Y-22.81 E4425.69329
G0 F18000 X44.5 Y-22.652
G1 F2400 X44.5 Y-25.569 E4425.84493
G0 F18000 X44.5 Y-25.406
G1 F2400 X44.499 Y-30.208 E4426.09454
G0 F18000 X44.999 Y-30.208
G1 F2400 X45 Y-25.738 E4426.32679
G0 F18000 X45 Y-25.869
G1 F2400 X45 Y-22.345 E4426.50988
G0 F18000 X45 Y-22.473
G1 F2400 X45 Y30.209 E4429.24765
G0 F18000 X45.5 Y30.209
G1 F2400 X45.5 Y-22.334 E4431.97826
G0 F18000 X45.5 Y-22.212
G1 F2400 X45.5 Y-26.003 E4432.17532
G0 F18000 X45.5 Y-25.883
G1 F2400 X45.499 Y-30.208 E4432.40014
G0 F18000 X45.999 Y-30.208
G1 F2400 X46 Y-25.876 E4432.62522
G0 F18000 X46 Y-25.997
G1 F2400 X46 Y-22.219 E4432.82151
G0 F18000 X46 Y-22.34
G1 F2400 X46 Y30.209 E4435.55237
G0 F18000 X46.5 Y30.209
G1 F2400 X46.5 Y-22.488 E4438.29098
G0 F18000 X46.5 Y-22.356
G1 F2400 X46.5 Y-25.856 E4438.47292
G0 F18000 X46.5 Y-25.723
G1 F2400 X46.499 Y-30.208 E4438.70606
G0 F18000 X46.999 Y-30.208
G1 F2400 X47 Y-25.368 E4438.95753
G0 F18000 X47 Y-25.541
G1 F2400 X47 Y-22.682 E4439.10606
G0 F18000 X47 Y-22.841
G1 F2400 X47 Y30.209 E4441.86296
G0 F18000 X47.5 Y30.209
G1 F2400 X47.5 Y-23.872 E4444.6735
G0 F18000 X47.5 Y-24.35
G1 F2400 X47.499 Y-30.208 E4444.97798
G0 F18000 X47.999 Y-30.208
G1 F2400 X48 Y30.209 E4448.11774
G0 F18000 X48.5 Y30.209
G1 F2400 X48.499 Y-30.208 E4451.25755
G0 F18000 X48.999 Y-30.208
G1 F2400 X49 Y30.209 E4454.3973
G0 F18000 X49.5 Y30.209
G1 F2400 X49.499 Y-30.208 E4457.53711
G0 F18000 X49.999 Y-30.208
G1 F2400 X50 Y30.209 E4460.67687
G0 F18000 X50.5 Y30.209
G1 F2400 X50.499 Y-30.208 E4463.81668
G0 F18000 X50.999 Y-30.208
G1 F2400 X51 Y30.209 E4466.95644
G0 F18000 X51.5 Y30.209
G1 F2400 X51.499 Y-30.208 E4470.09624
G0 F18000 X51.999 Y-30.208
G1 F2400 X52 Y30.209 E4473.236
G0 F18000 X52.5 Y30.209
G1 F2400 X52.499 Y-30.208 E4476.37581
G0 F18000 X52.999 Y-30.208
G1 F2400 X53 Y30.209 E4479.51557
G0 F18000 X53.5 Y30.209
G1 F2400 X53.499 Y-30.208 E4482.65538
G0 F18000 X53.999 Y-30.12
G1 F2400 X54 Y30.113 E4485.78557
G0 F18000 X37.5 Y24.262
G0 X37.5 Y24.262
G1 F2400 X37.5 Y24.015 E4485.79841
G0 F18000 X47.5 Y-23.392
G0 X47.5 Y-23.392
G1 F2400 X47.5 Y-24.808 E4485.87205
G0 F18000 X-38 Y23.547
G1 F2400 X-38 Y24.666 E4485.9302
G0 F18000 X-53.999 Y30.12
G0 X-53.999 Y30.12
G1 F2400 X-54 Y16.664 E4486.62949
G0 F18000 X-54 Y16.784
G1 F2400 X-54 Y6.097 E4487.18489
G0 F18000 X-54 Y6.217
G1 F2400 X-54 Y-14.998 E4488.28741
G0 F18000 X-54 Y-14.878
G1 F2400 X-54 Y-22.727 E4488.69536
G0 F18000 X-54 Y-22.607
G1 F2400 X-54 Y-30.112 E4489.08544
G0 F18000 X-53 Y-22.727
G0 X-53 Y-22.727
G1 F2400 X-53 Y-14.878 E4489.4933
G0 F18000 X-53 Y6.097
G1 F2400 X-53 Y16.784 E4490.04869
; LAYER:6
G0 F18000 X-54.46 Y29.597 Z1.8
G0 X-54.46 Y29.597
; TYPE:WALL-INNER
G1 F2400 X-54.452 Y-29.655 E4493.12795
G1 X-54.418 Y-29.885 E4493.14008
G1 X-54.349 Y-30.035 E4493.14869
G1 X-54.235 Y-30.182 E4493.15836
G1 X-54.083 Y-30.298 E4493.16829
G1 X-53.93 Y-30.363 E4493.1769
G1 X-53.658 Y-30.399 E4493.19112
G1 X53.659 Y-30.399 E4498.76822
G1 X53.931 Y-30.363 E4498.78247
G1 X54.084 Y-30.298 E4498.79109
G1 X54.253 Y-30.162 E4498.80233
G1 X54.366 Y-30.006 E4498.8123
G1 X54.43 Y-29.83 E4498.82198
G1 X54.461 Y-29.596 E4498.8342
G1 X54.453 Y29.656 E4501.91341
G1 X54.419 Y29.886 E4501.92549
G1 X54.35 Y30.036 E4501.93407
G1 X54.244 Y30.175 E4501.94316
G1 X54.084 Y30.299 E4501.95368
G1 X53.931 Y30.364 E4501.96232
G1 X53.659 Y30.4 E4501.97657
G1 X-53.658 Y30.4 E4507.55373
G1 X-53.93 Y30.364 E4507.56804
G1 X-54.083 Y30.299 E4507.57672
G1 X-54.252 Y30.164 E4507.58801
G1 X-54.365 Y30.007 E4507.59809
G1 X-54.429 Y29.831 E4507.60784
G1 X-54.46 Y29.597 E4507.62011
G0 F18000 X-54.96 Y29.632
; TYPE:WALL-OUTER
G1 F2100 X-54.952 Y-29.695 E4510.70328
G1 X-54.906 Y-30.005 E4510.71961
G1 X-54.852 Y-30.153 E4510.72783
G1 X-54.779 Y-30.293 E4510.73605
G1 X-54.59 Y-30.537 E4510.7521
G1 X-54.475 Y-30.637 E4510.76002
G1 X-54.333 Y-30.732 E4510.76888
G1 X-54.189 Y-30.803 E4510.7772
G1 X-54.041 Y-30.853 E4510.78529
G1 X-53.692 Y-30.899 E4510.80354
G1 X53.693 Y-30.899 E4516.38417
G1 X54.042 Y-30.853 E4516.40246
G1 X54.19 Y-30.803 E4516.41056
G1 X54.334 Y-30.732 E4516.41888
G1 X54.471 Y-30.64 E4516.42743
G1 X54.609 Y-30.515 E4516.43707
G1 X54.719 Y-30.385 E4516.44588
G1 X54.871 Y-30.109 E4516.46221
G1 X54.922 Y-29.924 E4516.47213
G1 X54.961 Y-29.631 E4516.48744
G1 X54.953 Y29.696 E4519.57056
G1 X54.907 Y30.006 E4519.58684
G1 X54.853 Y30.154 E4519.59503
G1 X54.78 Y30.294 E4519.60323
G1 X54.594 Y30.534 E4519.61901
G1 X54.472 Y30.641 E4519.62745
G1 X54.334 Y30.733 E4519.63607
G1 X54.19 Y30.804 E4519.64441
G1 X54.042 Y30.854 E4519.65253
G1 X53.693 Y30.9 E4519.67082
G1 X-53.692 Y30.9 E4525.25151
G1 X-54.041 Y30.854 E4525.26986
G1 X-54.189 Y30.804 E4525.27802
G1 X-54.333 Y30.733 E4525.28641
G1 X-54.47 Y30.641 E4525.29503
G1 X-54.612 Y30.513 E4525.30501
G1 X-54.715 Y30.39 E4525.31338
G1 X-54.87 Y30.11 E4525.33004
G1 X-54.921 Y29.925 E4525.34002
G1 X-54.96 Y29.632 E4525.35539
G0 F18000 X-54.27 Y29.5
; TYPE:FILL
G1 F2400 X54.263 Y29.499 E4530.99569
G0 F18000 X54.263 Y28.999
G1 F2400 X-54.27 Y29 E4536.63603
G0 F18000 X-54.27 Y28.5
G1 F2400 X54.263 Y28.499 E4542.27633
G0 F18000 X54.263 Y27.999
G1 F2400 X-54.27 Y28 E4547.91668
G0 F18000 X-54.27 Y27.5
G1 F2400 X54.263 Y27.499 E4553.55697
G0 F18000 X54.263 Y26.999
G1 F2400 X-54.27 Y27 E4559.19732
G0 F18000 X-54.27 Y26.5
G1 F2400 X54.263 Y26.499 E4564.83761
G0 F18000 X54.263 Y25.999
G1 F2400 X-54.27 Y26 E4570.47796
G0 F18000 X-54.269 Y25.5
G1 F2400 X-37.303 Y25.5 E4571.35961
G0 F18000 X-37.479 Y25.5
G1 F2400 X-34.871 Y25.5 E4571.4951
G0 F18000 X-35.063 Y25.5
G1 F2400 X38.271 Y25.499 E4575.30614
G0 F18000 X38.097 Y25.499
G1 F2400 X40.711 Y25.499 E4575.44198
G0 F18000 X40.534 Y25.499
G1 F2400 X54.264 Y25.499 E4576.15552
G0 F18000 X54.264 Y24.999
G1 F2400 X40.961 Y24.999 E4576.84686
G0 F18000 X41.092 Y24.999
G1 F2400 X37.72 Y24.999 E4577.0221
G0 F18000 X37.855 Y24.999
G1 F2400 X-34.631 Y25 E4580.78912
G0 F18000 X-34.491 Y25
G1 F2400 X-37.861 Y25 E4580.96431
G0 F18000 X-37.727 Y25
G1 F2400 X-54.269 Y25 E4581.82403
G0 F18000 X-54.269 Y24.5
G1 F2400 X-37.921 Y24.5 E4582.67357
G0 F18000 X-38.042 Y24.5
G1 F2400 X-34.31 Y24.5 E4582.86746
G0 F18000 X-34.432 Y24.5
G1 F2400 X37.656 Y24.499 E4586.61375
G0 F18000 X37.535 Y24.499
G1 F2400 X41.269 Y24.499 E4586.8078
G0 F18000 X41.146 Y24.499
G1 F2400 X54.264 Y24.499 E4587.48953
G0 F18000 X54.264 Y23.999
G1 F2400 X41.187 Y23.999 E4588.16913
G0 F18000 X41.308 Y23.999
G1 F2400 X37.5 Y23.999 E4588.36703
G0 F18000 X37.621 Y23.999
G1 F2400 X-34.388 Y24 E4592.10926
G0 F18000 X-34.267 Y24
G1 F2400 X-38.082 Y24 E4592.30757
G0 F18000 X-37.962 Y24
G1 F2400 X-54.269 Y24 E4593.15508
G0 F18000 X-54.269 Y23.5
G1 F2400 X-37.854 Y23.5 E4594.0081
G0 F18000 X-37.982 Y23.5
G1 F2400 X-34.368 Y23.5 E4594.19587
G0 F18000 X-34.493 Y23.5
G1 F2400 X37.727 Y23.499 E4597.94901
G0 F18000 X37.599 Y23.499
G1 F2400 X41.212 Y23.499 E4598.13678
G0 F18000 X41.087 Y23.499
G1 F2400 X54.264 Y23.499 E4598.82157
G0 F18000 X54.264 Y22.999
G1 F2400 X40.809 Y22.999 E4599.52081
G0 F18000 X40.956 Y22.999
G1 F2400 X37.854 Y22.999 E4599.68202
G0 F18000 X38.01 Y22.999
G1 F2400 X-34.769 Y23 E4603.46427
G0 F18000 X-34.624 Y23
G1 F2400 X-37.728 Y23 E4603.62563
G0 F18000 X-37.568 Y23
G1 F2400 X-54.269 Y23 E4604.49362
G0 F18000 X-54.269 Y22.5
G1 F2400 X-36.944 Y22.5 E4605.39393
G0 F18000 X-37.199 Y22.5
G1 F2400 X-35.162 Y22.5 E4605.49974
G0 F18000 X-35.399 Y22.5
G1 F2400 X38.641 Y22.499 E4609.34747
G0 F18000 X38.394 Y22.499
G1 F2400 X40.431 Y22.499 E4609.45333
G0 F18000 X40.17 Y22.499
G1 F2400 X54.264 Y22.499 E4610.18578
G0 F18000 X54.264 Y21.999
G1 F2400 X-54.269 Y22 E4615.82613
G0 F18000 X-54.269 Y21.5
G1 F2400 X54.264 Y21.499 E4621.46642
G0 F18000 X54.264 Y20.999
G1 F2400 X-54.269 Y21 E4627.10677
G0 F18000 X-54.269 Y20.5
G1 F2400 X54.264 Y20.499 E4632.74707
G0 F18000 X54.264 Y19.999
G1 F2400 X-54.269 Y20 E4638.38741
G0 F18000 X-54.269 Y19.5
G1 F2400 X54.264 Y19.499 E4644.02771
G0 F18000 X54.264 Y18.999
G1 F2400 X-54.269 Y19 E4649.66806
G0 F18000 X-54.269 Y18.5
G1 F2400 X54.265 Y18.499 E4655.3084
G0 F18000 X54.265 Y17.999
G1 F2400 X-54.268 Y18 E4660.94875
G0 F18000 X-54.268 Y17.5
G1 F2400 X54.265 Y17.499 E4666.58904
G0 F18000 X54.265 Y16.999
G1 F2400 X-54.268 Y17 E4672.22939
G0 F18000 X-54.268 Y16.5
G1 F2400 X-54.148 Y16.5 E4672.23558
G0 F18000 X-54.268 Y16.5
G1 F2400 X-52.9 Y16.5 E4672.30662
G0 F18000 X-53.02 Y16.5
G1 F2400 X54.265 Y16.499 E4677.88206
G0 F18000 X54.265 Y15.999
G1 F2400 X-53.02 Y16 E4683.45755
G0 F18000 X-52.9 Y16
G1 F2400 X-54.268 Y16 E4683.52869
G1 X-54.148 Y16 E4683.53488
G0 F18000 X-54.148 Y15.5
G1 F2400 X-54.268 Y15.5 E4683.54116
G1 X-52.9 Y15.5 E4683.61221
G0 F18000 X-53.02 Y15.5
G1 F2400 X54.265 Y15.499 E4689.18764
G0 F18000 X54.265 Y14.999
G1 F2400 X-53.02 Y15 E4694.76313
G0 F18000 X-52.9 Y15
G1 F2400 X-54.268 Y15 E4694.83428
G1 X-54.148 Y15 E4694.84046
G0 F18000 X-54.148 Y14.5
G1 F2400 X-54.268 Y14.5 E4694.84675
G1 X-52.9 Y14.5 E4694.91779
G0 F18000 X-53.02 Y14.5
G1 F2400 X54.265 Y14.499 E4700.49323
G0 F18000 X54.265 Y13.999
G1 F2400 X-53.02 Y14 E4706.06872
G0 F18000 X-52.9 Y14
G1 F2400 X-54.268 Y14 E4706.13987
G1 X-54.148 Y14 E4706.14605
G0 F18000 X-54.148 Y13.5
G1 F2400 X-54.268 Y13.5 E4706.15234
G1 X-52.9 Y13.5 E4706.22338
