; Generated with MatterSlice 1.0
; filamentDiameter = 1.75
; extrusionWidth = 0.5
; firstLayerExtrusionWidth = 0.4
; layerThickness = 0.25
; firstLayerThickness = 0.3
; automatic settings before start_gcode
G21 ; set units to millimeters
M107 ; fan off
T0 ; set the active extruder to 0
; settings from start_gcode
M104 S190
M190 S60
M109 S190
G28
; automatic settings after start_gcode
T0 ; set the active extruder to 0
G90 ; use absolute coordinates
G92 E0 ; reset the expected extruder position
M82 ; use absolute distance for extrusion
; Layer count: 36
; LAYER:0
M107
G0 F18000 X53.04 Y-33.745 Z0.3
; TYPE:SKIRT
G1 Z0.3
G1 F6600 E0
G1 F720 X54.017 Y-33.609 E0.04921
G1 X54.759 Y-33.348 E0.08843
G1 X55.357 Y-33.047 E0.12181
G1 X55.89 Y-32.682 E0.15401
G1 X56.372 Y-32.264 E0.18581
G1 X56.816 Y-31.754 E0.21951
G1 X57.183 Y-31.205 E0.25241
G1 X57.48 Y-30.604 E0.28581
G1 X57.733 Y-29.857 E0.32511
G1 X57.861 Y-28.885 E0.37397
G1 X57.861 Y28.886 E3.25613
G1 X57.733 Y29.858 E3.30504
G1 X57.48 Y30.605 E3.34439
G1 X57.183 Y31.206 E3.37784
G1 X56.808 Y31.767 E3.4115
G1 X56.338 Y32.297 E3.44684
G1 X55.828 Y32.732 E3.48028
G1 X55.275 Y33.096 E3.51331
G1 X54.638 Y33.402 E3.54857
G1 X53.89 Y33.633 E3.58763
G1 X52.996 Y33.75 E3.63261
G1 X-53.039 Y33.746 E8.92272
G1 X-54.016 Y33.61 E8.97198
G1 X-54.758 Y33.349 E9.01127
G1 X-55.356 Y33.048 E9.04471
G1 X-55.894 Y32.679 E9.0773
G1 X-56.369 Y32.265 E9.10878
G1 X-56.811 Y31.761 E9.14225
G1 X-57.182 Y31.206 E9.17559
G1 X-57.479 Y30.605 E9.20905
G1 X-57.732 Y29.858 E9.24842
G1 X-57.86 Y28.886 E9.29734
G1 X-57.86 Y-28.885 E12.17954
G1 X-57.732 Y-29.857 E12.2285
G1 X-57.479 Y-30.604 E12.26788
G1 X-57.182 Y-31.205 E12.30134
G1 X-56.803 Y-31.772 E12.33538
G1 X-56.335 Y-32.296 E12.37044
G1 X-55.832 Y-32.728 E12.40351
G1 X-55.287 Y-33.087 E12.43606
G1 X-54.671 Y-33.389 E12.47026
G1 X-53.894 Y-33.631 E12.51083
G1 X-52.995 Y-33.749 E12.55602
G1 X53.04 Y-33.745 E17.84608
G0 F18000 X53.012 Y-33.345
G1 F720 X53.922 Y-33.218 E17.89191
G1 X54.602 Y-32.979 E17.92786
G1 X55.154 Y-32.702 E17.95865
G1 X55.645 Y-32.365 E17.98833
G1 X56.088 Y-31.98 E18.01758
G1 X56.497 Y-31.511 E18.04859
G1 X56.836 Y-31.004 E18.07897
G1 X57.11 Y-30.451 E18.10972
G1 X57.342 Y-29.766 E18.14575
G1 X57.461 Y-28.858 E18.19139
G1 X57.461 Y28.859 E21.07086
G1 X57.342 Y29.767 E21.11654
G1 X57.11 Y30.452 E21.15262
G1 X56.836 Y31.005 E21.18341
G1 X56.49 Y31.523 E21.21449
G1 X56.057 Y32.011 E21.24704
G1 X55.587 Y32.412 E21.27786
G1 X55.078 Y32.747 E21.30827
G1 X54.492 Y33.029 E21.34071
G1 X53.804 Y33.241 E21.37663
G1 X52.97 Y33.35 E21.41859
G1 X-53.011 Y33.346 E26.706
G1 X-53.921 Y33.219 E26.75189
G1 X-54.601 Y32.98 E26.7879
G1 X-55.153 Y32.703 E26.81876
G1 X-55.649 Y32.363 E26.8488
G1 X-56.085 Y31.981 E26.87776
G1 X-56.493 Y31.517 E26.90861
G1 X-56.835 Y31.005 E26.93936
G1 X-57.109 Y30.452 E26.97017
G1 X-57.341 Y29.767 E27.00627
G1 X-57.46 Y28.859 E27.05196
G1 X-57.46 Y-28.858 E29.93148
G1 X-57.341 Y-29.766 E29.97721
G1 X-57.109 Y-30.451 E30.01332
G1 X-56.835 Y-31.004 E30.04413
G1 X-56.486 Y-31.526 E30.07548
G1 X-56.055 Y-32.01 E30.10781
G1 X-55.591 Y-32.408 E30.13831
G1 X-55.088 Y-32.739 E30.16833
G1 X-54.522 Y-33.017 E30.19977
G1 X-53.808 Y-33.239 E30.23704
G1 X-52.969 Y-33.349 E30.27921
G1 X53.012 Y-33.345 E35.56658
G0 F18000 X52.776 Y-29.945
; TYPE:WALL-OUTER
G1 F720 X53.114 Y-29.898 E35.5836
G1 X53.268 Y-29.844 E35.59172
G1 X53.423 Y-29.766 E35.60036
G1 X53.68 Y-29.568 E35.61651
G1 X53.793 Y-29.439 E35.62503
G1 X53.886 Y-29.3 E35.63333
G1 X53.963 Y-29.144 E35.64197
G1 X54.014 Y-28.992 E35.64992
G1 X54.061 Y-28.638 E35.66768
G1 X54.061 Y28.639 E38.5252
G1 X54.014 Y28.993 E38.54301
G1 X53.963 Y29.145 E38.55101
G1 X53.886 Y29.301 E38.55969
G1 X53.796 Y29.436 E38.56778
G1 X53.669 Y29.579 E38.57733
G1 X53.541 Y29.688 E38.58571
G1 X53.399 Y29.782 E38.59421
G1 X53.248 Y29.854 E38.60256
G1 X53.076 Y29.907 E38.61154
G1 X52.75 Y29.95 E38.62794
G1 X-52.775 Y29.946 E43.8926
G1 X-53.113 Y29.899 E43.90968
G1 X-53.267 Y29.845 E43.91787
G1 X-53.422 Y29.767 E43.92657
G1 X-53.682 Y29.565 E43.94303
G1 X-53.792 Y29.44 E43.95137
G1 X-53.885 Y29.301 E43.95975
G1 X-53.962 Y29.145 E43.96845
G1 X-54.013 Y28.993 E43.97646
G1 X-54.06 Y28.639 E43.99429
G1 X-54.06 Y-28.638 E46.85185
G1 X-54.013 Y-28.992 E46.86971
G1 X-53.962 Y-29.144 E46.87774
G1 X-53.885 Y-29.3 E46.88644
G1 X-53.792 Y-29.439 E46.8948
G1 X-53.67 Y-29.575 E46.90392
G1 X-53.54 Y-29.687 E46.91247
G1 X-53.259 Y-29.849 E46.92863
G1 X-53.073 Y-29.907 E46.93832
G1 X-52.749 Y-29.949 E46.95458
G1 X52.776 Y-29.945 E52.21919
G0 F18000 X52.75 Y-29.545
; TYPE:WALL-INNER
G1 F720 X53.02 Y-29.507 E52.23279
G1 X53.219 Y-29.421 E52.24359
G1 X53.398 Y-29.284 E52.2548
G1 X53.54 Y-29.096 E52.26652
G1 X53.622 Y-28.903 E52.27693
G1 X53.661 Y-28.609 E52.29168
G1 X53.661 Y28.61 E55.1463
G1 X53.622 Y28.904 E55.16109
G1 X53.54 Y29.097 E55.17155
G1 X53.39 Y29.291 E55.18379
G1 X53.204 Y29.431 E55.1954
G1 X52.994 Y29.514 E55.20667
G1 X52.721 Y29.55 E55.22041
G1 X-52.749 Y29.546 E60.48233
G1 X-53.019 Y29.508 E60.49598
G1 X-53.218 Y29.422 E60.50684
G1 X-53.396 Y29.285 E60.51809
G1 X-53.539 Y29.097 E60.5299
G1 X-53.621 Y28.904 E60.54038
G1 X-53.66 Y28.61 E60.55518
G1 X-53.66 Y-28.609 E63.40985
G1 X-53.621 Y-28.903 E63.42469
G1 X-53.539 Y-29.096 E63.43518
G1 X-53.388 Y-29.291 E63.44749
G1 X-53.2 Y-29.432 E63.45921
G1 X-52.989 Y-29.514 E63.47047
G1 X-52.72 Y-29.549 E63.48396
G1 X52.75 Y-29.545 E68.74583
G0 F18000 X53.276 Y-29.2
; TYPE:FILL
G1 F720 X-53.275 Y-29.199 E74.06168
G0 F18000 X-53.494 Y-28.799
G1 F720 X53.495 Y-28.8 E79.39934
G0 F18000 X53.521 Y-28.4
G1 F720 X-53.52 Y-28.399 E84.73963
G0 F18000 X-53.52 Y-27.999
G1 F720 X53.521 Y-28 E90.07988
G0 F18000 X53.521 Y-27.6
G1 F720 X-53.52 Y-27.599 E95.42018
G0 F18000 X-53.52 Y-27.199
G1 F720 X53.521 Y-27.2 E100.76043
G0 F18000 X53.521 Y-26.8
G1 F720 X-53.52 Y-26.799 E106.10072
G0 F18000 X-53.52 Y-26.399
G1 F720 X53.521 Y-26.4 E111.44097
G0 F18000 X53.521 Y-26
G1 F720 X-53.52 Y-25.999 E116.78127
G0 F18000 X-53.52 Y-25.599
G1 F720 X53.521 Y-25.6 E122.12151
G0 F18000 X53.521 Y-25.2
G1 F720 X-53.52 Y-25.199 E127.46181
G0 F18000 X-53.52 Y-24.799
G1 F720 X53.521 Y-24.8 E132.80206
G0 F18000 X53.521 Y-24.4
G1 F720 X-53.52 Y-24.399 E138.14236
G0 F18000 X-53.52 Y-23.999
G1 F720 X53.521 Y-24 E143.4826
G0 F18000 X53.521 Y-23.6
G1 F720 X-53.52 Y-23.599 E148.8229
G0 F18000 X-53.52 Y-23.199
G1 F720 X53.521 Y-23.2 E154.16315
G0 F18000 X53.521 Y-22.8
G1 F720 X-53.52 Y-22.799 E159.50345
G0 F18000 X-53.52 Y-22.399
G1 F720 X53.521 Y-22.4 E164.84369
G0 F18000 X53.521 Y-22
G1 F720 X-53.52 Y-21.999 E170.18399
G0 F18000 X-53.52 Y-21.599
G1 F720 X53.521 Y-21.6 E175.52424
G0 F18000 X53.521 Y-21.2
G1 F720 X-53.52 Y-21.199 E180.86453
G0 F18000 X-53.52 Y-20.799
G1 F720 X53.521 Y-20.8 E186.20478
G0 F18000 X53.521 Y-20.4
G1 F720 X-53.52 Y-20.399 E191.54508
G0 F18000 X-53.52 Y-19.999
G1 F720 X53.521 Y-20 E196.88533
G0 F18000 X53.521 Y-19.6
G1 F720 X-53.52 Y-19.599 E202.22562
G0 F18000 X-53.52 Y-19.199
G1 F720 X53.521 Y-19.2 E207.56587
G0 F18000 X53.521 Y-18.8
G1 F720 X-53.52 Y-18.799 E212.90617
G0 F18000 X-53.52 Y-18.399
G1 F720 X53.521 Y-18.4 E218.24642
G0 F18000 X53.521 Y-18
G1 F720 X-53.52 Y-17.999 E223.58671
G0 F18000 X-53.52 Y-17.599
G1 F720 X53.521 Y-17.6 E228.92696
G0 F18000 X53.521 Y-17.2
G1 F720 X-53.52 Y-17.199 E234.26726
G0 F18000 X-53.52 Y-16.799
G1 F720 X53.521 Y-16.8 E239.6075
G0 F18000 X53.521 Y-16.4
G1 F720 X-53.52 Y-16.399 E244.9478
G0 F18000 X-53.52 Y-15.999
G1 F720 X53.521 Y-16 E250.28805
G0 F18000 X53.521 Y-15.6
G1 F720 X-53.52 Y-15.599 E255.62835
G0 F18000 X-53.52 Y-15.199
G1 F720 X53.521 Y-15.2 E260.96859
G0 F18000 X53.521 Y-14.8
G1 F720 X-53.52 Y-14.799 E266.30889
G0 F18000 X-53.52 Y-14.399
G1 F720 X53.521 Y-14.4 E271.64914
G0 F18000 X53.521 Y-14
G1 F720 X-53.52 Y-13.999 E276.98943
G0 F18000 X-53.52 Y-13.599
G1 F720 X53.521 Y-13.6 E282.32968
G0 F18000 X53.521 Y-13.2
G1 F720 X-53.52 Y-13.199 E287.66998
G0 F18000 X-53.52 Y-12.799
G1 F720 X53.521 Y-12.8 E293.01023
G0 F18000 X53.521 Y-12.4
G1 F720 X-53.52 Y-12.399 E298.35052
G0 F18000 X-53.52 Y-11.999
G1 F720 X53.521 Y-12 E303.69077
G0 F18000 X53.521 Y-11.6
G1 F720 X-53.52 Y-11.599 E309.03107
G0 F18000 X-53.52 Y-11.199
G1 F720 X53.521 Y-11.2 E314.37132
G0 F18000 X53.521 Y-10.8
G1 F720 X-53.52 Y-10.799 E319.71161
G0 F18000 X-53.52 Y-10.399
G1 F720 X53.521 Y-10.4 E325.05186
G0 F18000 X53.521 Y-10
G1 F720 X-53.52 Y-9.999 E330.39216
G0 F18000 X-53.52 Y-9.599
G1 F720 X53.521 Y-9.6 E335.7324
G0 F18000 X53.521 Y-9.2
G1 F720 X-53.52 Y-9.199 E341.0727
G0 F18000 X-53.52 Y-8.799
G1 F720 X53.521 Y-8.8 E346.41295
G0 F18000 X53.521 Y-8.4
G1 F720 X-53.52 Y-8.399 E351.75325
G0 F18000 X-53.52 Y-7.999
G1 F720 X53.521 Y-8 E357.09349
G0 F18000 X53.521 Y-7.6
G1 F720 X-53.52 Y-7.599 E362.43379
G0 F18000 X-53.52 Y-7.199
G1 F720 X53.521 Y-7.2 E367.77404
G0 F18000 X53.521 Y-6.8
G1 F720 X-53.52 Y-6.799 E373.11433
G0 F18000 X-53.52 Y-6.399
G1 F720 X53.521 Y-6.4 E378.45458
G0 F18000 X53.521 Y-6
G1 F720 X-53.52 Y-5.999 E383.79488
G0 F18000 X-53.52 Y-5.599
G1 F720 X53.521 Y-5.6 E389.13513
G0 F18000 X53.521 Y-5.2
G1 F720 X-53.52 Y-5.199 E394.47542
G0 F18000 X-53.52 Y-4.799
G1 F720 X53.521 Y-4.8 E399.81567
G0 F18000 X53.521 Y-4.4
G1 F720 X-53.52 Y-4.399 E405.15597
G0 F18000 X-53.52 Y-3.999
G1 F720 X53.521 Y-4 E410.49622
G0 F18000 X53.521 Y-3.6
G1 F720 X-53.52 Y-3.599 E415.83651
G0 F18000 X-53.52 Y-3.199
G1 F720 X53.521 Y-3.2 E421.17676
G0 F18000 X53.521 Y-2.8
G1 F720 X-53.52 Y-2.799 E426.51706
G0 F18000 X-53.52 Y-2.399
G1 F720 X53.521 Y-2.4 E431.8573
G0 F18000 X53.521 Y-2
G1 F720 X-53.52 Y-1.999 E437.1976
G0 F18000 X-53.52 Y-1.599
G1 F720 X53.521 Y-1.6 E442.53785
G0 F18000 X53.521 Y-1.2
G1 F720 X-53.52 Y-1.199 E447.87815
G0 F18000 X-53.52 Y-0.799
G1 F720 X53.521 Y-0.8 E453.21839
G0 F18000 X53.521 Y-0.4
G1 F720 X-53.52 Y-0.399 E458.55869
G0 F18000 X-53.52 Y0
G1 F720 X53.521 Y0 E463.89894
G0 F18000 X53.521 Y0.399
G1 F720 X-53.52 Y0.4 E469.23923
G0 F18000 X-53.52 Y0.8
G1 F720 X53.521 Y0.799 E474.57948
G0 F18000 X53.521 Y1.199
G1 F720 X-53.52 Y1.2 E479.91978
G0 F18000 X-53.52 Y1.6
G1 F720 X53.521 Y1.599 E485.26003
G0 F18000 X53.521 Y1.999
G1 F720 X-53.52 Y2 E490.60032
G0 F18000 X-53.52 Y2.4
G1 F720 X53.521 Y2.399 E495.94057
G0 F18000 X53.521 Y2.799
G1 F720 X-53.52 Y2.8 E501.28087
G0 F18000 X-53.52 Y3.2
G1 F720 X53.521 Y3.199 E506.62112
G0 F18000 X53.521 Y3.599
G1 F720 X-53.52 Y3.6 E511.96141
G0 F18000 X-53.52 Y4
G1 F720 X53.521 Y3.999 E517.30166
G0 F18000 X53.521 Y4.399
G1 F720 X-53.52 Y4.4 E522.64196
G0 F18000 X-53.52 Y4.8
G1 F720 X53.521 Y4.799 E527.9822
G0 F18000 X53.521 Y5.199
G1 F720 X-53.52 Y5.2 E533.3225
G0 F18000 X-53.52 Y5.6
G1 F720 X53.521 Y5.599 E538.66275
G0 F18000 X53.521 Y5.999
G1 F720 X-53.52 Y6 E544.00305
G0 F18000 X-53.52 Y6.4
G1 F720 X53.521 Y6.399 E549.34329
G0 F18000 X53.521 Y6.799
G1 F720 X-53.52 Y6.8 E554.68359
G0 F18000 X-53.52 Y7.2
G1 F720 X53.521 Y7.199 E560.02384
G0 F18000 X53.521 Y7.599
G1 F720 X-53.52 Y7.6 E565.36413
G0 F18000 X-53.52 Y8
G1 F720 X53.521 Y7.999 E570.70438
G0 F18000 X53.521 Y8.399
G1 F720 X-53.52 Y8.4 E576.04468
G0 F18000 X-53.52 Y8.8
G1 F720 X53.521 Y8.799 E581.38493
G0 F18000 X53.521 Y9.199
G1 F720 X-53.52 Y9.2 E586.72522
G0 F18000 X-53.52 Y9.6
G1 F720 X53.521 Y9.599 E592.06547
G0 F18000 X53.521 Y9.999
G1 F720 X-53.52 Y10 E597.40577
G0 F18000 X-53.52 Y10.4
G1 F720 X53.521 Y10.399 E602.74602
G0 F18000 X53.521 Y10.799
G1 F720 X-53.52 Y10.8 E608.08631
G0 F18000 X-53.52 Y11.2
G1 F720 X53.521 Y11.199 E613.42656
G0 F18000 X53.521 Y11.599
G1 F720 X-53.52 Y11.6 E618.76686
G0 F18000 X-53.52 Y12
G1 F720 X53.521 Y11.999 E624.1071
G0 F18000 X53.521 Y12.399
G1 F720 X-53.52 Y12.4 E629.4474
G0 F18000 X-53.52 Y12.8
G1 F720 X53.521 Y12.799 E634.78765
G0 F18000 X53.521 Y13.199
G1 F720 X-53.52 Y13.2 E640.12795
G0 F18000 X-53.52 Y13.6
G1 F720 X53.521 Y13.599 E645.46819
G0 F18000 X53.521 Y13.999
G1 F720 X-53.52 Y14 E650.80849
G0 F18000 X-53.52 Y14.4
G1 F720 X53.521 Y14.399 E656.14874
G0 F18000 X53.521 Y14.799
G1 F720 X-53.52 Y14.8 E661.48903
G0 F18000 X-53.52 Y15.2
G1 F720 X53.521 Y15.199 E666.82928
G0 F18000 X53.521 Y15.599
G1 F720 X-53.52 Y15.6 E672.16958
G0 F18000 X-53.52 Y16
G1 F720 X53.521 Y15.999 E677.50983
G0 F18000 X53.521 Y16.399
G1 F720 X-53.52 Y16.4 E682.85012
G0 F18000 X-53.52 Y16.8
G1 F720 X53.521 Y16.799 E688.19037
G0 F18000 X53.521 Y17.199
G1 F720 X-53.52 Y17.2 E693.53067
G0 F18000 X-53.52 Y17.6
G1 F720 X53.521 Y17.599 E698.87092
G0 F18000 X53.521 Y17.999
G1 F720 X-53.52 Y18 E704.21121
G0 F18000 X-53.52 Y18.4
G1 F720 X53.521 Y18.399 E709.55146
G0 F18000 X53.521 Y18.799
G1 F720 X-53.52 Y18.8 E714.89176
G0 F18000 X-53.52 Y19.2
G1 F720 X53.521 Y19.199 E720.232
G0 F18000 X53.521 Y19.599
G1 F720 X-53.52 Y19.6 E725.5723
G0 F18000 X-53.52 Y20
G1 F720 X53.521 Y19.999 E730.91255
G0 F18000 X53.521 Y20.399
G1 F720 X-53.52 Y20.4 E736.25285
G0 F18000 X-53.52 Y20.8
G1 F720 X53.521 Y20.799 E741.59309
G0 F18000 X53.521 Y21.199
G1 F720 X-53.52 Y21.2 E746.93339
G0 F18000 X-53.52 Y21.6
G1 F720 X53.521 Y21.599 E752.27364
G0 F18000 X53.521 Y21.999
G1 F720 X-53.52 Y22 E757.61394
G0 F18000 X-53.52 Y22.4
G1 F720 X53.521 Y22.399 E762.95418
G0 F18000 X53.521 Y22.799
G1 F720 X-53.52 Y22.8 E768.29448
G0 F18000 X-53.52 Y23.2
G1 F720 X53.521 Y23.199 E773.63473
G0 F18000 X53.521 Y23.599
G1 F720 X-53.52 Y23.6 E778.97502
G0 F18000 X-53.52 Y24
G1 F720 X53.521 Y23.999 E784.31527
G0 F18000 X53.521 Y24.399
G1 F720 X-53.52 Y24.4 E789.65557
G0 F18000 X-53.52 Y24.8
G1 F720 X53.521 Y24.799 E794.99582
G0 F18000 X53.521 Y25.199
G1 F720 X-53.52 Y25.2 E800.33611
G0 F18000 X-53.52 Y25.6
G1 F720 X53.521 Y25.599 E805.67636
G0 F18000 X53.521 Y25.999
G1 F720 X-53.52 Y26 E811.01666
G0 F18000 X-53.52 Y26.4
G1 F720 X53.521 Y26.399 E816.3569
G0 F18000 X53.521 Y26.799
G1 F720 X-53.52 Y26.8 E821.6972
G0 F18000 X-53.52 Y27.2
G1 F720 X53.521 Y27.199 E827.03745
G0 F18000 X53.521 Y27.599
G1 F720 X-53.52 Y27.6 E832.37775
G0 F18000 X-53.52 Y28
G1 F720 X53.521 Y27.999 E837.71799
G0 F18000 X53.521 Y28.399
G1 F720 X-53.52 Y28.4 E843.05829
G0 F18000 X-53.494 Y28.8
G1 F720 X53.495 Y28.799 E848.39594
G0 F18000 X53.279 Y29.199
G1 F720 X-53.276 Y29.2 E853.71199
; LAYER:1
G0 F18000 X-53.289 Y29.18 Z0.55
; TYPE:WALL-INNER
G1 F2400 X-53.409 Y29.023 E853.7223
G1 X-53.474 Y28.87 E853.73095
G1 X-53.51 Y28.598 E853.74522
G1 X-53.51 Y-28.597 E856.71759
G1 X-53.474 Y-28.869 E856.73189
G1 X-53.409 Y-29.022 E856.74056
G1 X-53.271 Y-29.192 E856.75194
G1 X-53.108 Y-29.31 E856.76239
G1 X-52.98 Y-29.363 E856.76956
G1 X-52.708 Y-29.399 E856.78378
G1 X52.703 Y-29.399 E862.26182
G1 X53.003 Y-29.354 E862.27758
G1 X53.157 Y-29.282 E862.28639
G1 X53.291 Y-29.179 E862.29515
G1 X53.41 Y-29.022 E862.30534
G1 X53.475 Y-28.869 E862.31393
G1 X53.511 Y-28.597 E862.32814
G1 X53.511 Y28.598 E865.30045
G1 X53.475 Y28.87 E865.31471
G1 X53.41 Y29.023 E865.32335
G1 X53.27 Y29.196 E865.33492
G1 X53.119 Y29.305 E865.3446
G1 X52.977 Y29.365 E865.35261
G1 X52.709 Y29.4 E865.36665
G1 X-52.703 Y29.4 E870.8448
G1 X-53.002 Y29.355 E870.86057
G1 X-53.156 Y29.283 E870.86945
G1 X-53.289 Y29.18 E870.87824
G0 F18000 X-53.643 Y29.534
; TYPE:WALL-OUTER
G1 F2100 X-53.751 Y29.41 E870.88682
G1 X-53.843 Y29.273 E870.89542
G1 X-53.914 Y29.129 E870.90379
G1 X-53.964 Y28.981 E870.91192
G1 X-54.01 Y28.632 E870.93022
G1 X-54.01 Y-28.631 E873.90612
G1 X-53.964 Y-28.98 E873.92446
G1 X-53.914 Y-29.128 E873.93261
G1 X-53.843 Y-29.272 E873.94098
G1 X-53.752 Y-29.409 E873.94954
G1 X-53.618 Y-29.554 E873.95981
G1 X-53.487 Y-29.662 E873.96862
G1 X-53.239 Y-29.803 E873.98343
G1 X-53.091 Y-29.853 E873.99151
G1 X-52.742 Y-29.899 E874.00976
G1 X52.744 Y-29.899 E879.49171
G1 X53.127 Y-29.842 E879.51183
G1 X53.267 Y-29.79 E879.51957
G1 X53.413 Y-29.712 E879.52815
G1 X53.645 Y-29.533 E879.54334
G1 X53.749 Y-29.414 E879.55152
G1 X53.844 Y-29.272 E879.56035
G1 X53.915 Y-29.128 E879.56865
G1 X53.965 Y-28.98 E879.57672
G1 X54.011 Y-28.631 E879.59496
G1 X54.011 Y28.632 E882.57081
G1 X53.965 Y28.981 E882.5891
G1 X53.915 Y29.129 E882.59722
G1 X53.844 Y29.273 E882.60557
G1 X53.755 Y29.406 E882.61388
G1 X53.616 Y29.558 E882.62459
G1 X53.357 Y29.746 E882.64122
G1 X53.09 Y29.854 E882.65619
G1 X52.743 Y29.9 E882.67438
G1 X-52.743 Y29.9 E888.15637
G1 X-53.126 Y29.843 E888.17655
G1 X-53.266 Y29.791 E888.18436
G1 X-53.412 Y29.713 E888.19301
G1 X-53.643 Y29.534 E888.20824
G0 F18000 X-53 Y29.146
; TYPE:FILL
G1 F2400 X-53 Y-29.148 E891.23771
G0 F18000 X-52.5 Y-29.208
G1 F2400 X-52.5 Y29.209 E894.27353
G0 F18000 X-52 Y29.209
G1 F2400 X-52 Y-29.208 E897.3094
G0 F18000 X-51.5 Y-29.208
G1 F2400 X-51.5 Y29.209 E900.34522
G0 F18000 X-51 Y29.209
G1 F2400 X-51 Y-29.208 E903.38109
G0 F18000 X-50.5 Y-29.208
G1 F2400 X-50.5 Y29.209 E906.41691
G0 F18000 X-50 Y29.209
G1 F2400 X-50 Y-29.208 E909.45278
G0 F18000 X-49.5 Y-29.208
G1 F2400 X-49.5 Y29.209 E912.4886
G0 F18000 X-49 Y29.209
G1 F2400 X-49 Y-29.208 E915.52447
G0 F18000 X-48.5 Y-29.208
G1 F2400 X-48.5 Y29.209 E918.56029
G0 F18000 X-48 Y29.209
G1 F2400 X-48 Y-29.208 E921.59616
G0 F18000 X-47.5 Y-29.208
G1 F2400 X-47.5 Y29.209 E924.63198
G0 F18000 X-47 Y29.209
G1 F2400 X-47 Y-29.208 E927.66785
G0 F18000 X-46.5 Y-29.208
G1 F2400 X-46.5 Y29.209 E930.70367
G0 F18000 X-46 Y29.209
G1 F2400 X-46 Y-29.208 E933.73954
G0 F18000 X-45.5 Y-29.208
G1 F2400 X-45.5 Y29.209 E936.77536
G0 F18000 X-45 Y29.209
G1 F2400 X-45 Y-29.208 E939.81123
G0 F18000 X-44.5 Y-29.208
G1 F2400 X-44.5 Y29.209 E942.84705
G0 F18000 X-44 Y29.209
G1 F2400 X-44 Y-29.208 E945.88292
G0 F18000 X-43.5 Y-29.208
G1 F2400 X-43.5 Y29.209 E948.91874
G0 F18000 X-43 Y29.209
G1 F2400 X-43 Y-29.208 E951.95461
G0 F18000 X-42.5 Y-29.208
G1 F2400 X-42.5 Y29.209 E954.99043
G0 F18000 X-42 Y29.209
G1 F2400 X-42 Y-29.208 E958.0263
G0 F18000 X-41.5 Y-29.208
G1 F2400 X-41.5 Y29.209 E961.06212
G0 F18000 X-41 Y29.209
G1 F2400 X-41 Y-29.208 E964.09799
G0 F18000 X-40.5 Y-29.208
G1 F2400 X-40.5 Y29.209 E967.13381
G0 F18000 X-40 Y29.209
G1 F2400 X-40 Y-29.208 E970.16968
G0 F18000 X-39.5 Y-29.208
G1 F2400 X-39.5 Y29.209 E973.2055
G0 F18000 X-39 Y29.209
G1 F2400 X-39 Y-29.208 E976.24137
G0 F18000 X-38.5 Y-29.208
G1 F2400 X-38.5 Y29.209 E979.27719
G0 F18000 X-38 Y29.209
G1 F2400 X-38 Y-29.208 E982.31306
G0 F18000 X-37.5 Y-29.208
G1 F2400 X-37.5 Y29.209 E985.34888
G0 F18000 X-37 Y29.209
G1 F2400 X-37 Y-29.208 E988.38475
G0 F18000 X-36.5 Y-29.208
G1 F2400 X-36.5 Y29.209 E991.42057
G0 F18000 X-36 Y29.209
G1 F2400 X-36 Y-29.208 E994.45644
G0 F18000 X-35.5 Y-29.208
G1 F2400 X-35.5 Y29.209 E997.49226
G0 F18000 X-35 Y29.209
G1 F2400 X-35 Y-29.208 E1000.52813
G0 F18000 X-34.5 Y-29.208
G1 F2400 X-34.5 Y29.209 E1003.56395
G0 F18000 X-34 Y29.209
G1 F2400 X-34 Y-29.208 E1006.59982
G0 F18000 X-33.5 Y-29.208
G1 F2400 X-33.5 Y29.209 E1009.63564
G0 F18000 X-33 Y29.209
G1 F2400 X-33 Y-29.208 E1012.67151
G0 F18000 X-32.5 Y-29.208
G1 F2400 X-32.499 Y29.209 E1015.70733
G0 F18000 X-31.999 Y29.209
G1 F2400 X-32 Y-29.208 E1018.7432
G0 F18000 X-31.5 Y-29.208
G1 F2400 X-31.499 Y29.209 E1021.77902
G0 F18000 X-30.999 Y29.209
G1 F2400 X-31 Y-29.208 E1024.81489
G0 F18000 X-30.5 Y-29.208
G1 F2400 X-30.499 Y29.209 E1027.85071
G0 F18000 X-29.999 Y29.209
G1 F2400 X-30 Y-29.208 E1030.88658
G0 F18000 X-29.5 Y-29.208
G1 F2400 X-29.499 Y29.209 E1033.9224
G0 F18000 X-28.999 Y29.209
G1 F2400 X-29 Y-29.208 E1036.95827
G0 F18000 X-28.5 Y-29.208
G1 F2400 X-28.499 Y29.209 E1039.99408
G0 F18000 X-27.999 Y29.209
G1 F2400 X-28 Y-29.208 E1043.02996
G0 F18000 X-27.5 Y-29.208
G1 F2400 X-27.499 Y29.209 E1046.06577
G0 F18000 X-26.999 Y29.209
G1 F2400 X-27 Y-29.208 E1049.10165
G0 F18000 X-26.5 Y-29.208
G1 F2400 X-26.499 Y29.209 E1052.13746
G0 F18000 X-25.999 Y29.209
G1 F2400 X-26 Y-29.208 E1055.17333
G0 F18000 X-25.5 Y-29.208
G1 F2400 X-25.499 Y29.209 E1058.20915
G0 F18000 X-24.999 Y29.209
G1 F2400 X-25 Y-29.208 E1061.24502
G0 F18000 X-24.5 Y-29.208
G1 F2400 X-24.499 Y29.209 E1064.28084
G0 F18000 X-23.999 Y29.209
G1 F2400 X-24 Y-29.208 E1067.31671
G0 F18000 X-23.5 Y-29.208
G1 F2400 X-23.499 Y29.209 E1070.35253
G0 F18000 X-22.999 Y29.209
G1 F2400 X-23 Y-29.208 E1073.3884
G0 F18000 X-22.5 Y-29.208
G1 F2400 X-22.499 Y29.209 E1076.42422
G0 F18000 X-21.999 Y29.209
G1 F2400 X-22 Y-29.208 E1079.46009
G0 F18000 X-21.5 Y-29.208
G1 F2400 X-21.499 Y29.209 E1082.49591
G0 F18000 X-20.999 Y29.209
G1 F2400 X-21 Y-29.208 E1085.53178
G0 F18000 X-20.5 Y-29.208
G1 F2400 X-20.499 Y29.209 E1088.5676
G0 F18000 X-19.999 Y29.209
G1 F2400 X-20 Y-29.208 E1091.60347
G0 F18000 X-19.5 Y-29.208
G1 F2400 X-19.499 Y29.209 E1094.63929
G0 F18000 X-18.999 Y29.209
G1 F2400 X-19 Y-29.208 E1097.67516
G0 F18000 X-18.5 Y-29.208
G1 F2400 X-18.499 Y29.209 E1100.71098
G0 F18000 X-17.999 Y29.209
G1 F2400 X-18 Y-29.208 E1103.74685
G0 F18000 X-17.5 Y-29.208
G1 F2400 X-17.499 Y29.209 E1106.78267
G0 F18000 X-16.999 Y29.209
G1 F2400 X-17 Y-29.208 E1109.81854
G0 F18000 X-16.5 Y-29.208
G1 F2400 X-16.499 Y29.209 E1112.85436
G0 F18000 X-15.999 Y29.209
G1 F2400 X-16 Y-29.208 E1115.89023
G0 F18000 X-15.5 Y-29.208
G1 F2400 X-15.499 Y29.209 E1118.92605
G0 F18000 X-14.999 Y29.209
G1 F2400 X-15 Y-29.208 E1121.96192
G0 F18000 X-14.5 Y-29.209
G1 F2400 X-14.499 Y29.209 E1124.99779
G0 F18000 X-13.999 Y29.209
G1 F2400 X-14 Y-29.209 E1128.03371
G0 F18000 X-13.5 Y-29.209
G1 F2400 X-13.499 Y29.209 E1131.06958
G0 F18000 X-12.999 Y29.209
G1 F2400 X-13 Y-29.209 E1134.10551
G0 F18000 X-12.5 Y-29.209
G1 F2400 X-12.499 Y29.209 E1137.14138
G0 F18000 X-11.999 Y29.209
G1 F2400 X-12 Y-29.209 E1140.1773
G0 F18000 X-11.5 Y-29.209
G1 F2400 X-11.499 Y29.209 E1143.21317
G0 F18000 X-10.999 Y29.209
G1 F2400 X-11 Y-29.209 E1146.24909
G0 F18000 X-10.5 Y-29.209
G1 F2400 X-10.499 Y29.209 E1149.28497
G0 F18000 X-9.999 Y29.209
G1 F2400 X-10 Y-29.209 E1152.32089
G0 F18000 X-9.5 Y-29.209
G1 F2400 X-9.499 Y29.209 E1155.35676
G0 F18000 X-8.999 Y29.209
G1 F2400 X-9 Y-29.209 E1158.39268
G0 F18000 X-8.5 Y-29.209
G1 F2400 X-8.499 Y29.209 E1161.42855
G0 F18000 X-7.999 Y29.209
G1 F2400 X-8 Y-29.209 E1164.46448
G0 F18000 X-7.5 Y-29.209
G1 F2400 X-7.499 Y29.209 E1167.50035
G0 F18000 X-6.999 Y29.209
G1 F2400 X-7 Y-29.209 E1170.53627
G0 F18000 X-6.5 Y-29.209
G1 F2400 X-6.499 Y29.209 E1173.57214
G0 F18000 X-5.999 Y29.209
G1 F2400 X-6 Y-29.209 E1176.60806
G0 F18000 X-5.5 Y-29.209
G1 F2400 X-5.499 Y29.209 E1179.64393
G0 F18000 X-4.999 Y29.209
G1 F2400 X-5 Y-29.209 E1182.67986
G0 F18000 X-4.5 Y-29.209
G1 F2400 X-4.499 Y29.209 E1185.71573
G0 F18000 X-3.999 Y29.209
G1 F2400 X-4 Y-29.209 E1188.75165
G0 F18000 X-3.5 Y-29.209
G1 F2400 X-3.499 Y29.209 E1191.78752
G0 F18000 X-2.999 Y29.209
G1 F2400 X-3 Y-29.209 E1194.82344
G0 F18000 X-2.5 Y-29.209
G1 F2400 X-2.499 Y29.209 E1197.85931
G0 F18000 X-1.999 Y29.209
G1 F2400 X-2 Y-29.209 E1200.89524
G0 F18000 X-1.5 Y-29.209
G1 F2400 X-1.499 Y29.209 E1203.93111
G0 F18000 X-0.999 Y29.209
G1 F2400 X-1 Y-29.209 E1206.96703
G0 F18000 X-0.5 Y-29.209
G1 F2400 X-0.499 Y29.209 E1210.0029
G0 F18000 X0 Y29.209
G1 F2400 X0 Y-29.208 E1213.03877
G0 F18000 X0.499 Y-29.208
G1 F2400 X0.5 Y29.21 E1216.07464
G0 F18000 X1 Y29.21
G1 F2400 X0.999 Y-29.208 E1219.11057
G0 F18000 X1.499 Y-29.208
G1 F2400 X1.5 Y29.21 E1222.14644
G0 F18000 X2 Y29.21
G1 F2400 X1.999 Y-29.208 E1225.18236
G0 F18000 X2.499 Y-29.208
G1 F2400 X2.5 Y29.21 E1228.21823
G0 F18000 X3 Y29.21
G1 F2400 X2.999 Y-29.208 E1231.25415
G0 F18000 X3.499 Y-29.208
G1 F2400 X3.5 Y29.21 E1234.29002
G0 F18000 X4 Y29.21
G1 F2400 X3.999 Y-29.208 E1237.32595
G0 F18000 X4.499 Y-29.208
G1 F2400 X4.5 Y29.21 E1240.36182
G0 F18000 X5 Y29.21
G1 F2400 X4.999 Y-29.208 E1243.39774
G0 F18000 X5.499 Y-29.208
G1 F2400 X5.5 Y29.21 E1246.43361
G0 F18000 X6 Y29.21
G1 F2400 X5.999 Y-29.208 E1249.46953
G0 F18000 X6.499 Y-29.208
G1 F2400 X6.5 Y29.21 E1252.5054
G0 F18000 X7 Y29.21
G1 F2400 X6.999 Y-29.208 E1255.54133
G0 F18000 X7.499 Y-29.208
G1 F2400 X7.5 Y29.21 E1258.5772
G0 F18000 X8 Y29.21
G1 F2400 X7.999 Y-29.208 E1261.61312
G0 F18000 X8.499 Y-29.208
G1 F2400 X8.5 Y29.21 E1264.64899
G0 F18000 X9 Y29.21
G1 F2400 X8.999 Y-29.208 E1267.68491
G0 F18000 X9.499 Y-29.208
G1 F2400 X9.5 Y29.21 E1270.72078
G0 F18000 X10 Y29.21
G1 F2400 X9.999 Y-29.208 E1273.75671
G0 F18000 X10.499 Y-29.208
G1 F2400 X10.5 Y29.21 E1276.79258
G0 F18000 X11 Y29.21
G1 F2400 X10.999 Y-29.208 E1279.8285
G0 F18000 X11.499 Y-29.208
G1 F2400 X11.5 Y29.21 E1282.86437
G0 F18000 X12 Y29.21
G1 F2400 X11.999 Y-29.208 E1285.90029
G0 F18000 X12.499 Y-29.208
G1 F2400 X12.5 Y29.21 E1288.93617
G0 F18000 X13 Y29.21
G1 F2400 X12.999 Y-29.208 E1291.97209
G0 F18000 X13.499 Y-29.208
G1 F2400 X13.5 Y29.21 E1295.00796
G0 F18000 X14 Y29.21
G1 F2400 X13.999 Y-29.208 E1298.04388
G0 F18000 X14.499 Y-29.208
G1 F2400 X14.5 Y29.21 E1301.07975
G0 F18000 X15 Y29.209
G1 F2400 X14.999 Y-29.208 E1304.11562
G0 F18000 X15.499 Y-29.208
G1 F2400 X15.5 Y29.209 E1307.15144
G0 F18000 X16 Y29.209
G1 F2400 X15.999 Y-29.208 E1310.18731
G0 F18000 X16.499 Y-29.208
G1 F2400 X16.5 Y29.209 E1313.22313
G0 F18000 X17 Y29.209
G1 F2400 X16.999 Y-29.208 E1316.259
G0 F18000 X17.499 Y-29.208
G1 F2400 X17.5 Y29.209 E1319.29482
G0 F18000 X18 Y29.209
G1 F2400 X17.999 Y-29.208 E1322.33069
G0 F18000 X18.499 Y-29.208
G1 F2400 X18.5 Y29.209 E1325.36651
G0 F18000 X19 Y29.209
G1 F2400 X18.999 Y-29.208 E1328.40238
G0 F18000 X19.499 Y-29.208
G1 F2400 X19.5 Y29.209 E1331.4382
G0 F18000 X20 Y29.209
G1 F2400 X19.999 Y-29.208 E1334.47407
G0 F18000 X20.499 Y-29.208
G1 F2400 X20.5 Y29.209 E1337.50989
G0 F18000 X21 Y29.209
G1 F2400 X20.999 Y-29.208 E1340.54576
G0 F18000 X21.499 Y-29.208
G1 F2400 X21.5 Y29.209 E1343.58158
G0 F18000 X22 Y29.209
G1 F2400 X21.999 Y-29.208 E1346.61745
G0 F18000 X22.499 Y-29.208
G1 F2400 X22.5 Y29.209 E1349.65327
G0 F18000 X23 Y29.209
G1 F2400 X22.999 Y-29.208 E1352.68914
G0 F18000 X23.499 Y-29.208
G1 F2400 X23.5 Y29.209 E1355.72496
G0 F18000 X24 Y29.209
G1 F2400 X23.999 Y-29.208 E1358.76083
G0 F18000 X24.499 Y-29.208
G1 F2400 X24.5 Y29.209 E1361.79665
G0 F18000 X25 Y29.209
G1 F2400 X24.999 Y-29.208 E1364.83252
G0 F18000 X25.499 Y-29.208
G1 F2400 X25.5 Y29.209 E1367.86834
G0 F18000 X26 Y29.209
G1 F2400 X25.999 Y-29.208 E1370.90421
G0 F18000 X26.499 Y-29.208
G1 F2400 X26.5 Y29.209 E1373.94003
G0 F18000 X27 Y29.209
G1 F2400 X26.999 Y-29.208 E1376.9759
G0 F18000 X27.499 Y-29.208
G1 F2400 X27.5 Y29.209 E1380.01172
G0 F18000 X28 Y29.209
G1 F2400 X27.999 Y-29.208 E1383.04759
G0 F18000 X28.499 Y-29.208
G1 F2400 X28.5 Y29.209 E1386.08341
G0 F18000 X29 Y29.209
G1 F2400 X28.999 Y-29.208 E1389.11928
G0 F18000 X29.499 Y-29.208
G1 F2400 X29.5 Y29.209 E1392.1551
G0 F18000 X30 Y29.209
G1 F2400 X29.999 Y-29.208 E1395.19097
G0 F18000 X30.499 Y-29.208
G1 F2400 X30.5 Y29.209 E1398.22679
G0 F18000 X31 Y29.209
G1 F2400 X30.999 Y-29.208 E1401.26266
G0 F18000 X31.499 Y-29.208
G1 F2400 X31.5 Y29.209 E1404.29848
G0 F18000 X32 Y29.209
G1 F2400 X31.999 Y-29.208 E1407.33435
G0 F18000 X32.499 Y-29.208
G1 F2400 X32.5 Y29.209 E1410.37017
G0 F18000 X33 Y29.209
G1 F2400 X33 Y-29.208 E1413.40604
G0 F18000 X33.5 Y-29.208
G1 F2400 X33.5 Y29.209 E1416.44186
G0 F18000 X34 Y29.209
G1 F2400 X34 Y-29.208 E1419.47773
G0 F18000 X34.5 Y-29.208
G1 F2400 X34.5 Y29.209 E1422.51355
G0 F18000 X35 Y29.209
G1 F2400 X35 Y-29.208 E1425.54942
G0 F18000 X35.5 Y-29.208
G1 F2400 X35.5 Y29.209 E1428.58523
G0 F18000 X36 Y29.209
G1 F2400 X36 Y-29.208 E1431.62111
G0 F18000 X36.5 Y-29.208
G1 F2400 X36.5 Y29.209 E1434.65692
G0 F18000 X37 Y29.209
G1 F2400 X37 Y-29.208 E1437.6928
G0 F18000 X37.5 Y-29.208
G1 F2400 X37.5 Y29.209 E1440.72861
G0 F18000 X38 Y29.209
G1 F2400 X38 Y-29.208 E1443.76448
G0 F18000 X38.5 Y-29.208
G1 F2400 X38.5 Y29.209 E1446.8003
G0 F18000 X39 Y29.209
G1 F2400 X39 Y-29.208 E1449.83617
G0 F18000 X39.5 Y-29.208
G1 F2400 X39.5 Y29.209 E1452.87199
G0 F18000 X40 Y29.209
G1 F2400 X40 Y-29.208 E1455.90786
G0 F18000 X40.5 Y-29.208
G1 F2400 X40.5 Y29.209 E1458.94368
G0 F18000 X41 Y29.209
G1 F2400 X41 Y-29.208 E1461.97955
G0 F18000 X41.5 Y-29.208
G1 F2400 X41.5 Y29.209 E1465.01537
G0 F18000 X42 Y29.209
G1 F2400 X42 Y-29.208 E1468.05124
G0 F18000 X42.5 Y-29.208
G1 F2400 X42.5 Y29.209 E1471.08706
G0 F18000 X43 Y29.209
G1 F2400 X43 Y-29.208 E1474.12293
G0 F18000 X43.5 Y-29.208
G1 F2400 X43.5 Y29.209 E1477.15875
G0 F18000 X44 Y29.209
G1 F2400 X44 Y-29.208 E1480.19462
G0 F18000 X44.5 Y-29.208
G1 F2400 X44.5 Y29.209 E1483.23044
G0 F18000 X45 Y29.209
G1 F2400 X45 Y-29.208 E1486.26631
G0 F18000 X45.5 Y-29.208
G1 F2400 X45.5 Y29.209 E1489.30213
G0 F18000 X46 Y29.209
G1 F2400 X46 Y-29.208 E1492.338
G0 F18000 X46.5 Y-29.208
G1 F2400 X46.5 Y29.209 E1495.37382
G0 F18000 X47 Y29.209
G1 F2400 X47 Y-29.208 E1498.40969
G0 F18000 X47.5 Y-29.208
G1 F2400 X47.5 Y29.209 E1501.44551
G0 F18000 X48 Y29.209
G1 F2400 X48 Y-29.208 E1504.48138
G0 F18000 X48.5 Y-29.208
G1 F2400 X48.5 Y29.209 E1507.5172
G0 F18000 X49 Y29.209
G1 F2400 X49 Y-29.208 E1510.55307
G0 F18000 X49.5 Y-29.208
G1 F2400 X49.5 Y29.209 E1513.58889
G0 F18000 X50 Y29.209
G1 F2400 X50 Y-29.208 E1516.62476
G0 F18000 X50.5 Y-29.208
G1 F2400 X50.5 Y29.209 E1519.66058
G0 F18000 X51 Y29.209
G1 F2400 X51 Y-29.208 E1522.69645
G0 F18000 X51.5 Y-29.208
G1 F2400 X51.5 Y29.209 E1525.73227
G0 F18000 X52 Y29.209
G1 F2400 X52 Y-29.208 E1528.76814
G0 F18000 X52.5 Y-29.208
G1 F2400 X52.5 Y29.209 E1531.80396
G0 F18000 X53 Y29.149
G1 F2400 X53 Y-29.145 E1534.83344
; LAYER:2
M106 S153
G0 F18000 X53.162 Y-29.277 Z0.8
; TYPE:WALL-INNER
G1 F2400 X53.331 Y-29.128 E1534.84511
G1 X53.452 Y-28.937 E1534.85682
G1 X53.475 Y-28.869 E1534.8605
G1 X53.511 Y-28.597 E1534.87471
G1 X53.511 Y28.598 E1537.84702
G1 X53.475 Y28.87 E1537.86128
G1 X53.419 Y29.006 E1537.86892
G1 X53.314 Y29.147 E1537.87806
G1 X53.105 Y29.311 E1537.89186
G1 X52.979 Y29.364 E1537.89897
G1 X52.709 Y29.4 E1537.91312
G1 X-52.708 Y29.4 E1543.39154
G1 X-52.967 Y29.366 E1543.40516
G1 X-53.161 Y29.278 E1543.41628
G1 X-53.33 Y29.129 E1543.42803
G1 X-53.451 Y28.938 E1543.43981
G1 X-53.474 Y28.87 E1543.44355
G1 X-53.51 Y28.598 E1543.45782
G1 X-53.51 Y-28.597 E1546.43018
G1 X-53.474 Y-28.869 E1546.44449
G1 X-53.409 Y-29.022 E1546.45316
G1 X-53.259 Y-29.203 E1546.46538
G1 X-53.045 Y-29.341 E1546.4786
G1 X-52.98 Y-29.363 E1546.48213
G1 X-52.708 Y-29.399 E1546.49635
G1 X52.709 Y-29.399 E1551.97471
G1 X52.968 Y-29.365 E1551.98827
G1 X53.162 Y-29.277 E1551.99932
G0 F18000 X53.429 Y-29.701
; TYPE:WALL-OUTER
G1 F2100 X53.561 Y-29.604 E1552.00781
G1 X53.717 Y-29.448 E1552.01923
G1 X53.845 Y-29.27 E1552.03059
G1 X53.915 Y-29.128 E1552.03877
G1 X53.965 Y-28.98 E1552.04684
G1 X54.011 Y-28.631 E1552.06508
G1 X54.011 Y28.632 E1555.04093
G1 X53.965 Y28.981 E1555.05922
G1 X53.915 Y29.129 E1555.06734
G1 X53.846 Y29.268 E1555.0754
G1 X53.681 Y29.491 E1555.08982
G1 X53.47 Y29.675 E1555.10437
G1 X53.337 Y29.756 E1555.11246
G1 X53.09 Y29.854 E1555.12627
G1 X52.743 Y29.9 E1555.14446
G1 X-52.742 Y29.9 E1560.62641
G1 X-53.088 Y29.855 E1560.64459
G1 X-53.287 Y29.78 E1560.65569
G1 X-53.428 Y29.702 E1560.66411
G1 X-53.56 Y29.605 E1560.67267
G1 X-53.716 Y29.449 E1560.68417
G1 X-53.844 Y29.271 E1560.69559
G1 X-53.914 Y29.129 E1560.70384
G1 X-53.964 Y28.981 E1560.71198
G1 X-54.01 Y28.632 E1560.73028
G1 X-54.01 Y-28.631 E1563.70618
G1 X-53.964 Y-28.98 E1563.72452
G1 X-53.914 Y-29.128 E1563.73267
G1 X-53.843 Y-29.272 E1563.74104
G1 X-53.752 Y-29.408 E1563.74956
G1 X-53.6 Y-29.57 E1563.7611
G1 X-53.475 Y-29.67 E1563.76941
G1 X-53.239 Y-29.803 E1563.78347
G1 X-53.091 Y-29.853 E1563.79156
G1 X-52.742 Y-29.899 E1563.80981
G1 X52.743 Y-29.899 E1569.2917
G1 X53.089 Y-29.854 E1569.30983
G1 X53.288 Y-29.779 E1569.32086
G1 X53.429 Y-29.701 E1569.32921
G0 F18000 X53.187 Y-29
; TYPE:FILL
G1 F2400 X-53.181 Y-28.999 E1574.85705
G0 F18000 X-53.32 Y-28.499
G1 F2400 X53.321 Y-28.5 E1580.39902
G0 F18000 X53.321 Y-28
G1 F2400 X-53.32 Y-27.999 E1585.94104
G0 F18000 X-53.32 Y-27.499
G1 F2400 X53.321 Y-27.5 E1591.48301
G0 F18000 X53.321 Y-27
G1 F2400 X-53.32 Y-26.999 E1597.02503
G0 F18000 X-53.32 Y-26.499
G1 F2400 X53.321 Y-26.5 E1602.567
G0 F18000 X53.321 Y-26
G1 F2400 X-53.32 Y-25.999 E1608.10902
G0 F18000 X-53.32 Y-25.499
G1 F2400 X53.321 Y-25.5 E1613.65099
G0 F18000 X53.321 Y-25
G1 F2400 X-53.32 Y-24.999 E1619.19301
G0 F18000 X-53.32 Y-24.499
G1 F2400 X53.321 Y-24.5 E1624.73498
G0 F18000 X53.321 Y-24
G1 F2400 X-53.32 Y-23.999 E1630.277
G0 F18000 X-53.32 Y-23.499
G1 F2400 X53.321 Y-23.5 E1635.81897
G0 F18000 X53.321 Y-23
G1 F2400 X-53.32 Y-22.999 E1641.361
G0 F18000 X-53.32 Y-22.499
G1 F2400 X53.321 Y-22.5 E1646.90297
G0 F18000 X53.321 Y-22
G1 F2400 X-53.32 Y-21.999 E1652.44499
G0 F18000 X-53.32 Y-21.499
G1 F2400 X53.321 Y-21.5 E1657.98696
G0 F18000 X53.321 Y-21
G1 F2400 X-53.32 Y-20.999 E1663.52898
G0 F18000 X-53.32 Y-20.499
G1 F2400 X53.321 Y-20.5 E1669.07095
G0 F18000 X53.321 Y-20
G1 F2400 X-53.32 Y-19.999 E1674.61297
G0 F18000 X-53.32 Y-19.499
G1 F2400 X53.321 Y-19.5 E1680.15494
G0 F18000 X53.321 Y-19
G1 F2400 X-53.32 Y-18.999 E1685.69696
G0 F18000 X-53.32 Y-18.499
G1 F2400 X53.321 Y-18.5 E1691.23893
G0 F18000 X53.321 Y-18
G1 F2400 X-53.32 Y-17.999 E1696.78096
G0 F18000 X-53.32 Y-17.499
G1 F2400 X53.321 Y-17.5 E1702.32293
G0 F18000 X53.321 Y-17
G1 F2400 X-53.32 Y-16.999 E1707.86495
G0 F18000 X-53.32 Y-16.499
G1 F2400 X53.321 Y-16.5 E1713.40692
G0 F18000 X53.321 Y-16
G1 F2400 X-53.32 Y-15.999 E1718.94894
G0 F18000 X-53.32 Y-15.499
G1 F2400 X53.321 Y-15.5 E1724.49091
G0 F18000 X53.321 Y-15
G1 F2400 X-53.32 Y-14.999 E1730.03293
G0 F18000 X-53.32 Y-14.499
G1 F2400 X53.321 Y-14.5 E1735.5749
G0 F18000 X53.321 Y-14
G1 F2400 X-53.32 Y-13.999 E1741.11692
G0 F18000 X-53.32 Y-13.499
G1 F2400 X53.321 Y-13.5 E1746.65889
G0 F18000 X53.321 Y-13
G1 F2400 X-53.32 Y-12.999 E1752.20092
G0 F18000 X-53.32 Y-12.499
G1 F2400 X53.321 Y-12.5 E1757.74289
G0 F18000 X53.321 Y-12
G1 F2400 X-53.32 Y-11.999 E1763.28491
G0 F18000 X-53.32 Y-11.499
G1 F2400 X53.321 Y-11.5 E1768.82688
G0 F18000 X53.321 Y-11
G1 F2400 X-53.32 Y-10.999 E1774.3689
G0 F18000 X-53.32 Y-10.499
G1 F2400 X53.321 Y-10.5 E1779.91087
G0 F18000 X53.321 Y-10
G1 F2400 X-53.32 Y-9.999 E1785.45289
G0 F18000 X-53.32 Y-9.499
G1 F2400 X53.321 Y-9.5 E1790.99486
G0 F18000 X53.321 Y-9
G1 F2400 X-53.32 Y-8.999 E1796.53688
G0 F18000 X-53.32 Y-8.499
G1 F2400 X53.321 Y-8.5 E1802.07885
G0 F18000 X53.321 Y-8
G1 F2400 X-53.32 Y-7.999 E1807.62088
G0 F18000 X-53.32 Y-7.499
G1 F2400 X53.321 Y-7.5 E1813.16285
G0 F18000 X53.321 Y-7
G1 F2400 X-53.32 Y-6.999 E1818.70487
G0 F18000 X-53.32 Y-6.499
G1 F2400 X53.321 Y-6.5 E1824.24684
G0 F18000 X53.321 Y-6
G1 F2400 X-53.32 Y-5.999 E1829.78886
G0 F18000 X-53.32 Y-5.499
G1 F2400 X53.321 Y-5.5 E1835.33083
G0 F18000 X53.321 Y-5
G1 F2400 X-53.32 Y-4.999 E1840.87285
G0 F18000 X-53.32 Y-4.499
G1 F2400 X53.321 Y-4.5 E1846.41482
G0 F18000 X53.321 Y-4
G1 F2400 X-53.32 Y-3.999 E1851.95684
G0 F18000 X-53.32 Y-3.499
G1 F2400 X53.321 Y-3.5 E1857.49881
G0 F18000 X53.321 Y-3
G1 F2400 X-53.32 Y-2.999 E1863.04084
G0 F18000 X-53.32 Y-2.499
G1 F2400 X53.321 Y-2.5 E1868.58281
G0 F18000 X53.321 Y-2
G1 F2400 X-53.32 Y-1.999 E1874.12483
G0 F18000 X-53.32 Y-1.499
G1 F2400 X53.321 Y-1.5 E1879.6668
G0 F18000 X53.321 Y-1
G1 F2400 X-53.32 Y-0.999 E1885.20882
G0 F18000 X-53.32 Y-0.499
G1 F2400 X53.321 Y-0.5 E1890.75079
G0 F18000 X53.321 Y0
G1 F2400 X-53.32 Y0 E1896.29281
G0 F18000 X-53.32 Y0.5
G1 F2400 X53.321 Y0.499 E1901.83478
G0 F18000 X53.321 Y0.999
G1 F2400 X-53.32 Y1 E1907.3768
G0 F18000 X-53.32 Y1.5
G1 F2400 X53.321 Y1.499 E1912.91877
G0 F18000 X53.321 Y1.999
G1 F2400 X-53.32 Y2 E1918.4608
G0 F18000 X-53.32 Y2.5
G1 F2400 X53.321 Y2.499 E1924.00277
G0 F18000 X53.321 Y2.999
G1 F2400 X-53.32 Y3 E1929.54479
G0 F18000 X-53.32 Y3.5
G1 F2400 X53.321 Y3.499 E1935.08676
G0 F18000 X53.321 Y3.999
G1 F2400 X-53.32 Y4 E1940.62878
G0 F18000 X-53.32 Y4.5
G1 F2400 X53.321 Y4.499 E1946.17075
G0 F18000 X53.321 Y4.999
G1 F2400 X-53.32 Y5 E1951.71277
G0 F18000 X-53.32 Y5.5
G1 F2400 X53.321 Y5.499 E1957.25474
G0 F18000 X53.321 Y5.999
G1 F2400 X-53.32 Y6 E1962.79676
G0 F18000 X-53.32 Y6.5
G1 F2400 X53.321 Y6.499 E1968.33873
G0 F18000 X53.321 Y6.999
G1 F2400 X-53.32 Y7 E1973.88076
G0 F18000 X-53.32 Y7.5
G1 F2400 X53.321 Y7.499 E1979.42273
G0 F18000 X53.321 Y7.999
G1 F2400 X-53.32 Y8 E1984.96475
G0 F18000 X-53.32 Y8.5
G1 F2400 X53.321 Y8.499 E1990.50672
G0 F18000 X53.321 Y8.999
G1 F2400 X-53.32 Y9 E1996.04874
G0 F18000 X-53.32 Y9.5
G1 F2400 X53.321 Y9.499 E2001.59071
G0 F18000 X53.321 Y9.999
G1 F2400 X-53.32 Y10 E2007.13273
G0 F18000 X-53.32 Y10.5
G1 F2400 X53.321 Y10.499 E2012.6747
G0 F18000 X53.321 Y10.999
G1 F2400 X-53.32 Y11 E2018.21672
G0 F18000 X-53.32 Y11.5
G1 F2400 X53.321 Y11.499 E2023.75869
G0 F18000 X53.321 Y11.999
G1 F2400 X-53.32 Y12 E2029.30072
G0 F18000 X-53.32 Y12.5
G1 F2400 X53.321 Y12.499 E2034.84269
G0 F18000 X53.321 Y12.999
G1 F2400 X-53.32 Y13 E2040.38471
G0 F18000 X-53.32 Y13.5
G1 F2400 X53.321 Y13.499 E2045.92668
G0 F18000 X53.321 Y13.999
G1 F2400 X-53.32 Y14 E2051.4687
G0 F18000 X-53.32 Y14.5
G1 F2400 X53.321 Y14.499 E2057.01067
G0 F18000 X53.321 Y14.999
G1 F2400 X-53.32 Y15 E2062.55269
G0 F18000 X-53.32 Y15.5
G1 F2400 X53.321 Y15.499 E2068.09466
G0 F18000 X53.321 Y15.999
G1 F2400 X-53.32 Y16 E2073.63668
G0 F18000 X-53.32 Y16.5
G1 F2400 X53.321 Y16.499 E2079.17865
G0 F18000 X53.321 Y16.999
G1 F2400 X-53.32 Y17 E2084.72068
G0 F18000 X-53.32 Y17.5
G1 F2400 X53.321 Y17.499 E2090.26265
G0 F18000 X53.321 Y17.999
G1 F2400 X-53.32 Y18 E2095.80467
G0 F18000 X-53.32 Y18.5
G1 F2400 X53.321 Y18.499 E2101.34664
G0 F18000 X53.321 Y18.999
G1 F2400 X-53.32 Y19 E2106.88866
G0 F18000 X-53.32 Y19.5
G1 F2400 X53.321 Y19.499 E2112.43063
G0 F18000 X53.321 Y19.999
G1 F2400 X-53.32 Y20 E2117.97265
G0 F18000 X-53.32 Y20.5
G1 F2400 X53.321 Y20.499 E2123.51462
G0 F18000 X53.321 Y20.999
G1 F2400 X-53.32 Y21 E2129.05664
G0 F18000 X-53.32 Y21.5
G1 F2400 X53.321 Y21.499 E2134.59861
G0 F18000 X53.321 Y21.999
G1 F2400 X-53.32 Y22 E2140.14064
G0 F18000 X-53.32 Y22.5
G1 F2400 X53.321 Y22.499 E2145.68261
G0 F18000 X53.321 Y22.999
G1 F2400 X-53.32 Y23 E2151.22463
G0 F18000 X-53.32 Y23.5
G1 F2400 X53.321 Y23.499 E2156.7666
G0 F18000 X53.321 Y23.999
G1 F2400 X-53.32 Y24 E2162.30862
G0 F18000 X-53.32 Y24.5
G1 F2400 X53.321 Y24.499 E2167.85059
G0 F18000 X53.321 Y24.999
G1 F2400 X-53.32 Y25 E2173.39261
G0 F18000 X-53.32 Y25.5
G1 F2400 X53.321 Y25.499 E2178.93458
G0 F18000 X53.321 Y25.999
G1 F2400 X-53.32 Y26 E2184.4766
G0 F18000 X-53.32 Y26.5
G1 F2400 X53.321 Y26.499 E2190.01857
G0 F18000 X53.321 Y26.999
G1 F2400 X-53.32 Y27 E2195.5606
G0 F18000 X-53.32 Y27.5
G1 F2400 X53.321 Y27.499 E2201.10257
G0 F18000 X53.321 Y27.999
G1 F2400 X-53.32 Y28 E2206.64459
G0 F18000 X-53.32 Y28.5
G1 F2400 X53.321 Y28.499 E2212.18656
G0 F18000 X53.186 Y28.999
G1 F2400 X-53.187 Y29 E2217.71465
; LAYER:3
G0 F18000 X-53.322 Y29.137 Z1.05
; TYPE:WALL-INNER
G1 F2400 X-53.405 Y29.024 E2217.72197
G1 X-53.475 Y28.864 E2217.73107
G1 X-53.51 Y28.598 E2217.74502
G1 X-53.51 Y-28.597 E2220.71738
G1 X-53.476 Y-28.852 E2220.73079
G1 X-53.426 Y-28.981 E2220.73801
G1 X-53.351 Y-29.104 E2220.74552
G1 X-53.254 Y-29.206 E2220.75284
G1 X-53.048 Y-29.34 E2220.76559
G1 X-52.98 Y-29.363 E2220.76929
G1 X-52.708 Y-29.399 E2220.78351
G1 X52.709 Y-29.399 E2226.26187
G1 X52.963 Y-29.366 E2226.27517
G1 X53.085 Y-29.319 E2226.28195
G1 X53.216 Y-29.239 E2226.2899
G1 X53.323 Y-29.136 E2226.29758
G1 X53.406 Y-29.023 E2226.30482
G1 X53.476 Y-28.863 E2226.31385
G1 X53.511 Y-28.597 E2226.32774
G1 X53.511 Y28.598 E2229.30006
G1 X53.477 Y28.853 E2229.31342
G1 X53.427 Y28.982 E2229.32061
G1 X53.353 Y29.102 E2229.32794
G1 X53.253 Y29.208 E2229.33551
G1 X53.135 Y29.295 E2229.34313
G1 X52.977 Y29.365 E2229.35211
G1 X52.709 Y29.4 E2229.36616
G1 X-52.708 Y29.4 E2234.84457
G1 X-52.962 Y29.367 E2234.85793
G1 X-53.085 Y29.319 E2234.86485
G1 X-53.215 Y29.24 E2234.8728
G1 X-53.322 Y29.137 E2234.88055
G0 F18000 X-53.698 Y29.469
; TYPE:WALL-OUTER
G1 F2100 X-53.842 Y29.272 E2234.89326
G1 X-53.964 Y28.981 E2234.90968
G1 X-54.01 Y28.632 E2234.92798
G1 X-54.01 Y-28.631 E2237.90388
G1 X-53.965 Y-28.974 E2237.9219
G1 X-53.873 Y-29.21 E2237.9351
G1 X-53.751 Y-29.409 E2237.94725
G1 X-53.586 Y-29.582 E2237.95967
G1 X-53.382 Y-29.733 E2237.97285
G1 X-53.239 Y-29.803 E2237.9811
G1 X-53.091 Y-29.853 E2237.98919
G1 X-52.742 Y-29.899 E2238.00744
G1 X52.743 Y-29.899 E2243.48933
G1 X53.089 Y-29.854 E2243.50746
G1 X53.305 Y-29.77 E2243.51948
G1 X53.522 Y-29.639 E2243.53263
G1 X53.699 Y-29.468 E2243.54538
G1 X53.843 Y-29.271 E2243.55802
G1 X53.965 Y-28.98 E2243.57437
G1 X54.011 Y-28.631 E2243.59261
G1 X54.011 Y28.632 E2246.56846
G1 X53.966 Y28.975 E2246.58644
G1 X53.874 Y29.211 E2246.5996
G1 X53.754 Y29.407 E2246.61155
G1 X53.588 Y29.582 E2246.62408
G1 X53.384 Y29.731 E2246.63721
G1 X53.092 Y29.854 E2246.65368
G1 X52.743 Y29.9 E2246.67197
G1 X-52.742 Y29.9 E2252.15392
G1 X-53.088 Y29.855 E2252.1721
G1 X-53.304 Y29.771 E2252.18419
G1 X-53.521 Y29.64 E2252.19741
G1 X-53.698 Y29.469 E2252.21024
G0 F18000 X-53 Y29.138
; TYPE:FILL
G1 F2400 X-53 Y-29.14 E2255.23889
G0 F18000 X-52.5 Y-29.208
G1 F2400 X-52.5 Y29.209 E2258.2747
G0 F18000 X-52 Y29.209
G1 F2400 X-52 Y-29.208 E2261.31058
G0 F18000 X-51.5 Y-29.208
G1 F2400 X-51.5 Y29.209 E2264.34639
G0 F18000 X-51 Y29.209
G1 F2400 X-51 Y-29.208 E2267.38226
G0 F18000 X-50.5 Y-29.208
G1 F2400 X-50.5 Y29.209 E2270.41808
G0 F18000 X-50 Y29.209
G1 F2400 X-50 Y-29.208 E2273.45395
G0 F18000 X-49.5 Y-29.208
G1 F2400 X-49.5 Y29.209 E2276.48977
G0 F18000 X-49 Y29.209
G1 F2400 X-49 Y-29.208 E2279.52564
G0 F18000 X-48.5 Y-29.208
G1 F2400 X-48.5 Y29.209 E2282.56146
G0 F18000 X-48 Y29.209
G1 F2400 X-48 Y-29.208 E2285.59733
G0 F18000 X-47.5 Y-29.208
G1 F2400 X-47.5 Y29.209 E2288.63315
G0 F18000 X-47 Y29.209
G1 F2400 X-47 Y-29.208 E2291.66902
G0 F18000 X-46.5 Y-29.208
G1 F2400 X-46.5 Y29.209 E2294.70484
G0 F18000 X-46 Y29.209
G1 F2400 X-46 Y-29.208 E2297.74071
G0 F18000 X-45.5 Y-29.208
G1 F2400 X-45.5 Y29.209 E2300.77653
G0 F18000 X-45 Y29.209
G1 F2400 X-45 Y-29.208 E2303.8124
G0 F18000 X-44.5 Y-29.208
G1 F2400 X-44.5 Y29.209 E2306.84822
G0 F18000 X-44 Y29.209
G1 F2400 X-44 Y-29.208 E2309.88409
G0 F18000 X-43.5 Y-29.208
G1 F2400 X-43.5 Y29.209 E2312.91991
G0 F18000 X-43 Y29.209
G1 F2400 X-43 Y-29.208 E2315.95578
G0 F18000 X-42.5 Y-29.208
G1 F2400 X-42.5 Y29.209 E2318.9916
G0 F18000 X-42 Y29.209
G1 F2400 X-42 Y-29.208 E2322.02747
G0 F18000 X-41.5 Y-29.208
G1 F2400 X-41.5 Y29.209 E2325.06329
G0 F18000 X-41 Y29.209
G1 F2400 X-41 Y-29.208 E2328.09916
G0 F18000 X-40.5 Y-29.208
G1 F2400 X-40.5 Y29.209 E2331.13498
G0 F18000 X-40 Y29.209
G1 F2400 X-40 Y-29.208 E2334.17085
G0 F18000 X-39.5 Y-29.208
G1 F2400 X-39.5 Y29.209 E2337.20667
G0 F18000 X-39 Y29.209
G1 F2400 X-39 Y-29.208 E2340.24254
G0 F18000 X-38.5 Y-29.208
G1 F2400 X-38.5 Y29.209 E2343.27836
G0 F18000 X-38 Y29.209
G1 F2400 X-38 Y-29.208 E2346.31423
G0 F18000 X-37.5 Y-29.208
G1 F2400 X-37.5 Y29.209 E2349.35005
G0 F18000 X-37 Y29.209
G1 F2400 X-37 Y-29.208 E2352.38592
G0 F18000 X-36.5 Y-29.208
G1 F2400 X-36.5 Y29.209 E2355.42174
G0 F18000 X-36 Y29.209
G1 F2400 X-36 Y-29.208 E2358.45761
G0 F18000 X-35.5 Y-29.208
G1 F2400 X-35.5 Y29.209 E2361.49343
G0 F18000 X-35 Y29.209
G1 F2400 X-35 Y-29.208 E2364.5293
G0 F18000 X-34.5 Y-29.208
G1 F2400 X-34.5 Y29.209 E2367.56512
G0 F18000 X-34 Y29.209
G1 F2400 X-34 Y-29.208 E2370.60099
G0 F18000 X-33.5 Y-29.208
G1 F2400 X-33.5 Y29.209 E2373.63681
G0 F18000 X-33 Y29.209
G1 F2400 X-33 Y-29.208 E2376.67268
G0 F18000 X-32.5 Y-29.208
G1 F2400 X-32.499 Y29.209 E2379.7085
G0 F18000 X-31.999 Y29.209
G1 F2400 X-32 Y-29.208 E2382.74437
G0 F18000 X-31.5 Y-29.208
G1 F2400 X-31.499 Y29.209 E2385.78019
G0 F18000 X-30.999 Y29.209
G1 F2400 X-31 Y-29.208 E2388.81606
G0 F18000 X-30.5 Y-29.208
G1 F2400 X-30.499 Y29.209 E2391.85188
G0 F18000 X-29.999 Y29.209
G1 F2400 X-30 Y-29.208 E2394.88775
G0 F18000 X-29.5 Y-29.208
G1 F2400 X-29.499 Y29.209 E2397.92357
G0 F18000 X-28.999 Y29.209
G1 F2400 X-29 Y-29.208 E2400.95944
G0 F18000 X-28.5 Y-29.208
G1 F2400 X-28.499 Y29.209 E2403.99526
G0 F18000 X-27.999 Y29.209
G1 F2400 X-28 Y-29.208 E2407.03113
G0 F18000 X-27.5 Y-29.208
G1 F2400 X-27.499 Y29.209 E2410.06694
G0 F18000 X-26.999 Y29.209
G1 F2400 X-27 Y-29.208 E2413.10282
G0 F18000 X-26.5 Y-29.208
G1 F2400 X-26.499 Y29.209 E2416.13863
G0 F18000 X-25.999 Y29.209
G1 F2400 X-26 Y-29.208 E2419.17451
G0 F18000 X-25.5 Y-29.208
G1 F2400 X-25.499 Y29.209 E2422.21032
G0 F18000 X-24.999 Y29.209
G1 F2400 X-25 Y-29.208 E2425.24619
G0 F18000 X-24.5 Y-29.208
G1 F2400 X-24.499 Y29.209 E2428.28201
G0 F18000 X-23.999 Y29.209
G1 F2400 X-24 Y-29.208 E2431.31788
G0 F18000 X-23.5 Y-29.208
G1 F2400 X-23.499 Y29.209 E2434.3537
G0 F18000 X-22.999 Y29.209
G1 F2400 X-23 Y-29.208 E2437.38957
G0 F18000 X-22.5 Y-29.208
G1 F2400 X-22.499 Y29.209 E2440.42539
G0 F18000 X-21.999 Y29.209
G1 F2400 X-22 Y-29.208 E2443.46126
G0 F18000 X-21.5 Y-29.208
G1 F2400 X-21.499 Y29.209 E2446.49708
G0 F18000 X-20.999 Y29.209
G1 F2400 X-21 Y-29.208 E2449.53295
G0 F18000 X-20.5 Y-29.208
G1 F2400 X-20.499 Y29.209 E2452.56877
G0 F18000 X-19.999 Y29.209
G1 F2400 X-20 Y-29.208 E2455.60464
G0 F18000 X-19.5 Y-29.208
G1 F2400 X-19.499 Y29.209 E2458.64046
G0 F18000 X-18.999 Y29.209
G1 F2400 X-19 Y-29.208 E2461.67633
G0 F18000 X-18.5 Y-29.208
G1 F2400 X-18.499 Y29.209 E2464.71215
G0 F18000 X-17.999 Y29.209
G1 F2400 X-18 Y-29.208 E2467.74802
G0 F18000 X-17.5 Y-29.208
G1 F2400 X-17.499 Y29.209 E2470.78384
G0 F18000 X-16.999 Y29.209
G1 F2400 X-17 Y-29.208 E2473.81971
G0 F18000 X-16.5 Y-29.208
G1 F2400 X-16.499 Y29.209 E2476.85553
G0 F18000 X-15.999 Y29.209
G1 F2400 X-16 Y-29.208 E2479.8914
G0 F18000 X-15.5 Y-29.208
G1 F2400 X-15.499 Y29.209 E2482.92722
G0 F18000 X-14.999 Y29.209
G1 F2400 X-15 Y-29.208 E2485.96309
G0 F18000 X-14.5 Y-29.209
G1 F2400 X-14.499 Y29.209 E2488.99896
G0 F18000 X-13.999 Y29.209
G1 F2400 X-14 Y-29.209 E2492.03488
G0 F18000 X-13.5 Y-29.209
G1 F2400 X-13.499 Y29.209 E2495.07076
G0 F18000 X-12.999 Y29.209
G1 F2400 X-13 Y-29.209 E2498.10668
G0 F18000 X-12.5 Y-29.209
G1 F2400 X-12.499 Y29.209 E2501.14255
G0 F18000 X-11.999 Y29.209
G1 F2400 X-12 Y-29.209 E2504.17847
G0 F18000 X-11.5 Y-29.209
G1 F2400 X-11.499 Y29.209 E2507.21434
G0 F18000 X-10.999 Y29.209
G1 F2400 X-11 Y-29.209 E2510.25027
G0 F18000 X-10.5 Y-29.209
G1 F2400 X-10.499 Y29.209 E2513.28614
G0 F18000 X-9.999 Y29.209
G1 F2400 X-10 Y-29.209 E2516.32206
G0 F18000 X-9.5 Y-29.209
G1 F2400 X-9.499 Y29.209 E2519.35793
G0 F18000 X-8.999 Y29.209
G1 F2400 X-9 Y-29.209 E2522.39385
G0 F18000 X-8.5 Y-29.209
G1 F2400 X-8.499 Y29.209 E2525.42972
G0 F18000 X-7.999 Y29.209
G1 F2400 X-8 Y-29.209 E2528.46565
G0 F18000 X-7.5 Y-29.209
G1 F2400 X-7.499 Y29.209 E2531.50152
G0 F18000 X-6.999 Y29.209
G1 F2400 X-7 Y-29.209 E2534.53744
G0 F18000 X-6.5 Y-29.209
G1 F2400 X-6.499 Y29.209 E2537.57331
G0 F18000 X-5.999 Y29.209
G1 F2400 X-6 Y-29.209 E2540.60923
G0 F18000 X-5.5 Y-29.209
G1 F2400 X-5.499 Y29.209 E2543.6451
G0 F18000 X-4.999 Y29.209
G1 F2400 X-5 Y-29.209 E2546.68103
G0 F18000 X-4.5 Y-29.209
G1 F2400 X-4.499 Y29.209 E2549.7169
G0 F18000 X-3.999 Y29.209
G1 F2400 X-4 Y-29.209 E2552.75282
G0 F18000 X-3.5 Y-29.209
G1 F2400 X-3.499 Y29.209 E2555.78869
G0 F18000 X-2.999 Y29.209
G1 F2400 X-3 Y-29.209 E2558.82461
G0 F18000 X-2.5 Y-29.209
G1 F2400 X-2.499 Y29.209 E2561.86048
G0 F18000 X-1.999 Y29.209
G1 F2400 X-2 Y-29.209 E2564.89641
G0 F18000 X-1.5 Y-29.209
G1 F2400 X-1.499 Y29.209 E2567.93228
G0 F18000 X-0.999 Y29.209
G1 F2400 X-1 Y-29.209 E2570.9682
G0 F18000 X-0.5 Y-29.209
G1 F2400 X-0.499 Y29.209 E2574.00407
G0 F18000 X0 Y29.209
G1 F2400 X0 Y-29.209 E2577.03999
G0 F18000 X0.499 Y-29.208
G1 F2400 X0.5 Y29.21 E2580.07587
G0 F18000 X1 Y29.21
G1 F2400 X0.999 Y-29.208 E2583.11179
G0 F18000 X1.499 Y-29.208
G1 F2400 X1.5 Y29.21 E2586.14766
G0 F18000 X2 Y29.21
G1 F2400 X1.999 Y-29.208 E2589.18358
G0 F18000 X2.499 Y-29.208
G1 F2400 X2.5 Y29.21 E2592.21945
G0 F18000 X3 Y29.21
G1 F2400 X2.999 Y-29.208 E2595.25538
G0 F18000 X3.499 Y-29.208
G1 F2400 X3.5 Y29.21 E2598.29125
G0 F18000 X4 Y29.21
G1 F2400 X3.999 Y-29.208 E2601.32717
G0 F18000 X4.499 Y-29.208
G1 F2400 X4.5 Y29.21 E2604.36304
G0 F18000 X5 Y29.21
G1 F2400 X4.999 Y-29.208 E2607.39896
G0 F18000 X5.499 Y-29.208
G1 F2400 X5.5 Y29.21 E2610.43483
G0 F18000 X6 Y29.21
G1 F2400 X5.999 Y-29.208 E2613.47076
G0 F18000 X6.499 Y-29.208
G1 F2400 X6.5 Y29.21 E2616.50663
G0 F18000 X7 Y29.21
G1 F2400 X6.999 Y-29.208 E2619.54255
G0 F18000 X7.499 Y-29.208
G1 F2400 X7.5 Y29.21 E2622.57842
G0 F18000 X8 Y29.21
G1 F2400 X7.999 Y-29.208 E2625.61434
G0 F18000 X8.499 Y-29.208
G1 F2400 X8.5 Y29.21 E2628.65021
G0 F18000 X9 Y29.21
G1 F2400 X8.999 Y-29.208 E2631.68614
G0 F18000 X9.499 Y-29.208
G1 F2400 X9.5 Y29.21 E2634.72201
G0 F18000 X10 Y29.21
G1 F2400 X9.999 Y-29.208 E2637.75793
G0 F18000 X10.499 Y-29.208
G1 F2400 X10.5 Y29.21 E2640.7938
G0 F18000 X11 Y29.21
G1 F2400 X10.999 Y-29.208 E2643.82972
G0 F18000 X11.499 Y-29.208
G1 F2400 X11.5 Y29.21 E2646.86559
G0 F18000 X12 Y29.21
G1 F2400 X11.999 Y-29.208 E2649.90152
G0 F18000 X12.499 Y-29.208
G1 F2400 X12.5 Y29.21 E2652.93739
G0 F18000 X13 Y29.21
G1 F2400 X12.999 Y-29.208 E2655.97331
G0 F18000 X13.499 Y-29.208
G1 F2400 X13.5 Y29.21 E2659.00918
G0 F18000 X14 Y29.21
G1 F2400 X13.999 Y-29.208 E2662.0451
G0 F18000 X14.499 Y-29.208
G1 F2400 X14.5 Y29.21 E2665.08098
G0 F18000 X15 Y29.209
G1 F2400 X14.999 Y-29.208 E2668.11685
G0 F18000 X15.499 Y-29.208
G1 F2400 X15.5 Y29.209 E2671.15266
G0 F18000 X16 Y29.209
G1 F2400 X15.999 Y-29.208 E2674.18854
G0 F18000 X16.499 Y-29.208
G1 F2400 X16.5 Y29.209 E2677.22435
G0 F18000 X17 Y29.209
G1 F2400 X16.999 Y-29.208 E2680.26023
G0 F18000 X17.499 Y-29.208
G1 F2400 X17.5 Y29.209 E2683.29604
G0 F18000 X18 Y29.209
G1 F2400 X17.999 Y-29.208 E2686.33191
G0 F18000 X18.499 Y-29.208
G1 F2400 X18.5 Y29.209 E2689.36773
G0 F18000 X19 Y29.209
G1 F2400 X18.999 Y-29.208 E2692.4036
G0 F18000 X19.499 Y-29.208
G1 F2400 X19.5 Y29.209 E2695.43942
G0 F18000 X20 Y29.209
G1 F2400 X19.999 Y-29.208 E2698.47529
G0 F18000 X20.499 Y-29.208
G1 F2400 X20.5 Y29.209 E2701.51111
G0 F18000 X21 Y29.209
G1 F2400 X20.999 Y-29.208 E2704.54698
G0 F18000 X21.499 Y-29.208
G1 F2400 X21.5 Y29.209 E2707.5828
G0 F18000 X22 Y29.209
G1 F2400 X21.999 Y-29.208 E2710.61867
G0 F18000 X22.499 Y-29.208
G1 F2400 X22.5 Y29.209 E2713.65449
G0 F18000 X23 Y29.209
G1 F2400 X22.999 Y-29.208 E2716.69036
G0 F18000 X23.499 Y-29.208
G1 F2400 X23.5 Y29.209 E2719.72618
G0 F18000 X24 Y29.209
G1 F2400 X23.999 Y-29.208 E2722.76205
G0 F18000 X24.499 Y-29.208
G1 F2400 X24.5 Y29.209 E2725.79787
G0 F18000 X25 Y29.209
G1 F2400 X24.999 Y-29.208 E2728.83374
G0 F18000 X25.499 Y-29.208
G1 F2400 X25.5 Y29.209 E2731.86956
G0 F18000 X26 Y29.209
G1 F2400 X25.999 Y-29.208 E2734.90543
G0 F18000 X26.499 Y-29.208
G1 F2400 X26.5 Y29.209 E2737.94125
G0 F18000 X27 Y29.209
G1 F2400 X26.999 Y-29.208 E2740.97712
G0 F18000 X27.499 Y-29.208
G1 F2400 X27.5 Y29.209 E2744.01294
G0 F18000 X28 Y29.209
G1 F2400 X27.999 Y-29.208 E2747.04881
G0 F18000 X28.499 Y-29.208
G1 F2400 X28.5 Y29.209 E2750.08463
G0 F18000 X29 Y29.209
G1 F2400 X28.999 Y-29.208 E2753.1205
G0 F18000 X29.499 Y-29.208
G1 F2400 X29.5 Y29.209 E2756.15632
G0 F18000 X30 Y29.209
G1 F2400 X29.999 Y-29.208 E2759.19219
G0 F18000 X30.499 Y-29.208
G1 F2400 X30.5 Y29.209 E2762.22801
G0 F18000 X31 Y29.209
G1 F2400 X30.999 Y-29.208 E2765.26388
G0 F18000 X31.499 Y-29.208
G1 F2400 X31.5 Y29.209 E2768.2997
G0 F18000 X32 Y29.209
G1 F2400 X31.999 Y-29.208 E2771.33557
G0 F18000 X32.499 Y-29.208
G1 F2400 X32.5 Y29.209 E2774.37139
G0 F18000 X33 Y29.209
G1 F2400 X33 Y-29.208 E2777.40726
G0 F18000 X33.5 Y-29.208
G1 F2400 X33.5 Y29.209 E2780.44308
G0 F18000 X34 Y29.209
G1 F2400 X34 Y-29.208 E2783.47895
G0 F18000 X34.5 Y-29.208
G1 F2400 X34.5 Y29.209 E2786.51477
G0 F18000 X35 Y29.209
G1 F2400 X35 Y-29.208 E2789.55064
G0 F18000 X35.5 Y-29.208
G1 F2400 X35.5 Y29.209 E2792.58646
G0 F18000 X36 Y29.209
G1 F2400 X36 Y-29.208 E2795.62233
G0 F18000 X36.5 Y-29.208
G1 F2400 X36.5 Y29.209 E2798.65815
G0 F18000 X37 Y29.209
G1 F2400 X37 Y-29.208 E2801.69402
G0 F18000 X37.5 Y-29.208
G1 F2400 X37.5 Y29.209 E2804.72984
G0 F18000 X38 Y29.209
G1 F2400 X38 Y-29.208 E2807.76571
G0 F18000 X38.5 Y-29.208
G1 F2400 X38.5 Y29.209 E2810.80153
G0 F18000 X39 Y29.209
G1 F2400 X39 Y-29.208 E2813.8374
G0 F18000 X39.5 Y-29.208
G1 F2400 X39.5 Y29.209 E2816.87322
G0 F18000 X40 Y29.209
G1 F2400 X40 Y-29.208 E2819.90909
G0 F18000 X40.5 Y-29.208
G1 F2400 X40.5 Y29.209 E2822.94491
G0 F18000 X41 Y29.209
G1 F2400 X41 Y-29.208 E2825.98078
G0 F18000 X41.5 Y-29.208
G1 F2400 X41.5 Y29.209 E2829.0166
G0 F18000 X42 Y29.209
G1 F2400 X42 Y-29.208 E2832.05247
G0 F18000 X42.5 Y-29.208
G1 F2400 X42.5 Y29.209 E2835.08828
G0 F18000 X43 Y29.209
G1 F2400 X43 Y-29.208 E2838.12416
G0 F18000 X43.5 Y-29.208
G1 F2400 X43.5 Y29.209 E2841.15997
G0 F18000 X44 Y29.209
G1 F2400 X44 Y-29.208 E2844.19585
G0 F18000 X44.5 Y-29.208
G1 F2400 X44.5 Y29.209 E2847.23166
G0 F18000 X45 Y29.209
G1 F2400 X45 Y-29.208 E2850.26753
G0 F18000 X45.5 Y-29.208
G1 F2400 X45.5 Y29.209 E2853.30335
G0 F18000 X46 Y29.209
G1 F2400 X46 Y-29.208 E2856.33922
G0 F18000 X46.5 Y-29.208
G1 F2400 X46.5 Y29.209 E2859.37504
G0 F18000 X47 Y29.209
G1 F2400 X47 Y-29.208 E2862.41091
G0 F18000 X47.5 Y-29.208
G1 F2400 X47.5 Y29.209 E2865.44673
G0 F18000 X48 Y29.209
G1 F2400 X48 Y-29.208 E2868.4826
G0 F18000 X48.5 Y-29.208
G1 F2400 X48.5 Y29.209 E2871.51842
G0 F18000 X49 Y29.209
G1 F2400 X49 Y-29.208 E2874.55429
G0 F18000 X49.5 Y-29.208
G1 F2400 X49.5 Y29.209 E2877.59011
G0 F18000 X50 Y29.209
G1 F2400 X50 Y-29.208 E2880.62598
G0 F18000 X50.5 Y-29.208
G1 F2400 X50.5 Y29.209 E2883.6618
G0 F18000 X51 Y29.209
G1 F2400 X51 Y-29.208 E2886.69767
G0 F18000 X51.5 Y-29.208
G1 F2400 X51.5 Y29.209 E2889.73349
G0 F18000 X52 Y29.209
G1 F2400 X52 Y-29.208 E2892.76936
G0 F18000 X52.5 Y-29.208
G1 F2400 X52.5 Y29.209 E2895.80518
G0 F18000 X53 Y29.145
G1 F2400 X53 Y-29.138 E2898.83409
; LAYER:4
G0 F18000 X53.102 Y-29.31 Z1.3
; TYPE:WALL-INNER
G1 F2400 X53.217 Y-29.24 E2898.84106
G1 X53.311 Y-29.15 E2898.84778
G1 X53.408 Y-29.019 E2898.85621
G1 X53.475 Y-28.869 E2898.8647
G1 X53.511 Y-28.597 E2898.87891
G1 X53.511 Y28.598 E2901.85122
G1 X53.478 Y28.852 E2901.86454
G1 X53.434 Y28.967 E2901.87093
G1 X53.351 Y29.104 E2901.87926
G1 X53.242 Y29.217 E2901.88742
G1 X53.136 Y29.294 E2901.89423
G1 X52.972 Y29.365 E2901.90351
G1 X52.709 Y29.4 E2901.9173
G1 X-52.708 Y29.4 E2907.39571
G1 X-52.959 Y29.367 E2907.40892
G1 X-53.101 Y29.311 E2907.4169
G1 X-53.216 Y29.241 E2907.42394
G1 X-53.31 Y29.151 E2907.43075
G1 X-53.407 Y29.02 E2907.43925
G1 X-53.474 Y28.87 E2907.44781
G1 X-53.51 Y28.598 E2907.46207
G1 X-53.51 Y-28.597 E2910.43444
G1 X-53.477 Y-28.851 E2910.44779
G1 X-53.433 Y-28.966 E2910.45422
G1 X-53.35 Y-29.103 E2910.46256
G1 X-53.241 Y-29.216 E2910.47073
G1 X-53.048 Y-29.34 E2910.48263
G1 X-52.98 Y-29.363 E2910.48633
G1 X-52.708 Y-29.399 E2910.50054
G1 X52.709 Y-29.399 E2915.9789
G1 X52.96 Y-29.366 E2915.99205
G1 X53.102 Y-29.31 E2915.99997
G0 F18000 X53.328 Y-29.758
; TYPE:WALL-OUTER
G1 F2100 X53.52 Y-29.64 E2916.01165
G1 X53.688 Y-29.481 E2916.02364
G1 X53.844 Y-29.27 E2916.03723
G1 X53.965 Y-28.98 E2916.05352
G1 X54.011 Y-28.631 E2916.07176
G1 X54.011 Y28.632 E2919.0476
G1 X53.966 Y28.975 E2919.06558
G1 X53.884 Y29.189 E2919.07749
G1 X53.753 Y29.408 E2919.09075
G1 X53.571 Y29.596 E2919.10435
G1 X53.383 Y29.732 E2919.11641
G1 X53.092 Y29.854 E2919.13281
G1 X52.743 Y29.9 E2919.1511
G1 X-52.742 Y29.9 E2924.63305
G1 X-53.084 Y29.855 E2924.65103
G1 X-53.327 Y29.759 E2924.66465
G1 X-53.519 Y29.641 E2924.67641
G1 X-53.687 Y29.482 E2924.68847
G1 X-53.843 Y29.271 E2924.70214
G1 X-53.964 Y28.981 E2924.71849
G1 X-54.01 Y28.632 E2924.73679
G1 X-54.01 Y-28.631 E2927.71269
G1 X-53.965 Y-28.974 E2927.73071
G1 X-53.883 Y-29.188 E2927.74265
G1 X-53.752 Y-29.407 E2927.75593
G1 X-53.57 Y-29.595 E2927.76953
G1 X-53.377 Y-29.735 E2927.78191
G1 X-53.239 Y-29.803 E2927.78988
G1 X-53.091 Y-29.853 E2927.79797
G1 X-52.742 Y-29.899 E2927.81622
G1 X52.743 Y-29.899 E2933.29811
G1 X53.085 Y-29.854 E2933.31603
G1 X53.328 Y-29.758 E2933.32959
G0 F18000 X53.176 Y-29
; TYPE:FILL
G1 F2400 X-53.184 Y-28.999 E2938.85701
G0 F18000 X-53.32 Y-28.499
G1 F2400 X53.321 Y-28.5 E2944.39898
G0 F18000 X53.321 Y-28
G1 F2400 X-53.32 Y-27.999 E2949.941
G0 F18000 X-53.32 Y-27.499
G1 F2400 X53.321 Y-27.5 E2955.48297
G0 F18000 X53.321 Y-27
G1 F2400 X-53.32 Y-26.999 E2961.02499
G0 F18000 X-53.32 Y-26.499
G1 F2400 X53.321 Y-26.5 E2966.56696
G0 F18000 X53.321 Y-26
G1 F2400 X-53.32 Y-25.999 E2972.10898
G0 F18000 X-53.32 Y-25.499
G1 F2400 X-37.927 Y-25.499 E2972.90889
G0 F18000 X-38.103 Y-25.499
G1 F2400 X-35.482 Y-25.499 E2973.04505
G0 F18000 X-35.66 Y-25.499
G1 F2400 X44.558 Y-25.5 E2977.21384
G0 F18000 X44.373 Y-25.5
G1 F2400 X46.998 Y-25.5 E2977.35026
G0 F18000 X46.807 Y-25.5
G1 F2400 X53.321 Y-25.5 E2977.68879
G0 F18000 X53.321 Y-25
G1 F2400 X47.235 Y-25 E2978.00507
G0 F18000 X47.374 Y-25
G1 F2400 X43.991 Y-25 E2978.18088
G0 F18000 X44.131 Y-25
G1 F2400 X-35.239 Y-24.999 E2982.30566
G0 F18000 X-35.102 Y-24.999
G1 F2400 X-38.482 Y-24.999 E2982.48137
G0 F18000 X-38.346 Y-24.999
G1 F2400 X-53.32 Y-24.999 E2983.2596
G0 F18000 X-53.32 Y-24.499
G1 F2400 X-38.545 Y-24.499 E2984.02739
G0 F18000 X-38.667 Y-24.499
G1 F2400 X-34.92 Y-24.499 E2984.22207
G0 F18000 X-35.042 Y-24.499
G1 F2400 X43.935 Y-24.5 E2988.32637
G0 F18000 X43.811 Y-24.5
G1 F2400 X47.551 Y-24.5 E2988.52073
G0 F18000 X47.428 Y-24.5
G1 F2400 X53.321 Y-24.5 E2988.82698
G0 F18000 X53.321 Y-24
G1 F2400 X47.474 Y-24 E2989.13085
G0 F18000 X47.594 Y-24
G1 F2400 X43.773 Y-24 E2989.32942
G0 F18000 X43.893 Y-24
G1 F2400 X-35.009 Y-23.999 E2993.42987
G0 F18000 X-34.889 Y-23.999
G1 F2400 X-38.707 Y-23.999 E2993.62834
G0 F18000 X-38.587 Y-23.999
G1 F2400 X-53.32 Y-23.999 E2994.39405
G0 F18000 X-53.32 Y-23.499
G1 F2400 X-38.477 Y-23.499 E2995.16538
G0 F18000 X-38.604 Y-23.499
G1 F2400 X-34.981 Y-23.499 E2995.35361
G0 F18000 X-35.11 Y-23.499
G1 F2400 X43.997 Y-23.5 E2999.46467
G0 F18000 X43.869 Y-23.5
G1 F2400 X47.491 Y-23.5 E2999.6529
G0 F18000 X47.365 Y-23.5
G1 F2400 X53.321 Y-23.5 E2999.96243
G0 F18000 X53.321 Y-23
G1 F2400 X47.086 Y-23 E3000.28645
G0 F18000 X47.24 Y-23
G1 F2400 X44.13 Y-23 E3000.44808
G0 F18000 X44.275 Y-23
G1 F2400 X-35.387 Y-22.999 E3004.58803
G0 F18000 X-35.239 Y-22.999
G1 F2400 X-38.349 Y-22.999 E3004.7497
G0 F18000 X-38.197 Y-22.999
G1 F2400 X-53.32 Y-22.999 E3005.53568
G0 F18000 X-53.32 Y-22.499
G1 F2400 X-37.58 Y-22.499 E3006.35362
G0 F18000 X-37.818 Y-22.499
G1 F2400 X-35.757 Y-22.499 E3006.46068
G0 F18000 X-36.014 Y-22.499
G1 F2400 X44.9 Y-22.5 E3010.66564
G0 F18000 X44.645 Y-22.5
G1 F2400 X46.71 Y-22.5 E3010.77296
G0 F18000 X46.477 Y-22.5
G1 F2400 X53.321 Y-22.5 E3011.12863
G0 F18000 X53.321 Y-22
G1 F2400 X-53.32 Y-21.999 E3016.67065
G0 F18000 X-53.32 Y-21.499
G1 F2400 X53.321 Y-21.5 E3022.21262
G0 F18000 X53.321 Y-21
G1 F2400 X-53.32 Y-20.999 E3027.75465
G0 F18000 X-53.32 Y-20.499
G1 F2400 X14.204 Y-20.5 E3031.26375
G0 F18000 X14.014 Y-20.5
G1 F2400 X16.455 Y-20.5 E3031.3906
G0 F18000 X16.263 Y-20.5
G1 F2400 X53.321 Y-20.5 E3033.31647
G0 F18000 X53.321 Y-20
G1 F2400 X16.743 Y-20 E3035.21739
G0 F18000 X16.88 Y-20
G1 F2400 X13.589 Y-20 E3035.38842
G0 F18000 X13.726 Y-20
G1 F2400 X-53.32 Y-19.999 E3038.87273
G0 F18000 X-53.32 Y-19.499
G1 F2400 X13.503 Y-19.5 E3042.3454
G0 F18000 X13.377 Y-19.5
G1 F2400 X17.092 Y-19.5 E3042.53846
G0 F18000 X16.966 Y-19.5
G1 F2400 X53.321 Y-19.5 E3044.4278
G0 F18000 X53.321 Y-19
G1 F2400 X17.023 Y-19 E3046.31417
G0 F18000 X17.143 Y-19
G1 F2400 X13.326 Y-19 E3046.51253
G0 F18000 X13.446 Y-19
G1 F2400 X-53.32 Y-18.999 E3049.98229
G0 F18000 X-53.32 Y-18.499
G1 F2400 X13.522 Y-18.5 E3053.45595
G0 F18000 X13.395 Y-18.5
G1 F2400 X17.069 Y-18.5 E3053.64688
G0 F18000 X16.943 Y-18.5
G1 F2400 X53.321 Y-18.5 E3055.53741
G0 F18000 X53.321 Y-18
G1 F2400 X16.7 Y-18 E3057.44056
G0 F18000 X16.845 Y-18
G1 F2400 X13.623 Y-18 E3057.60801
G0 F18000 X13.769 Y-18
G1 F2400 X-53.32 Y-17.999 E3061.09455
G0 F18000 X-53.32 Y-17.499
G1 F2400 X14.307 Y-17.5 E3064.60901
G0 F18000 X14.092 Y-17.5
G1 F2400 X16.373 Y-17.5 E3064.72755
G0 F18000 X16.165 Y-17.5
G1 F2400 X53.321 Y-17.5 E3066.65851
G0 F18000 X53.321 Y-17
G1 F2400 X-53.32 Y-16.999 E3072.20053
G0 F18000 X-53.32 Y-16.499
G1 F2400 X53.321 Y-16.5 E3077.7425
G0 F18000 X53.321 Y-16
G1 F2400 X-53.32 Y-15.999 E3083.28452
G0 F18000 X-53.32 Y-15.499
G1 F2400 X53.321 Y-15.5 E3088.82649
G0 F18000 X53.321 Y-15
G1 F2400 X-53.32 Y-14.999 E3094.36851
G0 F18000 X-53.32 Y-14.499
G1 F2400 X53.321 Y-14.5 E3099.91048
G0 F18000 X53.321 Y-14
G1 F2400 X-53.32 Y-13.999 E3105.4525
G0 F18000 X-53.32 Y-13.499
G1 F2400 X53.321 Y-13.5 E3110.99447
G0 F18000 X53.321 Y-13
G1 F2400 X-53.32 Y-12.999 E3116.5365
G0 F18000 X-53.32 Y-12.499
G1 F2400 X53.321 Y-12.5 E3122.07847
G0 F18000 X53.321 Y-12
G1 F2400 X-53.32 Y-11.999 E3127.62049
G0 F18000 X-53.32 Y-11.499
G1 F2400 X53.321 Y-11.5 E3133.16246
G0 F18000 X53.321 Y-11
G1 F2400 X-53.32 Y-10.999 E3138.70448
G0 F18000 X-53.32 Y-10.499
G1 F2400 X53.321 Y-10.5 E3144.24645
G0 F18000 X53.321 Y-10
G1 F2400 X-53.32 Y-9.999 E3149.78847
G0 F18000 X-53.32 Y-9.499
G1 F2400 X53.321 Y-9.5 E3155.33044
G0 F18000 X53.321 Y-9
G1 F2400 X-53.32 Y-8.999 E3160.87246
G0 F18000 X-53.32 Y-8.499
G1 F2400 X53.321 Y-8.5 E3166.41443
G0 F18000 X53.321 Y-8
G1 F2400 X-53.32 Y-7.999 E3171.95646
G0 F18000 X-53.32 Y-7.499
G1 F2400 X53.321 Y-7.5 E3177.49843
G0 F18000 X53.321 Y-7
G1 F2400 X-53.32 Y-6.999 E3183.04045
G0 F18000 X-53.32 Y-6.499
G1 F2400 X53.321 Y-6.5 E3188.58242
G0 F18000 X53.321 Y-6
G1 F2400 X-53.32 Y-5.999 E3194.12444
G0 F18000 X-53.32 Y-5.499
G1 F2400 X53.321 Y-5.5 E3199.66641
G0 F18000 X53.321 Y-5
G1 F2400 X-53.32 Y-4.999 E3205.20843
G0 F18000 X-53.32 Y-4.499
G1 F2400 X53.321 Y-4.5 E3210.7504
G0 F18000 X53.321 Y-4
G1 F2400 X-53.32 Y-3.999 E3216.29242
G0 F18000 X-53.32 Y-3.499
G1 F2400 X53.321 Y-3.5 E3221.83439
G0 F18000 X53.321 Y-3
G1 F2400 X-53.32 Y-2.999 E3227.37642
G0 F18000 X-53.32 Y-2.499
G1 F2400 X53.321 Y-2.5 E3232.91839
G0 F18000 X53.321 Y-2
G1 F2400 X-53.32 Y-1.999 E3238.46041
G0 F18000 X-53.32 Y-1.499
G1 F2400 X53.321 Y-1.5 E3244.00238
G0 F18000 X53.321 Y-1
G1 F2400 X-53.32 Y-0.999 E3249.5444
G0 F18000 X-53.32 Y-0.499
G1 F2400 X53.321 Y-0.5 E3255.08637
G0 F18000 X53.321 Y0
G1 F2400 X-53.32 Y0 E3260.62839
G0 F18000 X-53.32 Y0.5
G1 F2400 X53.321 Y0.499 E3266.17036
G0 F18000 X53.321 Y0.999
G1 F2400 X-53.32 Y1 E3271.71238
G0 F18000 X-53.32 Y1.5
G1 F2400 X53.321 Y1.499 E3277.25435
G0 F18000 X53.321 Y1.999
G1 F2400 X-53.32 Y2 E3282.79638
G0 F18000 X-53.32 Y2.5
G1 F2400 X53.321 Y2.499 E3288.33835
G0 F18000 X53.321 Y2.999
G1 F2400 X-53.32 Y3 E3293.88037
G0 F18000 X-53.32 Y3.5
G1 F2400 X53.321 Y3.499 E3299.42234
G0 F18000 X53.321 Y3.999
G1 F2400 X-53.32 Y4 E3304.96436
G0 F18000 X-53.32 Y4.5
G1 F2400 X53.321 Y4.499 E3310.50633
G0 F18000 X53.321 Y4.999
G1 F2400 X-53.32 Y5 E3316.04835
G0 F18000 X-53.32 Y5.5
G1 F2400 X53.321 Y5.499 E3321.59032
G0 F18000 X53.321 Y5.999
G1 F2400 X-53.32 Y6 E3327.13234
G0 F18000 X-53.32 Y6.5
G1 F2400 X53.321 Y6.499 E3332.67431
G0 F18000 X53.321 Y6.999
G1 F2400 X-53.32 Y7 E3338.21634
G0 F18000 X-53.32 Y7.5
G1 F2400 X14.093 Y7.499 E3341.71967
G0 F18000 X13.908 Y7.499
G1 F2400 X16.561 Y7.499 E3341.85754
G0 F18000 X16.38 Y7.499
G1 F2400 X53.321 Y7.499 E3343.77733
G0 F18000 X53.321 Y7.999
G1 F2400 X16.798 Y7.999 E3345.67539
G0 F18000 X16.938 Y7.999
G1 F2400 X13.538 Y7.999 E3345.85208
G0 F18000 X13.676 Y7.999
G1 F2400 X-53.32 Y8 E3349.3338
G0 F18000 X-53.32 Y8.5
G1 F2400 X13.484 Y8.5 E3352.80548
G0 F18000 X13.363 Y8.5
G1 F2400 X17.112 Y8.499 E3353.00031
G0 F18000 X16.99 Y8.499
G1 F2400 X53.321 Y8.499 E3354.88839
G0 F18000 X53.321 Y8.999
G1 F2400 X17.021 Y8.999 E3356.77487
G0 F18000 X17.141 Y8.999
G1 F2400 X13.328 Y9 E3356.97303
G0 F18000 X13.448 Y9
G1 F2400 X-53.32 Y9 E3360.44289
G0 F18000 X-53.32 Y9.5
G1 F2400 X13.555 Y9.5 E3363.91826
G0 F18000 X13.428 Y9.5
G1 F2400 X17.038 Y9.499 E3364.10587
G0 F18000 X16.911 Y9.499
G1 F2400 X53.321 Y9.499 E3365.99806
G0 F18000 X53.321 Y9.999
G1 F2400 X16.63 Y9.999 E3367.90485
G0 F18000 X16.781 Y9.999
G1 F2400 X13.691 Y10 E3368.06544
G0 F18000 X13.843 Y10
G1 F2400 X-53.32 Y10 E3371.55583
G0 F18000 X-53.32 Y10.5
G1 F2400 X14.486 Y10.5 E3375.07958
G0 F18000 X14.229 Y10.5
G1 F2400 X16.244 Y10.499 E3375.1843
G0 F18000 X15.985 Y10.499
G1 F2400 X53.321 Y10.499 E3377.12461
G0 F18000 X53.321 Y10.999
G1 F2400 X-53.32 Y11 E3382.66664
G0 F18000 X-53.32 Y11.5
G1 F2400 X53.321 Y11.499 E3388.20861
G0 F18000 X53.321 Y11.999
G1 F2400 X-53.32 Y12 E3393.75063
G0 F18000 X-53.32 Y12.5
G1 F2400 X53.321 Y12.499 E3399.2926
G0 F18000 X53.321 Y12.999
G1 F2400 X-53.32 Y13 E3404.83462
G0 F18000 X-53.32 Y13.5
G1 F2400 X53.321 Y13.499 E3410.37659
G0 F18000 X53.321 Y13.999
G1 F2400 X-53.32 Y14 E3415.91861
G0 F18000 X-53.32 Y14.5
G1 F2400 X53.321 Y14.499 E3421.46058
G0 F18000 X53.321 Y14.999
G1 F2400 X-53.32 Y15 E3427.0026
G0 F18000 X-53.32 Y15.5
G1 F2400 X53.321 Y15.499 E3432.54457
G0 F18000 X53.321 Y15.999
G1 F2400 X-53.32 Y16 E3438.0866
G0 F18000 X-53.32 Y16.5
G1 F2400 X53.321 Y16.499 E3443.62857
G0 F18000 X53.321 Y16.999
G1 F2400 X-53.32 Y17 E3449.17059
G0 F18000 X-53.32 Y17.5
G1 F2400 X53.321 Y17.499 E3454.71256
G0 F18000 X53.321 Y17.999
G1 F2400 X-53.32 Y18 E3460.25458
G0 F18000 X-53.32 Y18.5
G1 F2400 X53.321 Y18.499 E3465.79655
G0 F18000 X53.321 Y18.999
G1 F2400 X-53.32 Y19 E3471.33857
G0 F18000 X-53.32 Y19.5
G1 F2400 X53.321 Y19.499 E3476.88054
G0 F18000 X53.321 Y19.999
G1 F2400 X-53.32 Y20 E3482.42256
G0 F18000 X-53.32 Y20.5
G1 F2400 X53.321 Y20.499 E3487.96453
G0 F18000 X53.321 Y20.999
G1 F2400 X-53.32 Y21 E3493.50656
G0 F18000 X-53.32 Y21.5
G1 F2400 X53.321 Y21.499 E3499.04853
G0 F18000 X53.321 Y21.999
G1 F2400 X-53.32 Y22 E3504.59055
G0 F18000 X-53.32 Y22.5
G1 F2400 X-36.308 Y22.5 E3505.47459
G0 F18000 X-36.55 Y22.5
G1 F2400 X-34.497 Y22.5 E3505.58123
G0 F18000 X-34.744 Y22.5
G1 F2400 X38.579 Y22.499 E3509.3917
G0 F18000 X38.332 Y22.499
G1 F2400 X40.379 Y22.499 E3509.49808
G0 F18000 X40.144 Y22.499
G1 F2400 X53.321 Y22.499 E3510.18287
G0 F18000 X53.321 Y22.999
G1 F2400 X40.757 Y22.999 E3510.83581
G0 F18000 X40.907 Y22.999
G1 F2400 X37.805 Y22.999 E3510.99702
G0 F18000 X37.952 Y22.999
G1 F2400 X-34.119 Y23 E3514.74248
G0 F18000 X-33.972 Y23
G1 F2400 X-37.08 Y23 E3514.90405
G0 F18000 X-36.929 Y23
G1 F2400 X-53.32 Y23 E3515.75592
G0 F18000 X-53.32 Y23.5
G1 F2400 X-37.206 Y23.5 E3516.5933
G0 F18000 X-37.334 Y23.5
G1 F2400 X-33.716 Y23.5 E3516.78127
G0 F18000 X-33.841 Y23.5
G1 F2400 X37.668 Y23.499 E3520.49747
G0 F18000 X37.542 Y23.499
G1 F2400 X41.165 Y23.499 E3520.68575
G0 F18000 X41.038 Y23.499
G1 F2400 X53.321 Y23.499 E3521.32408
G0 F18000 X53.321 Y23.999
G1 F2400 X41.148 Y23.999 E3521.9567
G0 F18000 X41.268 Y23.999
G1 F2400 X37.447 Y23.999 E3522.15528
G0 F18000 X37.567 Y23.999
G1 F2400 X-33.735 Y24 E3525.86077
G0 F18000 X-33.615 Y24
G1 F2400 X-37.431 Y24 E3526.05913
G0 F18000 X-37.311 Y24
G1 F2400 X-53.32 Y24 E3526.89116
G0 F18000 X-53.32 Y24.5
G1 F2400 X-37.276 Y24.5 E3527.72489
G0 F18000 X-37.397 Y24.5
G1 F2400 X-33.656 Y24.5 E3527.91926
G0 F18000 X-33.778 Y24.5
G1 F2400 X37.611 Y24.499 E3531.62922
G0 F18000 X37.487 Y24.499
G1 F2400 X41.227 Y24.499 E3531.82358
G0 F18000 X41.107 Y24.499
G1 F2400 X53.321 Y24.499 E3532.45833
G0 F18000 X53.321 Y24.999
G1 F2400 X40.908 Y24.999 E3533.10342
G0 F18000 X41.045 Y24.999
G1 F2400 X37.66 Y24.999 E3533.27934
G0 F18000 X37.802 Y24.999
G1 F2400 X-33.975 Y25 E3537.00951
G0 F18000 X-33.835 Y25
G1 F2400 X-37.213 Y25 E3537.18512
G0 F18000 X-37.076 Y25
G1 F2400 X-53.32 Y25 E3538.02935
G0 F18000 X-53.32 Y25.5
G1 F2400 X-36.66 Y25.5 E3538.8951
G0 F18000 X-36.833 Y25.5
G1 F2400 X-34.216 Y25.5 E3539.03105
G0 F18000 X-34.397 Y25.5
G1 F2400 X38.228 Y25.499 E3542.80525
G0 F18000 X38.038 Y25.499
G1 F2400 X40.668 Y25.499 E3542.94193
G0 F18000 X40.485 Y25.499
G1 F2400 X53.321 Y25.499 E3543.609
G0 F18000 X53.321 Y25.999
G1 F2400 X-53.32 Y26 E3549.15102
G0 F18000 X-53.32 Y26.5
G1 F2400 X53.321 Y26.499 E3554.69299
G0 F18000 X53.321 Y26.999
G1 F2400 X-53.32 Y27 E3560.23501
G0 F18000 X-53.32 Y27.5
G1 F2400 X53.321 Y27.499 E3565.77698
G0 F18000 X53.321 Y27.999
G1 F2400 X-53.32 Y28 E3571.319
G0 F18000 X-53.32 Y28.5
G1 F2400 X53.321 Y28.499 E3576.86097
G0 F18000 X53.185 Y28.999
G1 F2400 X-53.176 Y29 E3582.38845
G0 F18000 X-35.791 Y26
G0 X-35.791 Y26
G1 F2400 X-35.213 Y26 E3582.41843
G0 F18000 X-36.498 Y-25.999
G0 X-36.498 Y-25.999
G1 F2400 X-37.087 Y-25.999 E3582.44909
G0 F18000 X14.886 Y6.999
G0 X14.886 Y6.999
G1 F2400 X15.585 Y6.999 E3582.48542
G0 F18000 X39.083 Y25.999
G0 X39.083 Y25.999
G1 F2400 X39.644 Y25.999 E3582.51457
G0 F18000 X45.412 Y-26
G0 X45.412 Y-26
G1 F2400 X45.941 Y-26 E3582.54207
; LAYER:5
G0 F18000 X52.709 Y-29.399 Z1.55
G0 X52.709 Y-29.399
; TYPE:WALL-INNER
G1 F2400 X52.981 Y-29.363 E3582.55632
G1 X53.134 Y-29.298 E3582.56494
G1 X53.309 Y-29.154 E3582.57668
G1 X53.422 Y-28.995 E3582.58678
G1 X53.475 Y-28.871 E3582.59374
G1 X53.511 Y-28.597 E3582.60805
G1 X53.511 Y28.592 E3585.58005
G1 X53.463 Y28.897 E3585.59609
G1 X53.393 Y29.046 E3585.60465
G1 X53.235 Y29.225 E3585.61706
G1 X53.049 Y29.341 E3585.62845
G1 X52.981 Y29.364 E3585.63218
G1 X52.709 Y29.4 E3585.64644
G1 X-52.708 Y29.4 E3591.12485
G1 X-52.98 Y29.364 E3591.13916
G1 X-53.133 Y29.299 E3591.14785
G1 X-53.309 Y29.154 E3591.15974
G1 X-53.421 Y28.996 E3591.16983
G1 X-53.474 Y28.872 E3591.17686
G1 X-53.51 Y28.598 E3591.19123
G1 X-53.51 Y-28.591 E3594.16328
G1 X-53.462 Y-28.896 E3594.17937
G1 X-53.392 Y-29.045 E3594.18795
G1 X-53.229 Y-29.228 E3594.20069
G1 X-53.048 Y-29.34 E3594.21174
G1 X-52.98 Y-29.363 E3594.21544
G1 X-52.708 Y-29.399 E3594.22965
G1 X52.709 Y-29.399 E3599.70801
G0 F18000 X52.743 Y-29.899
; TYPE:WALL-OUTER
G1 F2100 X53.092 Y-29.853 E3599.7263
G1 X53.24 Y-29.803 E3599.7344
G1 X53.384 Y-29.732 E3599.74272
G1 X53.52 Y-29.641 E3599.7512
G1 X53.677 Y-29.495 E3599.7623
G1 X53.776 Y-29.373 E3599.77043
G1 X53.865 Y-29.229 E3599.77918
G1 X53.965 Y-28.98 E3599.79308
G1 X54.011 Y-28.631 E3599.81132
G1 X54.011 Y28.63 E3602.78706
G1 X53.949 Y29.025 E3602.80784
G1 X53.894 Y29.171 E3602.81595
G1 X53.819 Y29.31 E3602.82416
G1 X53.721 Y29.445 E3602.83283
G1 X53.555 Y29.611 E3602.84503
G1 X53.381 Y29.734 E3602.8561
G1 X53.24 Y29.804 E3602.86428
G1 X53.092 Y29.854 E3602.8724
G1 X52.743 Y29.9 E3602.8907
G1 X-52.742 Y29.9 E3608.37264
G1 X-53.091 Y29.854 E3608.39099
G1 X-53.239 Y29.804 E3608.39915
G1 X-53.383 Y29.733 E3608.40755
G1 X-53.516 Y29.644 E3608.41591
G1 X-53.675 Y29.495 E3608.42727
G1 X-53.777 Y29.37 E3608.43568
G1 X-53.864 Y29.23 E3608.44428
G1 X-53.964 Y28.981 E3608.45824
G1 X-54.01 Y28.632 E3608.47654
G1 X-54.01 Y-28.629 E3611.45234
G1 X-53.948 Y-29.024 E3611.47316
G1 X-53.892 Y-29.171 E3611.48137
G1 X-53.818 Y-29.309 E3611.48953
G1 X-53.718 Y-29.447 E3611.49839
G1 X-53.556 Y-29.608 E3611.51026
G1 X-53.38 Y-29.734 E3611.5215
G1 X-53.239 Y-29.803 E3611.52963
G1 X-53.091 Y-29.853 E3611.53772
G1 X-52.742 Y-29.899 E3611.55597
G1 X52.743 Y-29.899 E3617.03786
G0 F18000 X52.5 Y-29.208
; TYPE:FILL
G1 F2400 X52.5 Y29.209 E3620.07368
G0 F18000 X52 Y29.209
G1 F2400 X52 Y-29.208 E3623.10955
G0 F18000 X51.5 Y-29.208
G1 F2400 X51.5 Y29.209 E3626.14537
G0 F18000 X51 Y29.209
G1 F2400 X51 Y-29.208 E3629.18124
G0 F18000 X50.5 Y-29.208
G1 F2400 X50.5 Y29.209 E3632.21706
G0 F18000 X50 Y29.209
G1 F2400 X50 Y-29.208 E3635.25293
G0 F18000 X49.5 Y-29.208
G1 F2400 X49.5 Y29.209 E3638.28875
G0 F18000 X49 Y29.209
G1 F2400 X49 Y-29.208 E3641.32462
G0 F18000 X48.5 Y-29.208
G1 F2400 X48.5 Y29.209 E3644.36044
G0 F18000 X48 Y29.209
G1 F2400 X48 Y-29.208 E3647.39631
G0 F18000 X47.5 Y-29.208
G1 F2400 X47.5 Y29.209 E3650.43213
G0 F18000 X47 Y29.209
G1 F2400 X47 Y-22.901 E3653.14023
G0 F18000 X47 Y-22.728
G1 F2400 X47 Y-25.499 E3653.28429
G0 F18000 X47 Y-25.321
G1 F2400 X47 Y-29.208 E3653.48635
G0 F18000 X46.5 Y-29.208
G1 F2400 X46.5 Y-25.701 E3653.66855
G0 F18000 X46.5 Y-25.838
G1 F2400 X46.5 Y-22.383 E3653.84805
G0 F18000 X46.5 Y-22.521
G1 F2400 X46.5 Y29.209 E3656.53635
G0 F18000 X46 Y29.209
G1 F2400 X46 Y-22.353 E3659.21598
G0 F18000 X46 Y-22.231
G1 F2400 X46 Y-25.987 E3659.41122
G0 F18000 X46 Y-25.865
G1 F2400 X46 Y-29.208 E3659.58501
G0 F18000 X45.5 Y-29.208
G1 F2400 X45.5 Y-25.894 E3659.75718
G0 F18000 X45.5 Y-26.014
G1 F2400 X45.5 Y-22.207 E3659.95498
G0 F18000 X45.5 Y-22.329
G1 F2400 X45.5 Y29.209 E3662.6333
G0 F18000 X45 Y29.209
G1 F2400 X45 Y-22.459 E3665.31843
G0 F18000 X45 Y-22.332
G1 F2400 X45 Y-25.891 E3665.50344
G0 F18000 X45 Y-25.763
G1 F2400 X45 Y-29.208 E3665.68253
G0 F18000 X44.5 Y-29.208
G1 F2400 X44.5 Y-25.451 E3665.87772
G0 F18000 X44.5 Y-25.609
G1 F2400 X44.5 Y-22.606 E3666.03373
G0 F18000 X44.5 Y-22.772
G1 F2400 X44.5 Y29.209 E3668.73508
G0 F18000 X44 Y29.209
G1 F2400 X44 Y-23.502 E3671.47442
G0 F18000 X44 Y-23.22
G1 F2400 X44 Y-25.005 E3671.56723
G0 F18000 X44 Y-24.706
G1 F2400 X44 Y-29.208 E3671.80125
G0 F18000 X43.5 Y-29.208
G1 F2400 X43.5 Y29.209 E3674.83707
G0 F18000 X43 Y29.209
G1 F2400 X43 Y-29.208 E3677.87294
G0 F18000 X42.5 Y-29.208
G1 F2400 X42.5 Y29.209 E3680.90876
G0 F18000 X42 Y29.209
G1 F2400 X42 Y-29.208 E3683.94463
G0 F18000 X41.5 Y-29.208
G1 F2400 X41.5 Y29.209 E3686.98045
G0 F18000 X41 Y29.209
G1 F2400 X41 Y24.805 E3687.20932
G0 F18000 X41 Y25.082
G1 F2400 X41 Y23.133 E3687.31061
G0 F18000 X41 Y23.394
G1 F2400 X41 Y-29.208 E3690.04428
G0 F18000 X40.5 Y-29.208
G1 F2400 X40.5 Y22.732 E3692.74349
G0 F18000 X40.5 Y22.579
G1 F2400 X40.5 Y25.632 E3692.90215
G0 F18000 X40.5 Y25.486
G1 F2400 X40.5 Y29.209 E3693.09563
G0 F18000 X40 Y29.209
G1 F2400 X40 Y25.775 E3693.2741
G0 F18000 X40 Y25.907
G1 F2400 X40 Y22.306 E3693.46124
G0 F18000 X40 Y22.435
G1 F2400 X40 Y-29.208 E3696.14507
G0 F18000 X39.5 Y-29.208
G1 F2400 X39.5 Y22.327 E3698.82324
G0 F18000 X39.5 Y22.207
G1 F2400 X39.5 Y26.007 E3699.02072
G0 F18000 X39.5 Y25.887
G1 F2400 X39.5 Y29.209 E3699.19336
G0 F18000 X39 Y29.209
G1 F2400 X39 Y25.86 E3699.3674
G0 F18000 X39 Y25.984
G1 F2400 X39 Y22.23 E3699.5625
G0 F18000 X39 Y22.354
G1 F2400 X39 Y-29.208 E3702.24212
G0 F18000 X38.5 Y-29.208
G1 F2400 X38.5 Y22.536 E3704.93115
G0 F18000 X38.5 Y22.404
G1 F2400 X38.5 Y25.809 E3705.1081
G0 F18000 X38.5 Y25.678
G1 F2400 X38.5 Y29.209 E3705.29161
G0 F18000 X38 Y29.209
G1 F2400 X38 Y25.275 E3705.49605
G0 F18000 X38 Y25.445
G1 F2400 X38 Y22.768 E3705.63517
G0 F18000 X38 Y22.94
G1 F2400 X38 Y-29.208 E3708.34525
G0 F18000 X37.5 Y-29.208
G1 F2400 X37.5 Y29.209 E3711.38107
G0 F18000 X37 Y29.209
G1 F2400 X37 Y-29.208 E3714.41694
G0 F18000 X36.5 Y-29.208
G1 F2400 X36.5 Y29.209 E3717.45276
G0 F18000 X36 Y29.209
G1 F2400 X36 Y-29.208 E3720.48863
G0 F18000 X35.5 Y-29.208
G1 F2400 X35.5 Y29.209 E3723.52445
G0 F18000 X35 Y29.209
G1 F2400 X35 Y-29.208 E3726.56032
G0 F18000 X34.5 Y-29.208
G1 F2400 X34.5 Y29.209 E3729.59614
G0 F18000 X34 Y29.209
G1 F2400 X34 Y-29.208 E3732.63201
G0 F18000 X33.5 Y-29.208
G1 F2400 X33.5 Y29.209 E3735.66783
G0 F18000 X33 Y29.209
G1 F2400 X33 Y-29.208 E3738.7037
G0 F18000 X32.499 Y-29.208
G1 F2400 X32.5 Y29.209 E3741.73952
G0 F18000 X32 Y29.209
G1 F2400 X31.999 Y-29.208 E3744.77539
G0 F18000 X31.499 Y-29.208
G1 F2400 X31.5 Y29.209 E3747.81121
G0 F18000 X31 Y29.209
G1 F2400 X30.999 Y-29.208 E3750.84708
G0 F18000 X30.499 Y-29.208
G1 F2400 X30.5 Y29.209 E3753.8829
G0 F18000 X30 Y29.209
G1 F2400 X29.999 Y-29.208 E3756.91877
G0 F18000 X29.499 Y-29.208
G1 F2400 X29.5 Y29.209 E3759.95459
G0 F18000 X29 Y29.209
G1 F2400 X28.999 Y-29.208 E3762.99046
G0 F18000 X28.499 Y-29.208
G1 F2400 X28.5 Y29.209 E3766.02628
G0 F18000 X28 Y29.209
G1 F2400 X27.999 Y-29.208 E3769.06215
G0 F18000 X27.499 Y-29.208
G1 F2400 X27.5 Y29.209 E3772.09796
G0 F18000 X27 Y29.209
G1 F2400 X26.999 Y-29.208 E3775.13384
G0 F18000 X26.499 Y-29.208
G1 F2400 X26.5 Y29.209 E3778.16965
G0 F18000 X26 Y29.209
G1 F2400 X25.999 Y-29.208 E3781.20553
G0 F18000 X25.499 Y-29.208
G1 F2400 X25.5 Y29.209 E3784.24134
G0 F18000 X25 Y29.209
G1 F2400 X24.999 Y-29.208 E3787.27722
G0 F18000 X24.499 Y-29.208
G1 F2400 X24.5 Y29.209 E3790.31303
G0 F18000 X24 Y29.209
G1 F2400 X23.999 Y-29.208 E3793.3489
G0 F18000 X23.499 Y-29.208
G1 F2400 X23.5 Y29.209 E3796.38472
G0 F18000 X23 Y29.209
G1 F2400 X22.999 Y-29.208 E3799.42059
G0 F18000 X22.499 Y-29.208
G1 F2400 X22.5 Y29.209 E3802.45641
G0 F18000 X22 Y29.209
G1 F2400 X21.999 Y-29.208 E3805.49228
G0 F18000 X21.499 Y-29.208
G1 F2400 X21.5 Y29.209 E3808.5281
G0 F18000 X21 Y29.209
G1 F2400 X20.999 Y-29.208 E3811.56397
G0 F18000 X20.499 Y-29.208
G1 F2400 X20.5 Y29.209 E3814.59979
G0 F18000 X20 Y29.209
G1 F2400 X19.999 Y-29.208 E3817.63566
G0 F18000 X19.499 Y-29.208
G1 F2400 X19.5 Y29.209 E3820.67148
G0 F18000 X19 Y29.209
G1 F2400 X18.999 Y-29.208 E3823.70735
G0 F18000 X18.499 Y-29.208
G1 F2400 X18.5 Y29.209 E3826.74317
G0 F18000 X18 Y29.209
G1 F2400 X17.999 Y-29.208 E3829.77904
G0 F18000 X17.499 Y-29.208
G1 F2400 X17.5 Y29.209 E3832.81486
G0 F18000 X17 Y29.209
G1 F2400 X17 Y9.132 E3833.85824
G0 F18000 X17 Y9.598
G1 F2400 X17 Y8.139 E3833.93406
G0 F18000 X17 Y8.578
G1 F2400 X16.999 Y-18.743 E3835.35391
G0 F18000 X16.999 Y-18.296
G1 F2400 X16.999 Y-19.763 E3835.4302
G0 F18000 X16.999 Y-19.322
G1 F2400 X16.999 Y-29.208 E3835.94402
G0 F18000 X16.499 Y-29.208
G1 F2400 X16.499 Y-20.302 E3836.4068
G0 F18000 X16.499 Y-20.46
G1 F2400 X16.499 Y-17.595 E3836.55564
G0 F18000 X16.499 Y-17.766
G1 F2400 X16.5 Y7.61 E3837.87435
G0 F18000 X16.5 Y7.439
G1 F2400 X16.5 Y10.304 E3838.02324
G0 F18000 X16.5 Y10.138
G1 F2400 X16.5 Y29.209 E3839.01434
G0 F18000 X16 Y29.209
G1 F2400 X16 Y10.488 E3839.98725
G0 F18000 X16 Y10.623
G1 F2400 X16 Y7.122 E3840.1692
G0 F18000 X16 Y7.256
G1 F2400 X15.999 Y-17.414 E3841.45127
G0 F18000 X15.999 Y-17.282
G1 F2400 X15.999 Y-20.781 E3841.63316
G0 F18000 X15.999 Y-20.653
G1 F2400 X15.999 Y-29.208 E3842.07781
G0 F18000 X15.499 Y-29.208
G1 F2400 X15.499 Y-20.798 E3842.51482
G0 F18000 X15.499 Y-20.92
G1 F2400 X15.499 Y-17.139 E3842.71126
G0 F18000 X15.499 Y-17.26
G1 F2400 X15.5 Y7.107 E3843.97753
G0 F18000 X15.5 Y6.985
G1 F2400 X15.5 Y10.761 E3844.17377
G0 F18000 X15.5 Y10.639
G1 F2400 X15.5 Y29.209 E3845.13883
G0 F18000 X15 Y29.209
G1 F2400 X15 Y10.641 E3846.10379
G0 F18000 X15 Y10.762
G1 F2400 X15 Y6.977 E3846.30049
G0 F18000 X15 Y7.099
G1 F2400 X14.999 Y-17.255 E3847.56615
G0 F18000 X14.999 Y-17.135
G1 F2400 X14.999 Y-20.929 E3847.76337
G0 F18000 X14.999 Y-20.807
G1 F2400 X14.999 Y-29.208 E3848.20001
G0 F18000 X14.499 Y-29.208
G1 F2400 X14.499 Y-20.666 E3848.64388
G0 F18000 X14.499 Y-20.794
G1 F2400 X14.499 Y-17.269 E3848.82702
G0 F18000 X14.499 Y-17.402
G1 F2400 X14.5 Y7.241 E3850.10764
G0 F18000 X14.5 Y7.113
G1 F2400 X14.5 Y10.637 E3850.29078
G0 F18000 X14.5 Y10.505
G1 F2400 X14.5 Y29.21 E3851.26285
G0 F18000 X14 Y29.21
G1 F2400 X14 Y10.17 E3852.25234
G0 F18000 X14 Y10.329
G1 F2400 X14 Y7.42 E3852.40352
G0 F18000 X14 Y7.578
G1 F2400 X13.999 Y-17.736 E3853.71906
G0 F18000 X13.999 Y-17.57
G1 F2400 X13.999 Y-20.487 E3853.87071
G0 F18000 X13.999 Y-20.328
G1 F2400 X13.999 Y-29.208 E3854.33225
G0 F18000 X13.499 Y-29.208
G1 F2400 X13.499 Y-19.489 E3854.83728
G0 F18000 X13.499 Y-19.84
G1 F2400 X13.499 Y-18.238 E3854.92048
G0 F18000 X13.499 Y-18.579
G1 F2400 X13.5 Y8.414 E3856.32323
G0 F18000 X13.5 Y8.065
G1 F2400 X13.5 Y9.674 E3856.40685
G0 F18000 X13.5 Y9.288
G1 F2400 X13.5 Y29.21 E3857.44217
G0 F18000 X13 Y29.21
G1 F2400 X12.999 Y-29.208 E3860.4781
G0 F18000 X12.499 Y-29.208
G1 F2400 X12.5 Y29.21 E3863.51397
G0 F18000 X12 Y29.21
G1 F2400 X11.999 Y-29.208 E3866.54989
G0 F18000 X11.499 Y-29.208
G1 F2400 X11.5 Y29.21 E3869.58576
G0 F18000 X11 Y29.21
G1 F2400 X10.999 Y-29.208 E3872.62168
G0 F18000 X10.499 Y-29.208
G1 F2400 X10.5 Y29.21 E3875.65755
G0 F18000 X10 Y29.21
G1 F2400 X9.999 Y-29.208 E3878.69348
G0 F18000 X9.499 Y-29.208
G1 F2400 X9.5 Y29.21 E3881.72935
G0 F18000 X9 Y29.21
G1 F2400 X8.999 Y-29.208 E3884.76527
G0 F18000 X8.499 Y-29.208
G1 F2400 X8.5 Y29.21 E3887.80114
G0 F18000 X8 Y29.21
G1 F2400 X7.999 Y-29.208 E3890.83706
G0 F18000 X7.499 Y-29.208
G1 F2400 X7.5 Y29.21 E3893.87293
G0 F18000 X7 Y29.21
G1 F2400 X6.999 Y-29.208 E3896.90886
G0 F18000 X6.499 Y-29.208
G1 F2400 X6.5 Y29.21 E3899.94473
G0 F18000 X6 Y29.21
G1 F2400 X5.999 Y-29.208 E3902.98065
G0 F18000 X5.499 Y-29.208
G1 F2400 X5.5 Y29.21 E3906.01652
G0 F18000 X5 Y29.21
G1 F2400 X4.999 Y-29.208 E3909.05244
G0 F18000 X4.499 Y-29.208
G1 F2400 X4.5 Y29.21 E3912.08831
G0 F18000 X4 Y29.21
G1 F2400 X3.999 Y-29.208 E3915.12424
G0 F18000 X3.499 Y-29.208
G1 F2400 X3.5 Y29.21 E3918.16011
G0 F18000 X3 Y29.21
G1 F2400 X2.999 Y-29.208 E3921.19603
G0 F18000 X2.499 Y-29.208
G1 F2400 X2.5 Y29.21 E3924.2319
G0 F18000 X2 Y29.21
G1 F2400 X1.999 Y-29.208 E3927.26782
G0 F18000 X1.499 Y-29.208
G1 F2400 X1.5 Y29.21 E3930.3037
G0 F18000 X1 Y29.21
G1 F2400 X0.999 Y-29.208 E3933.33962
G0 F18000 X0.499 Y-29.208
G1 F2400 X0.5 Y29.21 E3936.37549
G0 F18000 X0 Y29.209
G1 F2400 X0 Y-29.209 E3939.41141
G0 F18000 X-0.5 Y-29.209
G1 F2400 X-0.499 Y29.209 E3942.44728
G0 F18000 X-0.999 Y29.209
G1 F2400 X-1 Y-29.209 E3945.4832
G0 F18000 X-1.5 Y-29.209
G1 F2400 X-1.499 Y29.209 E3948.51908
G0 F18000 X-1.999 Y29.209
G1 F2400 X-2 Y-29.209 E3951.555
G0 F18000 X-2.5 Y-29.209
G1 F2400 X-2.499 Y29.209 E3954.59087
G0 F18000 X-2.999 Y29.209
G1 F2400 X-3 Y-29.209 E3957.62679
G0 F18000 X-3.5 Y-29.209
G1 F2400 X-3.499 Y29.209 E3960.66266
G0 F18000 X-3.999 Y29.209
G1 F2400 X-4 Y-29.209 E3963.69859
G0 F18000 X-4.5 Y-29.209
G1 F2400 X-4.499 Y29.209 E3966.73446
G0 F18000 X-4.999 Y29.209
G1 F2400 X-5 Y-29.209 E3969.77038
G0 F18000 X-5.5 Y-29.209
G1 F2400 X-5.499 Y29.209 E3972.80625
G0 F18000 X-5.999 Y29.209
G1 F2400 X-6 Y-29.209 E3975.84217
G0 F18000 X-6.5 Y-29.209
G1 F2400 X-6.499 Y29.209 E3978.87804
G0 F18000 X-6.999 Y29.209
G1 F2400 X-7 Y-29.209 E3981.91397
G0 F18000 X-7.5 Y-29.209
G1 F2400 X-7.499 Y29.209 E3984.94984
G0 F18000 X-7.999 Y29.209
G1 F2400 X-8 Y-29.209 E3987.98576
G0 F18000 X-8.5 Y-29.209
G1 F2400 X-8.499 Y29.209 E3991.02163
G0 F18000 X-8.999 Y29.209
G1 F2400 X-9 Y-29.209 E3994.05755
G0 F18000 X-9.5 Y-29.209
G1 F2400 X-9.499 Y29.209 E3997.09342
G0 F18000 X-9.999 Y29.209
G1 F2400 X-10 Y-29.209 E4000.12935
G0 F18000 X-10.5 Y-29.209
G1 F2400 X-10.499 Y29.209 E4003.16522
G0 F18000 X-10.999 Y29.209
G1 F2400 X-11 Y-29.209 E4006.20114
G0 F18000 X-11.5 Y-29.209
G1 F2400 X-11.499 Y29.209 E4009.23701
G0 F18000 X-11.999 Y29.209
G1 F2400 X-12 Y-29.209 E4012.27293
G0 F18000 X-12.5 Y-29.209
G1 F2400 X-12.499 Y29.209 E4015.3088
G0 F18000 X-12.999 Y29.209
G1 F2400 X-13 Y-29.209 E4018.34473
G0 F18000 X-13.5 Y-29.209
G1 F2400 X-13.499 Y29.209 E4021.3806
G0 F18000 X-13.999 Y29.209
G1 F2400 X-14 Y-29.209 E4024.41652
G0 F18000 X-14.5 Y-29.209
G1 F2400 X-14.499 Y29.209 E4027.45239
G0 F18000 X-14.999 Y29.209
G1 F2400 X-15 Y-29.208 E4030.48826
G0 F18000 X-15.5 Y-29.208
G1 F2400 X-15.499 Y29.209 E4033.52408
G0 F18000 X-15.999 Y29.209
G1 F2400 X-16 Y-29.208 E4036.55995
G0 F18000 X-16.5 Y-29.208
G1 F2400 X-16.499 Y29.209 E4039.59577
G0 F18000 X-16.999 Y29.209
G1 F2400 X-17 Y-29.208 E4042.63164
G0 F18000 X-17.5 Y-29.208
G1 F2400 X-17.499 Y29.209 E4045.66746
G0 F18000 X-17.999 Y29.209
G1 F2400 X-18 Y-29.208 E4048.70333
G0 F18000 X-18.5 Y-29.208
G1 F2400 X-18.499 Y29.209 E4051.73915
G0 F18000 X-18.999 Y29.209
G1 F2400 X-19 Y-29.208 E4054.77502
G0 F18000 X-19.5 Y-29.208
G1 F2400 X-19.499 Y29.209 E4057.81084
G0 F18000 X-19.999 Y29.209
G1 F2400 X-20 Y-29.208 E4060.84671
G0 F18000 X-20.5 Y-29.208
G1 F2400 X-20.499 Y29.209 E4063.88253
G0 F18000 X-20.999 Y29.209
G1 F2400 X-21 Y-29.208 E4066.9184
G0 F18000 X-21.5 Y-29.208
G1 F2400 X-21.499 Y29.209 E4069.95422
G0 F18000 X-21.999 Y29.209
G1 F2400 X-22 Y-29.208 E4072.99009
G0 F18000 X-22.5 Y-29.208
G1 F2400 X-22.499 Y29.209 E4076.02591
G0 F18000 X-22.999 Y29.209
G1 F2400 X-23 Y-29.208 E4079.06178
G0 F18000 X-23.5 Y-29.208
G1 F2400 X-23.499 Y29.209 E4082.0976
G0 F18000 X-23.999 Y29.209
G1 F2400 X-24 Y-29.208 E4085.13347
G0 F18000 X-24.5 Y-29.208
G1 F2400 X-24.499 Y29.209 E4088.16929
G0 F18000 X-24.999 Y29.209
G1 F2400 X-25 Y-29.208 E4091.20516
G0 F18000 X-25.5 Y-29.208
G1 F2400 X-25.499 Y29.209 E4094.24098
G0 F18000 X-25.999 Y29.209
G1 F2400 X-26 Y-29.208 E4097.27685
G0 F18000 X-26.5 Y-29.208
G1 F2400 X-26.499 Y29.209 E4100.31267
G0 F18000 X-26.999 Y29.209
G1 F2400 X-27 Y-29.208 E4103.34854
G0 F18000 X-27.5 Y-29.208
G1 F2400 X-27.499 Y29.209 E4106.38436
G0 F18000 X-27.999 Y29.209
G1 F2400 X-28 Y-29.208 E4109.42023
G0 F18000 X-28.5 Y-29.208
G1 F2400 X-28.499 Y29.209 E4112.45605
G0 F18000 X-28.999 Y29.209
G1 F2400 X-29 Y-29.208 E4115.49192
G0 F18000 X-29.5 Y-29.208
G1 F2400 X-29.499 Y29.209 E4118.52774
G0 F18000 X-29.999 Y29.209
G1 F2400 X-30 Y-29.208 E4121.56361
G0 F18000 X-30.5 Y-29.208
G1 F2400 X-30.499 Y29.209 E4124.59943
G0 F18000 X-30.999 Y29.209
G1 F2400 X-31 Y-29.208 E4127.6353
G0 F18000 X-31.5 Y-29.208
G1 F2400 X-31.499 Y29.209 E4130.67112
G0 F18000 X-31.999 Y29.209
G1 F2400 X-32 Y-29.208 E4133.70699
G0 F18000 X-32.5 Y-29.208
G1 F2400 X-32.499 Y29.209 E4136.74281
G0 F18000 X-33 Y29.209
G1 F2400 X-33 Y-29.208 E4139.77868
G0 F18000 X-33.5 Y-29.208
G1 F2400 X-33.5 Y29.209 E4142.81449
G0 F18000 X-34 Y29.209
G1 F2400 X-34 Y25.037 E4143.03131
G0 F18000 X-34 Y25.265
G1 F2400 X-34 Y22.961 E4143.15105
G0 F18000 X-34 Y23.17
G1 F2400 X-34 Y-29.208 E4145.87308
G0 F18000 X-34.5 Y-29.208
G1 F2400 X-34.5 Y22.645 E4148.56777
G0 F18000 X-34.5 Y22.498
G1 F2400 X-34.5 Y25.72 E4148.73521
G0 F18000 X-34.5 Y25.58
G1 F2400 X-34.5 Y29.209 E4148.92381
G0 F18000 X-35 Y29.209
G1 F2400 X-35 Y25.825 E4149.09967
G0 F18000 X-35 Y25.952
G1 F2400 X-35 Y22.274 E4149.29081
G0 F18000 X-35 Y22.399
G1 F2400 X-35 Y-29.208 E4151.97278
G0 F18000 X-35.5 Y-29.208
G1 F2400 X-35.5 Y-25.345 E4152.17348
G0 F18000 X-35.5 Y-25.514
G1 F2400 X-35.5 Y-22.698 E4152.31977
G0 F18000 X-35.5 Y-22.874
G1 F2400 X-35.5 Y22.317 E4154.66825
G0 F18000 X-35.5 Y22.197
G1 F2400 X-35.5 Y26.02 E4154.86693
G0 F18000 X-35.5 Y25.9
G1 F2400 X-35.5 Y29.209 E4155.03889
G0 F18000 X-36 Y29.209
G1 F2400 X-36 Y25.834 E4155.21429
G0 F18000 X-36 Y25.959
G1 F2400 X-36 Y22.264 E4155.40631
G0 F18000 X-36 Y22.388
G1 F2400 X-36 Y-22.506 E4157.73941
G0 F18000 X-36 Y-22.371
G1 F2400 X-36 Y-25.844 E4157.91995
G0 F18000 X-36 Y-25.712
G1 F2400 X-36 Y-29.208 E4158.10168
G0 F18000 X-36.5 Y-29.208
G1 F2400 X-36.5 Y-25.878 E4158.27469
G0 F18000 X-36.5 Y-25.999
G1 F2400 X-36.5 Y-22.222 E4158.47092
G0 F18000 X-36.5 Y-22.343
G1 F2400 X-36.5 Y22.612 E4160.80714
G0 F18000 X-36.5 Y22.469
G1 F2400 X-36.5 Y25.758 E4160.97806
G0 F18000 X-36.5 Y25.614
G1 F2400 X-36.5 Y29.209 E4161.16489
G0 F18000 X-37 Y29.209
G1 F2400 X-37 Y25.131 E4161.37682
G0 F18000 X-37 Y25.33
G1 F2400 X-37 Y22.895 E4161.50336
G0 F18000 X-37 Y23.094
G1 F2400 X-37 Y-22.327 E4163.86385
G0 F18000 X-37 Y-22.207
G1 F2400 X-37 Y-26.006 E4164.06133
G0 F18000 X-37 Y-25.886
G1 F2400 X-37 Y-29.208 E4164.23402
G0 F18000 X-37.5 Y-29.208
G1 F2400 X-37.5 Y-25.754 E4164.41347
G0 F18000 X-37.5 Y-25.885
G1 F2400 X-37.5 Y-22.335 E4164.59791
G0 F18000 X-37.5 Y-22.466
G1 F2400 X-37.5 Y29.209 E4167.28335
G0 F18000 X-38 Y29.209
G1 F2400 X-38 Y-22.787 E4169.98553
G0 F18000 X-38 Y-22.626
G1 F2400 X-38 Y-25.594 E4170.13983
G0 F18000 X-38 Y-25.431
G1 F2400 X-38 Y-29.208 E4170.33617
G0 F18000 X-38.5 Y-29.208
G1 F2400 X-38.5 Y-24.658 E4170.57257
G0 F18000 X-38.5 Y-24.96
G1 F2400 X-38.5 Y-23.251 E4170.66134
G0 F18000 X-38.5 Y-23.571
G1 F2400 X-38.5 Y29.209 E4173.40421
G0 F18000 X-39 Y29.209
G1 F2400 X-39 Y-29.208 E4176.44008
G0 F18000 X-39.5 Y-29.208
G1 F2400 X-39.5 Y29.209 E4179.47589
G0 F18000 X-40 Y29.209
G1 F2400 X-40 Y-29.208 E4182.51177
G0 F18000 X-40.5 Y-29.208
G1 F2400 X-40.5 Y29.209 E4185.54758
G0 F18000 X-41 Y29.209
G1 F2400 X-41 Y-29.208 E4188.58346
G0 F18000 X-41.5 Y-29.208
G1 F2400 X-41.5 Y29.209 E4191.61927
G0 F18000 X-42 Y29.209
G1 F2400 X-42 Y-29.208 E4194.65514
G0 F18000 X-42.5 Y-29.208
G1 F2400 X-42.5 Y29.209 E4197.69096
G0 F18000 X-43 Y29.209
G1 F2400 X-43 Y-29.208 E4200.72683
G0 F18000 X-43.5 Y-29.208
G1 F2400 X-43.5 Y29.209 E4203.76265
G0 F18000 X-44 Y29.209
G1 F2400 X-44 Y-29.208 E4206.79852
G0 F18000 X-44.5 Y-29.208
G1 F2400 X-44.5 Y29.209 E4209.83434
G0 F18000 X-45 Y29.209
G1 F2400 X-45 Y-29.208 E4212.87021
G0 F18000 X-45.5 Y-29.208
G1 F2400 X-45.5 Y29.209 E4215.90603
G0 F18000 X-46 Y29.209
G1 F2400 X-46 Y-29.208 E4218.9419
G0 F18000 X-46.5 Y-29.208
G1 F2400 X-46.5 Y29.209 E4221.97772
G0 F18000 X-47 Y29.209
G1 F2400 X-47 Y-29.208 E4225.01359
G0 F18000 X-47.5 Y-29.208
G1 F2400 X-47.5 Y29.209 E4228.04941
G0 F18000 X-48 Y29.209
G1 F2400 X-48 Y-29.208 E4231.08528
G0 F18000 X-48.5 Y-29.208
G1 F2400 X-48.5 Y29.209 E4234.1211
G0 F18000 X-49 Y29.209
G1 F2400 X-49 Y-29.208 E4237.15697
G0 F18000 X-49.5 Y-29.208
G1 F2400 X-49.5 Y29.209 E4240.19279
G0 F18000 X-50 Y29.209
G1 F2400 X-50 Y-29.208 E4243.22866
G0 F18000 X-50.5 Y-29.208
G1 F2400 X-50.5 Y29.209 E4246.26448
G0 F18000 X-51 Y29.209
G1 F2400 X-51 Y-29.208 E4249.30035
G0 F18000 X-51.5 Y-29.208
G1 F2400 X-51.5 Y29.209 E4252.33617
G0 F18000 X-52 Y29.209
G1 F2400 X-52 Y-29.208 E4255.37204
G0 F18000 X-52.5 Y-29.208
G1 F2400 X-52.5 Y29.209 E4258.40786
G0 F18000 X-53 Y29.148
G1 F2400 X-53 Y-29.142 E4261.43713
G0 F18000 X-35 Y-24.754
G0 X-35 Y-24.754
G1 F2400 X-35 Y-23.455 E4261.50459
G0 F18000 X47.5 Y-23.531
G0 X47.5 Y-23.531
G1 F2400 X47.5 Y-24.701 E4261.56544
G0 F18000 X53 Y-29.147
G0 X53 Y-29.147
G1 F2400 X53 Y29.143 E4264.59466
G0 F18000 X37.5 Y24.538
G0 X37.5 Y24.538
G1 F2400 X37.5 Y23.675 E4264.63951
; LAYER:6
G0 F18000 X52.709 Y29.4 Z1.8
G0 X52.709 Y29.4
; TYPE:WALL-INNER
G1 F2400 X-52.708 Y29.4 E4270.11792
G1 X-52.98 Y29.364 E4270.13223
G1 X-53.133 Y29.299 E4270.14092
G1 X-53.302 Y29.163 E4270.15223
G1 X-53.415 Y29.007 E4270.16227
G1 X-53.479 Y28.831 E4270.17202
G1 X-53.51 Y28.597 E4270.1843
G1 X-53.502 Y-28.655 E4273.15963
G1 X-53.468 Y-28.885 E4273.17175
G1 X-53.399 Y-29.035 E4273.18036
G1 X-53.293 Y-29.174 E4273.18945
G1 X-53.133 Y-29.298 E4273.19996
G1 X-52.98 Y-29.363 E4273.20858
G1 X-52.708 Y-29.399 E4273.22279
G1 X52.709 Y-29.399 E4278.70115
G1 X52.981 Y-29.363 E4278.7154
G1 X53.134 Y-29.298 E4278.72402
G1 X53.303 Y-29.163 E4278.73523
G1 X53.416 Y-29.006 E4278.74524
G1 X53.48 Y-28.83 E4278.75492
G1 X53.511 Y-28.596 E4278.76714
G1 X53.503 Y28.656 E4281.74241
G1 X53.469 Y28.886 E4281.7545
G1 X53.4 Y29.036 E4281.76308
G1 X53.286 Y29.183 E4281.77275
G1 X53.134 Y29.299 E4281.78268
G1 X52.981 Y29.364 E4281.79132
G1 X52.709 Y29.4 E4281.80558
G0 F18000 X52.743 Y29.9
; TYPE:WALL-OUTER
G1 F2100 X-52.742 Y29.9 E4287.28753
G1 X-53.091 Y29.854 E4287.30587
G1 X-53.239 Y29.804 E4287.31404
G1 X-53.383 Y29.733 E4287.32243
G1 X-53.52 Y29.641 E4287.33105
G1 X-53.658 Y29.516 E4287.34076
G1 X-53.768 Y29.386 E4287.34965
G1 X-53.92 Y29.11 E4287.36605
G1 X-53.971 Y28.925 E4287.37603
G1 X-54.01 Y28.632 E4287.3914
G1 X-54.002 Y-28.695 E4290.37063
G1 X-53.956 Y-29.005 E4290.38696
G1 X-53.902 Y-29.153 E4290.39518
G1 X-53.829 Y-29.293 E4290.4034
G1 X-53.643 Y-29.533 E4290.41919
G1 X-53.521 Y-29.64 E4290.42762
G1 X-53.383 Y-29.732 E4290.43623
G1 X-53.239 Y-29.803 E4290.44455
G1 X-53.091 Y-29.853 E4290.45263
G1 X-52.742 Y-29.899 E4290.47088
G1 X52.743 Y-29.899 E4295.95278
G1 X53.092 Y-29.853 E4295.97106
G1 X53.24 Y-29.803 E4295.97917
G1 X53.384 Y-29.732 E4295.98749
G1 X53.521 Y-29.64 E4295.99603
G1 X53.663 Y-29.512 E4296.00593
G1 X53.766 Y-29.389 E4296.01423
G1 X53.921 Y-29.109 E4296.03082
G1 X53.972 Y-28.924 E4296.04074
G1 X54.011 Y-28.631 E4296.05605
G1 X54.003 Y28.696 E4299.03522
G1 X53.957 Y29.006 E4299.05151
G1 X53.903 Y29.154 E4299.0597
G1 X53.83 Y29.294 E4299.0679
G1 X53.642 Y29.537 E4299.08387
G1 X53.526 Y29.638 E4299.09186
G1 X53.384 Y29.733 E4299.10074
G1 X53.24 Y29.804 E4299.10909
G1 X53.092 Y29.854 E4299.1172
G1 X52.743 Y29.9 E4299.1355
G0 F18000 X53.187 Y28.999
; TYPE:FILL
G1 F2400 X-53.185 Y29 E4304.66354
G0 F18000 X-53.32 Y28.5
G1 F2400 X53.313 Y28.499 E4310.2051
G0 F18000 X53.313 Y27.999
G1 F2400 X-53.32 Y28 E4315.7467
G0 F18000 X-53.32 Y27.5
G1 F2400 X53.313 Y27.499 E4321.28826
G0 F18000 X53.313 Y26.999
G1 F2400 X-53.32 Y27 E4326.82986
G0 F18000 X-53.32 Y26.5
G1 F2400 X53.313 Y26.499 E4332.37142
G0 F18000 X53.313 Y25.999
G1 F2400 X-53.32 Y26 E4337.91302
G0 F18000 X-53.32 Y25.5
G1 F2400 X-36.649 Y25.5 E4338.77934
G0 F18000 X-36.828 Y25.5
G1 F2400 X-34.219 Y25.5 E4338.91488
G0 F18000 X-34.404 Y25.5
G1 F2400 X38.23 Y25.499 E4342.68954
G0 F18000 X38.056 Y25.499
G1 F2400 X40.659 Y25.499 E4342.82482
G0 F18000 X40.48 Y25.499
G1 F2400 X53.313 Y25.499 E4343.49173
G0 F18000 X53.314 Y24.999
G1 F2400 X40.907 Y24.999 E4344.13651
G0 F18000 X41.04 Y24.999
G1 F2400 X37.672 Y24.999 E4344.31154
G0 F18000 X37.807 Y24.999
G1 F2400 X-33.977 Y25 E4348.04208
G0 F18000 X-33.838 Y25
G1 F2400 X-37.212 Y25 E4348.21748
G0 F18000 X-37.075 Y25
G1 F2400 X-53.319 Y25 E4349.06172
G0 F18000 X-53.319 Y24.5
G1 F2400 X-37.271 Y24.5 E4349.89566
G0 F18000 X-37.392 Y24.5
G1 F2400 X-33.663 Y24.5 E4350.0894
G0 F18000 X-33.786 Y24.5
G1 F2400 X37.616 Y24.499 E4353.80004
G0 F18000 X37.491 Y24.499
G1 F2400 X41.221 Y24.499 E4353.99388
G0 F18000 X41.096 Y24.499
G1 F2400 X53.314 Y24.499 E4354.62884
G0 F18000 X53.314 Y23.999
G1 F2400 X41.136 Y23.999 E4355.26172
G0 F18000 X41.257 Y23.999
G1 F2400 X37.458 Y23.999 E4355.45915
G0 F18000 X37.579 Y23.999
G1 F2400 X-33.743 Y24 E4359.16568
G0 F18000 X-33.623 Y24
G1 F2400 X-37.43 Y24 E4359.36357
G0 F18000 X-37.31 Y24
G1 F2400 X-53.319 Y24 E4360.1956
G0 F18000 X-53.319 Y23.5
G1 F2400 X-37.206 Y23.5 E4361.03292
G0 F18000 X-37.333 Y23.5
G1 F2400 X-33.718 Y23.5 E4361.22074
G0 F18000 X-33.844 Y23.5
G1 F2400 X37.676 Y23.499 E4364.93751
G0 F18000 X37.545 Y23.499
G1 F2400 X41.162 Y23.499 E4365.12548
G0 F18000 X41.036 Y23.499
G1 F2400 X53.314 Y23.499 E4365.76355
G0 F18000 X53.314 Y22.999
G1 F2400 X40.756 Y22.999 E4366.41618
G0 F18000 X40.904 Y22.999
G1 F2400 X37.809 Y22.999 E4366.57702
G0 F18000 X37.957 Y22.999
G1 F2400 X-34.121 Y23 E4370.32284
G0 F18000 X-33.977 Y23
G1 F2400 X-37.078 Y23 E4370.48405
G0 F18000 X-36.926 Y23
G1 F2400 X-53.319 Y23 E4371.33603
G0 F18000 X-53.319 Y22.5
G1 F2400 X-36.299 Y22.5 E4372.22049
G0 F18000 X-36.541 Y22.5
G1 F2400 X-34.497 Y22.5 E4372.32666
G0 F18000 X-34.756 Y22.5
G1 F2400 X38.579 Y22.499 E4376.13775
G0 F18000 X38.332 Y22.499
G1 F2400 X40.374 Y22.499 E4376.24387
G0 F18000 X40.133 Y22.499
G1 F2400 X53.314 Y22.499 E4376.92888
G0 F18000 X53.314 Y21.999
G1 F2400 X-53.319 Y22 E4382.47048
G0 F18000 X-53.319 Y21.5
G1 F2400 X53.314 Y21.499 E4388.01204
G0 F18000 X53.314 Y20.999
G1 F2400 X-53.319 Y21 E4393.55364
G0 F18000 X-53.319 Y20.5
G1 F2400 X53.314 Y20.499 E4399.0952
G0 F18000 X53.314 Y19.999
G1 F2400 X-53.319 Y20 E4404.6368
G0 F18000 X-53.319 Y19.5
G1 F2400 X53.314 Y19.499 E4410.17836
G0 F18000 X53.314 Y18.999
G1 F2400 X-53.319 Y19 E4415.71996
G0 F18000 X-53.319 Y18.5
G1 F2400 X53.314 Y18.499 E4421.26152
G0 F18000 X53.314 Y17.999
G1 F2400 X-53.319 Y18 E4426.80312
G0 F18000 X-53.318 Y17.5
G1 F2400 X53.315 Y17.499 E4432.34468
G0 F18000 X53.315 Y16.999
G1 F2400 X-53.318 Y17 E4437.88628
G0 F18000 X-53.318 Y16.5
G1 F2400 X53.315 Y16.499 E4443.42784
G0 F18000 X53.315 Y15.999
G1 F2400 X-53.318 Y16 E4448.96944
G0 F18000 X-53.318 Y15.5
G1 F2400 X53.315 Y15.499 E4454.511
G0 F18000 X53.315 Y14.999
G1 F2400 X-53.318 Y15 E4460.05261
G0 F18000 X-53.318 Y14.5
G1 F2400 X53.315 Y14.499 E4465.59416
G0 F18000 X53.315 Y13.999
G1 F2400 X-53.318 Y14 E4471.13577
G0 F18000 X-53.318 Y13.5
G1 F2400 X53.315 Y13.499 E4476.67732
G0 F18000 X53.315 Y12.999
G1 F2400 X-53.318 Y13 E4482.21893
G0 F18000 X-53.318 Y12.5
G1 F2400 X53.315 Y12.499 E4487.76048
G0 F18000 X53.315 Y11.999
G1 F2400 X-53.318 Y12 E4493.30209
G0 F18000 X-53.318 Y11.5
G1 F2400 X53.315 Y11.499 E4498.84364
G0 F18000 X53.315 Y10.999
G1 F2400 X-53.318 Y11 E4504.38525
G0 F18000 X-53.317 Y10.5
G1 F2400 X14.498 Y10.5 E4507.90947
G0 F18000 X14.232 Y10.5
G1 F2400 X16.241 Y10.499 E4508.01388
G0 F18000 X15.98 Y10.499
G1 F2400 X53.316 Y10.499 E4509.95419
G0 F18000 X53.316 Y9.999
G1 F2400 X16.625 Y9.999 E4511.86098
G0 F18000 X16.775 Y9.999
G1 F2400 X13.69 Y10 E4512.02131
G0 F18000 X13.85 Y10
G1 F2400 X-53.317 Y10 E4515.51191
G0 F18000 X-53.317 Y9.5
G1 F2400 X13.56 Y9.5 E4518.98738
G0 F18000 X13.431 Y9.5
G1 F2400 X17.03 Y9.499 E4519.17442
G0 F18000 X16.904 Y9.499
G1 F2400 X53.316 Y9.499 E4521.06671
G0 F18000 X53.316 Y8.999
G1 F2400 X17.006 Y8.999 E4522.9537
G0 F18000 X17.127 Y8.999
G1 F2400 X13.335 Y9 E4523.15077
G0 F18000 X13.455 Y9
G1 F2400 X-53.317 Y9 E4526.62084
G0 F18000 X-53.317 Y8.5
G1 F2400 X13.488 Y8.5 E4530.09258
G0 F18000 X13.368 Y8.5
G1 F2400 X17.103 Y8.499 E4530.28668
G0 F18000 X16.978 Y8.499
G1 F2400 X53.316 Y8.499 E4532.17513
G0 F18000 X53.316 Y7.999
G1 F2400 X16.793 Y7.999 E4534.07319
G0 F18000 X16.927 Y7.999
G1 F2400 X13.538 Y7.999 E4534.24931
G0 F18000 X13.676 Y7.999
G1 F2400 X-53.317 Y8 E4537.73087
G0 F18000 X-53.317 Y7.5
G1 F2400 X14.093 Y7.499 E4541.23405
G0 F18000 X13.908 Y7.499
G1 F2400 X16.549 Y7.499 E4541.3713
G0 F18000 X16.377 Y7.499
G1 F2400 X53.316 Y7.499 E4543.29098
G0 F18000 X53.316 Y6.999
G1 F2400 X-53.317 Y7 E4548.83258
G0 F18000 X-53.317 Y6.5
G1 F2400 X53.316 Y6.499 E4554.37414
G0 F18000 X53.316 Y5.999
G1 F2400 X-53.317 Y6 E4559.91574
G0 F18000 X-53.317 Y5.5
G1 F2400 X53.316 Y5.499 E4565.4573
G0 F18000 X53.316 Y4.999
G1 F2400 X-53.317 Y5 E4570.99891
G0 F18000 X-53.317 Y4.5
G1 F2400 X53.316 Y4.499 E4576.54046
G0 F18000 X53.316 Y3.999
G1 F2400 X-53.317 Y4 E4582.08207
G0 F18000 X-53.316 Y3.5
G1 F2400 X53.317 Y3.499 E4587.62362
G0 F18000 X53.317 Y2.999
G1 F2400 X-53.316 Y3 E4593.16523
G0 F18000 X-53.316 Y2.5
G1 F2400 X53.317 Y2.499 E4598.70678
G0 F18000 X53.317 Y1.999
G1 F2400 X-53.316 Y2 E4604.24839
G0 F18000 X-53.316 Y1.5
G1 F2400 X53.317 Y1.499 E4609.78994
G0 F18000 X53.317 Y0.999
G1 F2400 X-53.316 Y1 E4615.33155
G0 F18000 X-53.316 Y0.5
G1 F2400 X53.317 Y0.499 E4620.8731
G0 F18000 X53.317 Y0
G1 F2400 X-53.316 Y0 E4626.41471
G0 F18000 X-53.316 Y-0.499
G1 F2400 X53.317 Y-0.5 E4631.95626
G0 F18000 X53.317 Y-1
G1 F2400 X-53.316 Y-0.999 E4637.49787
G0 F18000 X-53.316 Y-1.499
G1 F2400 X53.317 Y-1.5 E4643.03942
G0 F18000 X53.317 Y-2
G1 F2400 X-53.316 Y-1.999 E4648.58103
G0 F18000 X-53.316 Y-2.499
G1 F2400 X53.317 Y-2.5 E4654.12258
G0 F18000 X53.317 Y-3
G1 F2400 X-53.316 Y-2.999 E4659.66419
G0 F18000 X-53.316 Y-3.499
G1 F2400 X53.317 Y-3.5 E4665.20574
G0 F18000 X53.318 Y-4
G1 F2400 X-53.315 Y-3.999 E4670.74735
G0 F18000 X-53.315 Y-4.499
G1 F2400 X53.318 Y-4.5 E4676.2889
G0 F18000 X53.318 Y-5
G1 F2400 X-53.315 Y-4.999 E4681.83051
G0 F18000 X-53.315 Y-5.499
G1 F2400 X53.318 Y-5.5 E4687.37206
G0 F18000 X53.318 Y-6
G1 F2400 X-53.315 Y-5.999 E4692.91367
G0 F18000 X-53.315 Y-6.499
G1 F2400 X53.318 Y-6.5 E4698.45522
G0 F18000 X53.318 Y-7
G1 F2400 X-53.315 Y-6.999 E4703.99683
G0 F18000 X-53.315 Y-7.499
G1 F2400 X53.318 Y-7.5 E4709.53839
G0 F18000 X53.318 Y-8
G1 F2400 X-53.315 Y-7.999 E4715.07999
G0 F18000 X-53.315 Y-8.499
G1 F2400 X53.318 Y-8.5 E4720.62155
G0 F18000 X53.318 Y-9
G1 F2400 X-53.315 Y-8.999 E4726.16315
G0 F18000 X-53.315 Y-9.499
G1 F2400 X53.318 Y-9.5 E4731.70471
G0 F18000 X53.318 Y-10
G1 F2400 X-53.315 Y-9.999 E4737.24631
G0 F18000 X-53.315 Y-10.499
G1 F2400 X53.318 Y-10.5 E4742.78787
G0 F18000 X53.319 Y-11
G1 F2400 X-53.314 Y-10.999 E4748.32947
G0 F18000 X-53.314 Y-11.499
G1 F2400 X53.319 Y-11.5 E4753.87103
G0 F18000 X53.319 Y-12
G1 F2400 X-53.314 Y-11.999 E4759.41263
G0 F18000 X-53.314 Y-12.499
G1 F2400 X53.319 Y-12.5 E4764.95419
G0 F18000 X53.319 Y-13
G1 F2400 X-53.314 Y-12.999 E4770.49579
G0 F18000 X-53.314 Y-13.499
G1 F2400 X53.319 Y-13.5 E4776.03735
G0 F18000 X53.319 Y-14
G1 F2400 X-53.314 Y-13.999 E4781.57895
G0 F18000 X-53.314 Y-14.499
G1 F2400 X53.319 Y-14.5 E4787.12051
G0 F18000 X53.319 Y-15
G1 F2400 X-53.314 Y-14.999 E4792.66211
G0 F18000 X-53.314 Y-15.499
G1 F2400 X53.319 Y-15.5 E4798.20367
G0 F18000 X53.319 Y-16
G1 F2400 X-53.314 Y-15.999 E4803.74528
G0 F18000 X-53.314 Y-16.499
G1 F2400 X53.319 Y-16.5 E4809.28683
G0 F18000 X53.319 Y-17
G1 F2400 X-53.314 Y-16.999 E4814.82844
G0 F18000 X-53.314 Y-17.499
G1 F2400 X14.316 Y-17.5 E4818.34304
G0 F18000 X14.091 Y-17.5
G1 F2400 X16.364 Y-17.5 E4818.46117
G0 F18000 X16.157 Y-17.5
G1 F2400 X53.319 Y-17.5 E4820.39244
G0 F18000 X53.32 Y-18
G1 F2400 X16.692 Y-18 E4822.29596
G0 F18000 X16.832 Y-18
G1 F2400 X13.635 Y-18 E4822.4621
G0 F18000 X13.785 Y-18
G1 F2400 X-53.313 Y-17.999 E4825.94912
G0 F18000 X-53.313 Y-18.499
G1 F2400 X13.525 Y-18.5 E4829.42257
G0 F18000 X13.399 Y-18.5
G1 F2400 X17.069 Y-18.5 E4829.61329
G0 F18000 X16.941 Y-18.5
G1 F2400 X53.32 Y-18.5 E4831.50387
G0 F18000 X53.32 Y-19
G1 F2400 X17.022 Y-19 E4833.39024
G0 F18000 X17.142 Y-19
G1 F2400 X13.328 Y-19 E4833.58845
G0 F18000 X13.448 Y-19
G1 F2400 X-53.313 Y-18.999 E4837.05795
G0 F18000 X-53.313 Y-19.499
G1 F2400 X13.503 Y-19.5 E4840.53026
G0 F18000 X13.377 Y-19.5
G1 F2400 X17.087 Y-19.5 E4840.72306
G0 F18000 X16.961 Y-19.5
G1 F2400 X53.32 Y-19.5 E4842.6126
G0 F18000 X53.32 Y-20
