; Generated with MatterSlice 1.0
; filamentDiameter = 1.75
; extrusionWidth = 0.5
; firstLayerExtrusionWidth = 0.4
; layerThickness = 0.25
; firstLayerThickness = 0.3
; automatic settings before start_gcode
G21 ; set units to millimeters
M107 ; fan off
T0 ; set the active extruder to 0
; settings from start_gcode
M104 S190
M190 S60
M109 S190
G28
; automatic settings after start_gcode
T0 ; set the active extruder to 0
G90 ; use absolute coordinates
G92 E0 ; reset the expected extruder position
M82 ; use absolute distance for extrusion
; Layer count: 32
; LAYER:0
M107
G0 F18000 X53.079 Y-33.741 Z0.3
; TYPE:SKIRT
G1 Z0.3
G1 F6600 E0
G1 F720 X54.061 Y-33.598 E0.0495
G1 X54.81 Y-33.326 E0.08924
G1 X55.398 Y-33.022 E0.12224
G1 X55.914 Y-32.662 E0.1536
G1 X56.375 Y-32.26 E0.18409
G1 X56.816 Y-31.754 E0.21753
G1 X57.183 Y-31.205 E0.25044
G1 X57.48 Y-30.604 E0.28384
G1 X57.733 Y-29.857 E0.32314
G1 X57.861 Y-28.885 E0.372
G1 X57.861 Y28.886 E3.25416
G1 X57.733 Y29.858 E3.30307
G1 X57.48 Y30.605 E3.34242
G1 X57.183 Y31.206 E3.37586
G1 X56.83 Y31.734 E3.40755
G1 X56.328 Y32.308 E3.44559
G1 X55.789 Y32.761 E3.48072
G1 X55.226 Y33.122 E3.51409
G1 X54.572 Y33.427 E3.55009
G1 X53.824 Y33.642 E3.58892
G1 X52.994 Y33.75 E3.63068
G1 X-53.078 Y33.742 E8.92263
G1 X-54.06 Y33.599 E8.97219
G1 X-54.809 Y33.327 E9.01199
G1 X-55.397 Y33.023 E9.04506
G1 X-55.919 Y32.659 E9.07685
G1 X-56.372 Y32.261 E9.10697
G1 X-56.811 Y31.761 E9.1402
G1 X-57.182 Y31.206 E9.17353
G1 X-57.479 Y30.605 E9.207
G1 X-57.732 Y29.858 E9.24636
G1 X-57.86 Y28.886 E9.29528
G1 X-57.86 Y-28.885 E12.17749
G1 X-57.732 Y-29.857 E12.22644
G1 X-57.479 Y-30.604 E12.26582
G1 X-57.182 Y-31.205 E12.29929
G1 X-56.793 Y-31.787 E12.33423
G1 X-56.302 Y-32.326 E12.37061
G1 X-55.793 Y-32.756 E12.40385
G1 X-55.225 Y-33.121 E12.43751
G1 X-54.571 Y-33.426 E12.47349
G1 X-53.823 Y-33.641 E12.51229
G1 X-52.993 Y-33.749 E12.554
G1 X53.079 Y-33.741 E17.84591
G0 F18000 X53.05 Y-33.341
G1 F720 X53.963 Y-33.208 E17.89193
G1 X54.649 Y-32.959 E17.92832
G1 X55.191 Y-32.678 E17.95876
G1 X55.668 Y-32.346 E17.98772
G1 X56.091 Y-31.977 E18.0157
G1 X56.497 Y-31.511 E18.04649
G1 X56.836 Y-31.004 E18.07688
G1 X57.11 Y-30.451 E18.10762
G1 X57.342 Y-29.766 E18.14366
G1 X57.461 Y-28.858 E18.1893
G1 X57.461 Y28.859 E21.06876
G1 X57.342 Y29.767 E21.11445
G1 X57.11 Y30.452 E21.15053
G1 X56.836 Y31.006 E21.18136
G1 X56.512 Y31.49 E21.21042
G1 X56.047 Y32.022 E21.24567
G1 X55.552 Y32.438 E21.27793
G1 X55.033 Y32.771 E21.3087
G1 X54.432 Y33.051 E21.34177
G1 X53.743 Y33.249 E21.37754
G1 X52.968 Y33.35 E21.41653
G1 X-53.049 Y33.342 E26.70574
G1 X-53.962 Y33.209 E26.75182
G1 X-54.648 Y32.96 E26.78828
G1 X-55.19 Y32.679 E26.81878
G1 X-55.672 Y32.344 E26.84811
G1 X-56.088 Y31.977 E26.87582
G1 X-56.493 Y31.517 E26.90643
G1 X-56.835 Y31.005 E26.93718
G1 X-57.109 Y30.452 E26.96799
G1 X-57.341 Y29.767 E27.00409
G1 X-57.46 Y28.859 E27.04978
G1 X-57.46 Y-28.858 E29.92929
G1 X-57.341 Y-29.766 E29.97502
G1 X-57.109 Y-30.451 E30.01114
G1 X-56.835 Y-31.004 E30.04195
G1 X-56.477 Y-31.539 E30.07408
G1 X-56.024 Y-32.038 E30.10771
G1 X-55.555 Y-32.434 E30.13832
G1 X-55.032 Y-32.77 E30.16932
G1 X-54.431 Y-33.05 E30.20238
G1 X-53.742 Y-33.248 E30.23811
G1 X-52.967 Y-33.349 E30.27706
G1 X53.05 Y-33.341 E35.56622
G0 F18000 X52.804 Y-29.941
; TYPE:WALL-OUTER
G1 F720 X53.129 Y-29.894 E35.58259
G1 X53.277 Y-29.84 E35.59044
G1 X53.436 Y-29.758 E35.59934
G1 X53.683 Y-29.565 E35.61495
G1 X53.793 Y-29.439 E35.62325
G1 X53.886 Y-29.3 E35.63156
G1 X53.963 Y-29.144 E35.64019
G1 X54.014 Y-28.992 E35.64814
G1 X54.061 Y-28.638 E35.66591
G1 X54.061 Y28.639 E38.52342
G1 X54.014 Y28.993 E38.54124
G1 X53.963 Y29.145 E38.54924
G1 X53.812 Y29.412 E38.56454
G1 X53.657 Y29.589 E38.57628
G1 X53.529 Y29.697 E38.58463
G1 X53.39 Y29.786 E38.59287
G1 X53.235 Y29.858 E38.60139
G1 X53.05 Y29.911 E38.61099
G1 X52.75 Y29.95 E38.62609
G1 X-52.803 Y29.942 E43.89215
G1 X-53.128 Y29.895 E43.90858
G1 X-53.276 Y29.841 E43.91649
G1 X-53.435 Y29.759 E43.92546
G1 X-53.678 Y29.569 E43.94088
G1 X-53.792 Y29.44 E43.94951
G1 X-53.885 Y29.301 E43.95788
G1 X-53.962 Y29.145 E43.96658
G1 X-54.013 Y28.993 E43.97459
G1 X-54.06 Y28.639 E43.99242
G1 X-54.06 Y-28.638 E46.84998
G1 X-54.013 Y-28.992 E46.86784
G1 X-53.962 Y-29.144 E46.87587
G1 X-53.885 Y-29.3 E46.88457
G1 X-53.795 Y-29.435 E46.89268
G1 X-53.658 Y-29.586 E46.90285
G1 X-53.527 Y-29.696 E46.91138
G1 X-53.389 Y-29.785 E46.91956
G1 X-53.234 Y-29.857 E46.92806
G1 X-53.049 Y-29.91 E46.93763
G1 X-52.749 Y-29.949 E46.95268
G1 X52.804 Y-29.941 E52.21869
G0 F18000 X52.774 Y-29.541
; TYPE:WALL-INNER
G1 F720 X53.03 Y-29.504 E52.23159
G1 X53.222 Y-29.418 E52.24206
G1 X53.4 Y-29.282 E52.25321
G1 X53.54 Y-29.096 E52.26478
G1 X53.622 Y-28.903 E52.2752
G1 X53.661 Y-28.609 E52.28995
G1 X53.661 Y28.61 E55.14456
G1 X53.622 Y28.904 E55.15936
G1 X53.54 Y29.097 E55.16982
G1 X53.376 Y29.303 E55.18296
G1 X53.197 Y29.434 E55.19403
G1 X52.967 Y29.518 E55.20624
G1 X52.721 Y29.55 E55.21862
G1 X-52.773 Y29.542 E60.48174
G1 X-53.029 Y29.505 E60.49469
G1 X-53.223 Y29.418 E60.50534
G1 X-53.391 Y29.29 E60.51592
G1 X-53.539 Y29.097 E60.52808
G1 X-53.621 Y28.904 E60.53857
G1 X-53.66 Y28.61 E60.55337
G1 X-53.66 Y-28.609 E63.40804
G1 X-53.621 Y-28.903 E63.42287
G1 X-53.539 Y-29.096 E63.43336
G1 X-53.377 Y-29.3 E63.44637
G1 X-53.196 Y-29.433 E63.45756
G1 X-52.966 Y-29.517 E63.46975
G1 X-52.72 Y-29.549 E63.48208
G1 X52.774 Y-29.541 E68.74515
G0 F18000 X53.276 Y-29.2
; TYPE:FILL
G1 F720 X-53.278 Y-29.199 E74.06115
G0 F18000 X-53.494 Y-28.799
G1 F720 X53.495 Y-28.8 E79.3988
G0 F18000 X53.521 Y-28.4
G1 F720 X-53.52 Y-28.399 E84.7391
G0 F18000 X-53.52 Y-27.999
G1 F720 X53.521 Y-28 E90.07935
G0 F18000 X53.521 Y-27.6
G1 F720 X-53.52 Y-27.599 E95.41965
G0 F18000 X-53.52 Y-27.199
G1 F720 X53.521 Y-27.2 E100.75989
G0 F18000 X53.521 Y-26.8
G1 F720 X-53.52 Y-26.799 E106.10019
G0 F18000 X-53.52 Y-26.399
G1 F720 X53.521 Y-26.4 E111.44044
G0 F18000 X53.521 Y-26
G1 F720 X-53.52 Y-25.999 E116.78073
G0 F18000 X-53.52 Y-25.599
G1 F720 X53.521 Y-25.6 E122.12098
G0 F18000 X53.521 Y-25.2
G1 F720 X-53.52 Y-25.199 E127.46128
G0 F18000 X-53.52 Y-24.799
G1 F720 X53.521 Y-24.8 E132.80153
G0 F18000 X53.521 Y-24.4
G1 F720 X-53.52 Y-24.399 E138.14182
G0 F18000 X-53.52 Y-23.999
G1 F720 X53.521 Y-24 E143.48207
G0 F18000 X53.521 Y-23.6
G1 F720 X-53.52 Y-23.599 E148.82237
G0 F18000 X-53.52 Y-23.199
G1 F720 X53.521 Y-23.2 E154.16262
G0 F18000 X53.521 Y-22.8
G1 F720 X-53.52 Y-22.799 E159.50291
G0 F18000 X-53.52 Y-22.399
G1 F720 X53.521 Y-22.4 E164.84316
G0 F18000 X53.521 Y-22
G1 F720 X-53.52 Y-21.999 E170.18346
G0 F18000 X-53.52 Y-21.599
G1 F720 X53.521 Y-21.6 E175.5237
G0 F18000 X53.521 Y-21.2
G1 F720 X-53.52 Y-21.199 E180.864
G0 F18000 X-53.52 Y-20.799
G1 F720 X53.521 Y-20.8 E186.20425
G0 F18000 X53.521 Y-20.4
G1 F720 X-53.52 Y-20.399 E191.54455
G0 F18000 X-53.52 Y-19.999
G1 F720 X53.521 Y-20 E196.88479
G0 F18000 X53.521 Y-19.6
G1 F720 X-53.52 Y-19.599 E202.22509
G0 F18000 X-53.52 Y-19.199
G1 F720 X53.521 Y-19.2 E207.56534
G0 F18000 X53.521 Y-18.8
G1 F720 X-53.52 Y-18.799 E212.90563
G0 F18000 X-53.52 Y-18.399
G1 F720 X53.521 Y-18.4 E218.24588
G0 F18000 X53.521 Y-18
G1 F720 X-53.52 Y-17.999 E223.58618
G0 F18000 X-53.52 Y-17.599
G1 F720 X53.521 Y-17.6 E228.92643
G0 F18000 X53.521 Y-17.2
G1 F720 X-53.52 Y-17.199 E234.26672
G0 F18000 X-53.52 Y-16.799
G1 F720 X53.521 Y-16.8 E239.60697
G0 F18000 X53.521 Y-16.4
G1 F720 X-53.52 Y-16.399 E244.94727
G0 F18000 X-53.52 Y-15.999
G1 F720 X53.521 Y-16 E250.28752
G0 F18000 X53.521 Y-15.6
G1 F720 X-53.52 Y-15.599 E255.62781
G0 F18000 X-53.52 Y-15.199
G1 F720 X53.521 Y-15.2 E260.96806
G0 F18000 X53.521 Y-14.8
G1 F720 X-53.52 Y-14.799 E266.30836
G0 F18000 X-53.52 Y-14.399
G1 F720 X53.521 Y-14.4 E271.6486
G0 F18000 X53.521 Y-14
G1 F720 X-53.52 Y-13.999 E276.9889
G0 F18000 X-53.52 Y-13.599
G1 F720 X53.521 Y-13.6 E282.32915
G0 F18000 X53.521 Y-13.2
G1 F720 X-53.52 Y-13.199 E287.66945
G0 F18000 X-53.52 Y-12.799
G1 F720 X53.521 Y-12.8 E293.00969
G0 F18000 X53.521 Y-12.4
G1 F720 X-53.52 Y-12.399 E298.34999
G0 F18000 X-53.52 Y-11.999
G1 F720 X53.521 Y-12 E303.69024
G0 F18000 X53.521 Y-11.6
G1 F720 X-53.52 Y-11.599 E309.03053
G0 F18000 X-53.52 Y-11.199
G1 F720 X53.521 Y-11.2 E314.37078
G0 F18000 X53.521 Y-10.8
G1 F720 X-53.52 Y-10.799 E319.71108
G0 F18000 X-53.52 Y-10.399
G1 F720 X53.521 Y-10.4 E325.05133
G0 F18000 X53.521 Y-10
G1 F720 X-53.52 Y-9.999 E330.39162
G0 F18000 X-53.52 Y-9.599
G1 F720 X53.521 Y-9.6 E335.73187
G0 F18000 X53.521 Y-9.2
G1 F720 X-53.52 Y-9.199 E341.07217
G0 F18000 X-53.52 Y-8.799
G1 F720 X53.521 Y-8.8 E346.41242
G0 F18000 X53.521 Y-8.4
G1 F720 X-53.52 Y-8.399 E351.75271
G0 F18000 X-53.52 Y-7.999
G1 F720 X53.521 Y-8 E357.09296
G0 F18000 X53.521 Y-7.6
G1 F720 X-53.52 Y-7.599 E362.43326
G0 F18000 X-53.52 Y-7.199
G1 F720 X53.521 Y-7.2 E367.7735
G0 F18000 X53.521 Y-6.8
G1 F720 X-53.52 Y-6.799 E373.1138
G0 F18000 X-53.52 Y-6.399
G1 F720 X53.521 Y-6.4 E378.45405
G0 F18000 X53.521 Y-6
G1 F720 X-53.52 Y-5.999 E383.79435
G0 F18000 X-53.52 Y-5.599
G1 F720 X53.521 Y-5.6 E389.13459
G0 F18000 X53.521 Y-5.2
G1 F720 X-53.52 Y-5.199 E394.47489
G0 F18000 X-53.52 Y-4.799
G1 F720 X53.521 Y-4.8 E399.81514
G0 F18000 X53.521 Y-4.4
G1 F720 X-53.52 Y-4.399 E405.15543
G0 F18000 X-53.52 Y-3.999
G1 F720 X53.521 Y-4 E410.49568
G0 F18000 X53.521 Y-3.6
G1 F720 X-53.52 Y-3.599 E415.83598
G0 F18000 X-53.52 Y-3.199
G1 F720 X53.521 Y-3.2 E421.17623
G0 F18000 X53.521 Y-2.8
G1 F720 X-53.52 Y-2.799 E426.51652
G0 F18000 X-53.52 Y-2.399
G1 F720 X53.521 Y-2.4 E431.85677
G0 F18000 X53.521 Y-2
G1 F720 X-53.52 Y-1.999 E437.19707
G0 F18000 X-53.52 Y-1.599
G1 F720 X53.521 Y-1.6 E442.53732
G0 F18000 X53.521 Y-1.2
G1 F720 X-53.52 Y-1.199 E447.87761
G0 F18000 X-53.52 Y-0.799
G1 F720 X53.521 Y-0.8 E453.21786
G0 F18000 X53.521 Y-0.4
G1 F720 X-53.52 Y-0.399 E458.55816
G0 F18000 X-53.52 Y0
G1 F720 X53.521 Y0 E463.8984
G0 F18000 X53.521 Y0.399
G1 F720 X-53.52 Y0.4 E469.2387
G0 F18000 X-53.52 Y0.8
G1 F720 X53.521 Y0.799 E474.57895
G0 F18000 X53.521 Y1.199
G1 F720 X-53.52 Y1.2 E479.91925
G0 F18000 X-53.52 Y1.6
G1 F720 X53.521 Y1.599 E485.25949
G0 F18000 X53.521 Y1.999
G1 F720 X-53.52 Y2 E490.59979
G0 F18000 X-53.52 Y2.4
G1 F720 X53.521 Y2.399 E495.94004
G0 F18000 X53.521 Y2.799
G1 F720 X-53.52 Y2.8 E501.28033
G0 F18000 X-53.52 Y3.2
G1 F720 X53.521 Y3.199 E506.62058
G0 F18000 X53.521 Y3.599
G1 F720 X-53.52 Y3.6 E511.96088
G0 F18000 X-53.52 Y4
G1 F720 X53.521 Y3.999 E517.30113
G0 F18000 X53.521 Y4.399
G1 F720 X-53.52 Y4.4 E522.64142
G0 F18000 X-53.52 Y4.8
G1 F720 X53.521 Y4.799 E527.98167
G0 F18000 X53.521 Y5.199
G1 F720 X-53.52 Y5.2 E533.32197
G0 F18000 X-53.52 Y5.6
G1 F720 X53.521 Y5.599 E538.66222
G0 F18000 X53.521 Y5.999
G1 F720 X-53.52 Y6 E544.00251
G0 F18000 X-53.52 Y6.4
G1 F720 X53.521 Y6.399 E549.34276
G0 F18000 X53.521 Y6.799
G1 F720 X-53.52 Y6.8 E554.68306
G0 F18000 X-53.52 Y7.2
G1 F720 X53.521 Y7.199 E560.0233
G0 F18000 X53.521 Y7.599
G1 F720 X-53.52 Y7.6 E565.3636
G0 F18000 X-53.52 Y8
G1 F720 X53.521 Y7.999 E570.70385
G0 F18000 X53.521 Y8.399
G1 F720 X-53.52 Y8.4 E576.04415
G0 F18000 X-53.52 Y8.8
G1 F720 X53.521 Y8.799 E581.38439
G0 F18000 X53.521 Y9.199
G1 F720 X-53.52 Y9.2 E586.72469
G0 F18000 X-53.52 Y9.6
G1 F720 X53.521 Y9.599 E592.06494
G0 F18000 X53.521 Y9.999
G1 F720 X-53.52 Y10 E597.40524
G0 F18000 X-53.52 Y10.4
G1 F720 X53.521 Y10.399 E602.74548
G0 F18000 X53.521 Y10.799
G1 F720 X-53.52 Y10.8 E608.08578
G0 F18000 X-53.52 Y11.2
G1 F720 X53.521 Y11.199 E613.42603
G0 F18000 X53.521 Y11.599
G1 F720 X-53.52 Y11.6 E618.76632
G0 F18000 X-53.52 Y12
G1 F720 X53.521 Y11.999 E624.10657
G0 F18000 X53.521 Y12.399
G1 F720 X-53.52 Y12.4 E629.44687
G0 F18000 X-53.52 Y12.8
G1 F720 X53.521 Y12.799 E634.78712
G0 F18000 X53.521 Y13.199
G1 F720 X-53.52 Y13.2 E640.12741
G0 F18000 X-53.52 Y13.6
G1 F720 X53.521 Y13.599 E645.46766
G0 F18000 X53.521 Y13.999
G1 F720 X-53.52 Y14 E650.80796
G0 F18000 X-53.52 Y14.4
G1 F720 X53.521 Y14.399 E656.1482
G0 F18000 X53.521 Y14.799
G1 F720 X-53.52 Y14.8 E661.4885
G0 F18000 X-53.52 Y15.2
G1 F720 X53.521 Y15.199 E666.82875
G0 F18000 X53.521 Y15.599
G1 F720 X-53.52 Y15.6 E672.16905
G0 F18000 X-53.52 Y16
G1 F720 X53.521 Y15.999 E677.50929
G0 F18000 X53.521 Y16.399
G1 F720 X-53.52 Y16.4 E682.84959
G0 F18000 X-53.52 Y16.8
G1 F720 X53.521 Y16.799 E688.18984
G0 F18000 X53.521 Y17.199
G1 F720 X-53.52 Y17.2 E693.53014
G0 F18000 X-53.52 Y17.6
G1 F720 X53.521 Y17.599 E698.87038
G0 F18000 X53.521 Y17.999
G1 F720 X-53.52 Y18 E704.21068
G0 F18000 X-53.52 Y18.4
G1 F720 X53.521 Y18.399 E709.55093
G0 F18000 X53.521 Y18.799
G1 F720 X-53.52 Y18.8 E714.89122
G0 F18000 X-53.52 Y19.2
G1 F720 X53.521 Y19.199 E720.23147
G0 F18000 X53.521 Y19.599
G1 F720 X-53.52 Y19.6 E725.57177
G0 F18000 X-53.52 Y20
G1 F720 X53.521 Y19.999 E730.91202
G0 F18000 X53.521 Y20.399
G1 F720 X-53.52 Y20.4 E736.25231
G0 F18000 X-53.52 Y20.8
G1 F720 X53.521 Y20.799 E741.59256
G0 F18000 X53.521 Y21.199
G1 F720 X-53.52 Y21.2 E746.93286
G0 F18000 X-53.52 Y21.6
G1 F720 X53.521 Y21.599 E752.2731
G0 F18000 X53.521 Y21.999
G1 F720 X-53.52 Y22 E757.6134
G0 F18000 X-53.52 Y22.4
G1 F720 X53.521 Y22.399 E762.95365
G0 F18000 X53.521 Y22.799
G1 F720 X-53.52 Y22.8 E768.29395
G0 F18000 X-53.52 Y23.2
G1 F720 X53.521 Y23.199 E773.63419
G0 F18000 X53.521 Y23.599
G1 F720 X-53.52 Y23.6 E778.97449
G0 F18000 X-53.52 Y24
G1 F720 X53.521 Y23.999 E784.31474
G0 F18000 X53.521 Y24.399
G1 F720 X-53.52 Y24.4 E789.65504
G0 F18000 X-53.52 Y24.8
G1 F720 X53.521 Y24.799 E794.99528
G0 F18000 X53.521 Y25.199
G1 F720 X-53.52 Y25.2 E800.33558
G0 F18000 X-53.52 Y25.6
G1 F720 X53.521 Y25.599 E805.67583
G0 F18000 X53.521 Y25.999
G1 F720 X-53.52 Y26 E811.01612
G0 F18000 X-53.52 Y26.4
G1 F720 X53.521 Y26.399 E816.35637
G0 F18000 X53.521 Y26.799
G1 F720 X-53.52 Y26.8 E821.69667
G0 F18000 X-53.52 Y27.2
G1 F720 X53.521 Y27.199 E827.03692
G0 F18000 X53.521 Y27.599
G1 F720 X-53.52 Y27.6 E832.37721
G0 F18000 X-53.52 Y28
G1 F720 X53.521 Y27.999 E837.71746
G0 F18000 X53.521 Y28.399
G1 F720 X-53.52 Y28.4 E843.05776
G0 F18000 X-53.494 Y28.8
G1 F720 X53.495 Y28.799 E848.39541
G0 F18000 X53.28 Y29.199
G1 F720 X-53.278 Y29.2 E853.71161
; LAYER:1
G0 F18000 X-53.211 Y29.243 Z0.55
; TYPE:WALL-INNER
G1 F2400 X-53.331 Y29.127 E853.72032
G1 X-53.403 Y29.028 E853.72671
G1 X-53.475 Y28.861 E853.73619
G1 X-53.51 Y28.598 E853.74998
G1 X-53.51 Y-28.597 E856.72235
G1 X-53.477 Y-28.849 E856.7356
G1 X-53.421 Y-28.991 E856.74356
G1 X-53.352 Y-29.103 E856.75042
G1 X-53.257 Y-29.203 E856.75759
G1 X-53.133 Y-29.295 E856.7656
G1 X-52.98 Y-29.363 E856.77427
G1 X-52.708 Y-29.399 E856.78849
G1 X52.709 Y-29.399 E862.26685
G1 X52.967 Y-29.365 E862.28037
G1 X53.08 Y-29.322 E862.28663
G1 X53.212 Y-29.242 E862.29463
G1 X53.33 Y-29.128 E862.30312
G1 X53.404 Y-29.027 E862.30958
G1 X53.476 Y-28.86 E862.31898
G1 X53.511 Y-28.597 E862.33272
G1 X53.511 Y28.598 E865.30503
G1 X53.478 Y28.85 E865.31824
G1 X53.382 Y29.062 E865.33034
G1 X53.288 Y29.177 E865.33806
G1 X53.184 Y29.262 E865.34504
G1 X52.981 Y29.364 E865.35684
G1 X52.709 Y29.4 E865.3711
G1 X-52.708 Y29.4 E870.84951
G1 X-52.966 Y29.366 E870.86309
G1 X-53.079 Y29.323 E870.86942
G1 X-53.211 Y29.243 E870.87749
G0 F18000 X-53.518 Y29.642
; TYPE:WALL-OUTER
G1 F2100 X-53.708 Y29.459 E870.89123
G1 X-53.841 Y29.276 E870.90302
G1 X-53.964 Y28.979 E870.91975
G1 X-54.01 Y28.632 E870.93794
G1 X-54.01 Y-28.631 E873.91384
G1 X-53.965 Y-28.973 E873.93181
G1 X-53.87 Y-29.214 E873.94531
G1 X-53.751 Y-29.408 E873.95715
G1 X-53.588 Y-29.58 E873.96947
G1 X-53.384 Y-29.731 E873.98265
G1 X-53.092 Y-29.853 E873.99907
G1 X-52.742 Y-29.899 E874.01737
G1 X52.743 Y-29.899 E879.49926
G1 X53.09 Y-29.853 E879.51744
G1 X53.298 Y-29.774 E879.52899
G1 X53.519 Y-29.641 E879.54237
G1 X53.709 Y-29.458 E879.55604
G1 X53.842 Y-29.275 E879.56776
G1 X53.965 Y-28.978 E879.58441
G1 X54.011 Y-28.631 E879.60255
G1 X54.011 Y28.632 E882.5784
G1 X53.966 Y28.974 E882.59633
G1 X53.869 Y29.219 E882.61002
G1 X53.794 Y29.347 E882.61773
G1 X53.644 Y29.533 E882.63015
G1 X53.464 Y29.678 E882.64216
G1 X53.233 Y29.806 E882.65588
G1 X53.092 Y29.854 E882.66362
G1 X52.743 Y29.9 E882.68192
G1 X-52.742 Y29.9 E888.16386
G1 X-53.089 Y29.854 E888.18211
G1 X-53.297 Y29.775 E888.19372
G1 X-53.518 Y29.642 E888.20717
G0 F18000 X-53 Y29.139
; TYPE:FILL
G1 F2400 X-53 Y-29.146 E891.23618
G0 F18000 X-52.5 Y-29.208
G1 F2400 X-52.5 Y29.209 E894.272
G0 F18000 X-52 Y29.209
G1 F2400 X-52 Y-29.208 E897.30787
G0 F18000 X-51.5 Y-29.208
G1 F2400 X-51.5 Y29.209 E900.34369
G0 F18000 X-51 Y29.209
G1 F2400 X-51 Y-29.208 E903.37956
G0 F18000 X-50.5 Y-29.208
G1 F2400 X-50.5 Y29.209 E906.41538
G0 F18000 X-50 Y29.209
G1 F2400 X-50 Y-29.208 E909.45125
G0 F18000 X-49.5 Y-29.208
G1 F2400 X-49.5 Y29.209 E912.48707
G0 F18000 X-49 Y29.209
G1 F2400 X-49 Y-29.208 E915.52294
G0 F18000 X-48.5 Y-29.208
G1 F2400 X-48.5 Y29.209 E918.55876
G0 F18000 X-48 Y29.209
G1 F2400 X-48 Y-29.208 E921.59463
G0 F18000 X-47.5 Y-29.208
G1 F2400 X-47.5 Y29.209 E924.63045
G0 F18000 X-47 Y29.209
G1 F2400 X-47 Y-29.208 E927.66632
G0 F18000 X-46.5 Y-29.208
G1 F2400 X-46.5 Y29.209 E930.70214
G0 F18000 X-46 Y29.209
G1 F2400 X-46 Y-29.208 E933.73801
G0 F18000 X-45.5 Y-29.208
G1 F2400 X-45.5 Y29.209 E936.77383
G0 F18000 X-45 Y29.209
G1 F2400 X-45 Y-29.208 E939.8097
G0 F18000 X-44.5 Y-29.208
G1 F2400 X-44.5 Y29.209 E942.84551
G0 F18000 X-44 Y29.209
G1 F2400 X-44 Y-29.208 E945.88139
G0 F18000 X-43.5 Y-29.208
G1 F2400 X-43.5 Y29.209 E948.9172
G0 F18000 X-43 Y29.209
G1 F2400 X-43 Y-29.208 E951.95308
G0 F18000 X-42.5 Y-29.208
G1 F2400 X-42.5 Y29.209 E954.98889
G0 F18000 X-42 Y29.209
G1 F2400 X-42 Y-29.208 E958.02476
G0 F18000 X-41.5 Y-29.208
G1 F2400 X-41.5 Y29.209 E961.06058
G0 F18000 X-41 Y29.209
G1 F2400 X-41 Y-29.208 E964.09645
G0 F18000 X-40.5 Y-29.208
G1 F2400 X-40.5 Y29.209 E967.13227
G0 F18000 X-40 Y29.209
G1 F2400 X-40 Y-29.208 E970.16814
G0 F18000 X-39.5 Y-29.208
G1 F2400 X-39.5 Y29.209 E973.20396
G0 F18000 X-39 Y29.209
G1 F2400 X-39 Y-29.208 E976.23983
G0 F18000 X-38.5 Y-29.208
G1 F2400 X-38.5 Y29.209 E979.27565
G0 F18000 X-38 Y29.209
G1 F2400 X-38 Y-29.208 E982.31152
G0 F18000 X-37.5 Y-29.208
G1 F2400 X-37.5 Y29.209 E985.34734
G0 F18000 X-37 Y29.209
G1 F2400 X-37 Y-29.208 E988.38321
G0 F18000 X-36.5 Y-29.208
G1 F2400 X-36.5 Y29.209 E991.41903
G0 F18000 X-36 Y29.209
G1 F2400 X-36 Y-29.208 E994.4549
G0 F18000 X-35.5 Y-29.208
G1 F2400 X-35.5 Y29.209 E997.49072
G0 F18000 X-35 Y29.209
G1 F2400 X-35 Y-29.208 E1000.52659
G0 F18000 X-34.5 Y-29.208
G1 F2400 X-34.5 Y29.209 E1003.56241
G0 F18000 X-34 Y29.209
G1 F2400 X-34 Y-29.208 E1006.59828
G0 F18000 X-33.5 Y-29.208
G1 F2400 X-33.5 Y29.209 E1009.6341
G0 F18000 X-33 Y29.209
G1 F2400 X-33 Y-29.208 E1012.66997
G0 F18000 X-32.5 Y-29.208
G1 F2400 X-32.499 Y29.209 E1015.70579
G0 F18000 X-31.999 Y29.209
G1 F2400 X-32 Y-29.208 E1018.74166
G0 F18000 X-31.5 Y-29.208
G1 F2400 X-31.499 Y29.209 E1021.77748
G0 F18000 X-30.999 Y29.209
G1 F2400 X-31 Y-29.208 E1024.81335
G0 F18000 X-30.5 Y-29.208
G1 F2400 X-30.499 Y29.209 E1027.84917
G0 F18000 X-29.999 Y29.209
G1 F2400 X-30 Y-29.208 E1030.88504
G0 F18000 X-29.5 Y-29.208
G1 F2400 X-29.499 Y29.209 E1033.92086
G0 F18000 X-28.999 Y29.209
G1 F2400 X-29 Y-29.208 E1036.95673
G0 F18000 X-28.5 Y-29.208
G1 F2400 X-28.499 Y29.209 E1039.99255
G0 F18000 X-27.999 Y29.209
G1 F2400 X-28 Y-29.208 E1043.02842
G0 F18000 X-27.5 Y-29.208
G1 F2400 X-27.499 Y29.209 E1046.06424
G0 F18000 X-26.999 Y29.209
G1 F2400 X-27 Y-29.208 E1049.10011
G0 F18000 X-26.5 Y-29.208
G1 F2400 X-26.499 Y29.209 E1052.13593
G0 F18000 X-25.999 Y29.209
G1 F2400 X-26 Y-29.208 E1055.1718
G0 F18000 X-25.5 Y-29.208
G1 F2400 X-25.499 Y29.209 E1058.20762
G0 F18000 X-24.999 Y29.209
G1 F2400 X-25 Y-29.208 E1061.24349
G0 F18000 X-24.5 Y-29.208
G1 F2400 X-24.499 Y29.209 E1064.27931
G0 F18000 X-23.999 Y29.209
G1 F2400 X-24 Y-29.208 E1067.31518
G0 F18000 X-23.5 Y-29.208
G1 F2400 X-23.499 Y29.209 E1070.351
G0 F18000 X-22.999 Y29.209
G1 F2400 X-23 Y-29.208 E1073.38687
G0 F18000 X-22.5 Y-29.208
G1 F2400 X-22.499 Y29.209 E1076.42269
G0 F18000 X-21.999 Y29.209
G1 F2400 X-22 Y-29.208 E1079.45856
G0 F18000 X-21.5 Y-29.208
G1 F2400 X-21.499 Y29.209 E1082.49438
G0 F18000 X-20.999 Y29.209
G1 F2400 X-21 Y-29.208 E1085.53025
G0 F18000 X-20.5 Y-29.208
G1 F2400 X-20.499 Y29.209 E1088.56607
G0 F18000 X-19.999 Y29.209
G1 F2400 X-20 Y-29.208 E1091.60194
G0 F18000 X-19.5 Y-29.208
G1 F2400 X-19.499 Y29.209 E1094.63776
G0 F18000 X-18.999 Y29.209
G1 F2400 X-19 Y-29.208 E1097.67363
G0 F18000 X-18.5 Y-29.208
G1 F2400 X-18.499 Y29.209 E1100.70944
G0 F18000 X-17.999 Y29.209
G1 F2400 X-18 Y-29.208 E1103.74532
G0 F18000 X-17.5 Y-29.208
G1 F2400 X-17.499 Y29.209 E1106.78113
G0 F18000 X-16.999 Y29.209
G1 F2400 X-17 Y-29.208 E1109.81701
G0 F18000 X-16.5 Y-29.208
G1 F2400 X-16.499 Y29.209 E1112.85282
G0 F18000 X-15.999 Y29.209
G1 F2400 X-16 Y-29.208 E1115.88869
G0 F18000 X-15.5 Y-29.208
G1 F2400 X-15.499 Y29.209 E1118.92451
G0 F18000 X-14.999 Y29.209
G1 F2400 X-15 Y-29.208 E1121.96038
G0 F18000 X-14.5 Y-29.209
G1 F2400 X-14.499 Y29.209 E1124.99626
G0 F18000 X-13.999 Y29.209
G1 F2400 X-14 Y-29.209 E1128.03218
G0 F18000 X-13.5 Y-29.209
G1 F2400 X-13.499 Y29.209 E1131.06805
G0 F18000 X-12.999 Y29.209
G1 F2400 X-13 Y-29.209 E1134.10397
G0 F18000 X-12.5 Y-29.209
G1 F2400 X-12.499 Y29.209 E1137.13984
G0 F18000 X-11.999 Y29.209
G1 F2400 X-12 Y-29.209 E1140.17577
G0 F18000 X-11.5 Y-29.209
G1 F2400 X-11.499 Y29.209 E1143.21164
G0 F18000 X-10.999 Y29.209
G1 F2400 X-11 Y-29.209 E1146.24756
G0 F18000 X-10.5 Y-29.209
G1 F2400 X-10.499 Y29.209 E1149.28343
G0 F18000 X-9.999 Y29.209
G1 F2400 X-10 Y-29.209 E1152.31935
G0 F18000 X-9.5 Y-29.209
G1 F2400 X-9.499 Y29.209 E1155.35522
G0 F18000 X-8.999 Y29.209
G1 F2400 X-9 Y-29.209 E1158.39115
G0 F18000 X-8.5 Y-29.209
G1 F2400 X-8.499 Y29.209 E1161.42702
G0 F18000 X-7.999 Y29.209
G1 F2400 X-8 Y-29.209 E1164.46294
G0 F18000 X-7.5 Y-29.209
G1 F2400 X-7.499 Y29.209 E1167.49881
G0 F18000 X-6.999 Y29.209
G1 F2400 X-7 Y-29.209 E1170.53473
G0 F18000 X-6.5 Y-29.209
G1 F2400 X-6.499 Y29.209 E1173.5706
G0 F18000 X-5.999 Y29.209
G1 F2400 X-6 Y-29.209 E1176.60653
G0 F18000 X-5.5 Y-29.209
G1 F2400 X-5.499 Y29.209 E1179.6424
G0 F18000 X-4.999 Y29.209
G1 F2400 X-5 Y-29.209 E1182.67832
G0 F18000 X-4.5 Y-29.209
G1 F2400 X-4.499 Y29.209 E1185.71419
G0 F18000 X-3.999 Y29.209
G1 F2400 X-4 Y-29.209 E1188.75011
G0 F18000 X-3.5 Y-29.209
G1 F2400 X-3.499 Y29.209 E1191.78598
G0 F18000 X-2.999 Y29.209
G1 F2400 X-3 Y-29.209 E1194.82191
G0 F18000 X-2.5 Y-29.209
G1 F2400 X-2.499 Y29.209 E1197.85778
G0 F18000 X-1.999 Y29.209
G1 F2400 X-2 Y-29.209 E1200.8937
G0 F18000 X-1.5 Y-29.209
G1 F2400 X-1.499 Y29.209 E1203.92957
G0 F18000 X-0.999 Y29.209
G1 F2400 X-1 Y-29.209 E1206.96549
G0 F18000 X-0.5 Y-29.209
G1 F2400 X-0.499 Y29.209 E1210.00137
G0 F18000 X0 Y29.209
G1 F2400 X0 Y-29.209 E1213.03729
G0 F18000 X0.499 Y-29.208
G1 F2400 X0.5 Y29.21 E1216.07316
G0 F18000 X1 Y29.21
G1 F2400 X0.999 Y-29.208 E1219.10908
G0 F18000 X1.499 Y-29.208
G1 F2400 X1.5 Y29.21 E1222.14495
G0 F18000 X2 Y29.21
G1 F2400 X1.999 Y-29.208 E1225.18088
G0 F18000 X2.499 Y-29.208
G1 F2400 X2.5 Y29.21 E1228.21675
G0 F18000 X3 Y29.21
G1 F2400 X2.999 Y-29.208 E1231.25267
G0 F18000 X3.499 Y-29.208
G1 F2400 X3.5 Y29.21 E1234.28854
G0 F18000 X4 Y29.21
G1 F2400 X3.999 Y-29.208 E1237.32446
G0 F18000 X4.499 Y-29.208
G1 F2400 X4.5 Y29.21 E1240.36033
G0 F18000 X5 Y29.21
G1 F2400 X4.999 Y-29.208 E1243.39626
G0 F18000 X5.499 Y-29.208
G1 F2400 X5.5 Y29.21 E1246.43213
G0 F18000 X6 Y29.21
G1 F2400 X5.999 Y-29.208 E1249.46805
G0 F18000 X6.499 Y-29.208
G1 F2400 X6.5 Y29.21 E1252.50392
G0 F18000 X7 Y29.21
G1 F2400 X6.999 Y-29.208 E1255.53984
G0 F18000 X7.499 Y-29.208
G1 F2400 X7.5 Y29.21 E1258.57571
G0 F18000 X8 Y29.21
G1 F2400 X7.999 Y-29.208 E1261.61164
G0 F18000 X8.499 Y-29.208
G1 F2400 X8.5 Y29.21 E1264.64751
G0 F18000 X9 Y29.21
G1 F2400 X8.999 Y-29.208 E1267.68343
G0 F18000 X9.499 Y-29.208
G1 F2400 X9.5 Y29.21 E1270.7193
G0 F18000 X10 Y29.21
G1 F2400 X9.999 Y-29.208 E1273.75522
G0 F18000 X10.499 Y-29.208
G1 F2400 X10.5 Y29.21 E1276.79109
G0 F18000 X11 Y29.21
G1 F2400 X10.999 Y-29.208 E1279.82702
G0 F18000 X11.499 Y-29.208
G1 F2400 X11.5 Y29.21 E1282.86289
G0 F18000 X12 Y29.21
G1 F2400 X11.999 Y-29.208 E1285.89881
G0 F18000 X12.499 Y-29.208
G1 F2400 X12.5 Y29.21 E1288.93468
G0 F18000 X13 Y29.21
G1 F2400 X12.999 Y-29.208 E1291.9706
G0 F18000 X13.499 Y-29.208
G1 F2400 X13.5 Y29.21 E1295.00648
G0 F18000 X14 Y29.21
G1 F2400 X13.999 Y-29.208 E1298.0424
G0 F18000 X14.499 Y-29.208
G1 F2400 X14.5 Y29.21 E1301.07827
G0 F18000 X15 Y29.209
G1 F2400 X14.999 Y-29.208 E1304.11414
G0 F18000 X15.499 Y-29.208
G1 F2400 X15.5 Y29.209 E1307.14996
G0 F18000 X16 Y29.209
G1 F2400 X15.999 Y-29.208 E1310.18583
G0 F18000 X16.499 Y-29.208
G1 F2400 X16.5 Y29.209 E1313.22165
G0 F18000 X17 Y29.209
G1 F2400 X16.999 Y-29.208 E1316.25752
G0 F18000 X17.499 Y-29.208
G1 F2400 X17.5 Y29.209 E1319.29334
G0 F18000 X18 Y29.209
G1 F2400 X17.999 Y-29.208 E1322.32921
G0 F18000 X18.499 Y-29.208
G1 F2400 X18.5 Y29.209 E1325.36503
G0 F18000 X19 Y29.209
G1 F2400 X18.999 Y-29.208 E1328.4009
G0 F18000 X19.499 Y-29.208
G1 F2400 X19.5 Y29.209 E1331.43672
G0 F18000 X20 Y29.209
G1 F2400 X19.999 Y-29.208 E1334.47259
G0 F18000 X20.499 Y-29.208
G1 F2400 X20.5 Y29.209 E1337.50841
G0 F18000 X21 Y29.209
G1 F2400 X20.999 Y-29.208 E1340.54428
G0 F18000 X21.499 Y-29.208
G1 F2400 X21.5 Y29.209 E1343.5801
G0 F18000 X22 Y29.209
G1 F2400 X21.999 Y-29.208 E1346.61597
G0 F18000 X22.499 Y-29.208
G1 F2400 X22.5 Y29.209 E1349.65179
G0 F18000 X23 Y29.209
G1 F2400 X22.999 Y-29.208 E1352.68766
G0 F18000 X23.499 Y-29.208
G1 F2400 X23.5 Y29.209 E1355.72348
G0 F18000 X24 Y29.209
G1 F2400 X23.999 Y-29.208 E1358.75935
G0 F18000 X24.499 Y-29.208
G1 F2400 X24.5 Y29.209 E1361.79516
G0 F18000 X25 Y29.209
G1 F2400 X24.999 Y-29.208 E1364.83104
G0 F18000 X25.499 Y-29.208
G1 F2400 X25.5 Y29.209 E1367.86685
G0 F18000 X26 Y29.209
G1 F2400 X25.999 Y-29.208 E1370.90273
G0 F18000 X26.499 Y-29.208
G1 F2400 X26.5 Y29.209 E1373.93854
G0 F18000 X27 Y29.209
G1 F2400 X26.999 Y-29.208 E1376.97441
G0 F18000 X27.499 Y-29.208
G1 F2400 X27.5 Y29.209 E1380.01023
G0 F18000 X28 Y29.209
G1 F2400 X27.999 Y-29.208 E1383.0461
G0 F18000 X28.499 Y-29.208
G1 F2400 X28.5 Y29.209 E1386.08192
G0 F18000 X29 Y29.209
G1 F2400 X28.999 Y-29.208 E1389.11779
G0 F18000 X29.499 Y-29.208
G1 F2400 X29.5 Y29.209 E1392.15361
G0 F18000 X30 Y29.209
G1 F2400 X29.999 Y-29.208 E1395.18948
G0 F18000 X30.499 Y-29.208
G1 F2400 X30.5 Y29.209 E1398.2253
G0 F18000 X31 Y29.209
G1 F2400 X30.999 Y-29.208 E1401.26117
G0 F18000 X31.499 Y-29.208
G1 F2400 X31.5 Y29.209 E1404.29699
G0 F18000 X32 Y29.209
G1 F2400 X31.999 Y-29.208 E1407.33286
G0 F18000 X32.499 Y-29.208
G1 F2400 X32.5 Y29.209 E1410.36868
G0 F18000 X33 Y29.209
G1 F2400 X33 Y-29.208 E1413.40455
G0 F18000 X33.5 Y-29.208
G1 F2400 X33.5 Y29.209 E1416.44037
G0 F18000 X34 Y29.209
G1 F2400 X34 Y-29.208 E1419.47624
G0 F18000 X34.5 Y-29.208
G1 F2400 X34.5 Y29.209 E1422.51206
G0 F18000 X35 Y29.209
G1 F2400 X35 Y-29.208 E1425.54793
G0 F18000 X35.5 Y-29.208
G1 F2400 X35.5 Y29.209 E1428.58375
G0 F18000 X36 Y29.209
G1 F2400 X36 Y-29.208 E1431.61962
G0 F18000 X36.5 Y-29.208
G1 F2400 X36.5 Y29.209 E1434.65544
G0 F18000 X37 Y29.209
G1 F2400 X37 Y-29.208 E1437.69131
G0 F18000 X37.5 Y-29.208
G1 F2400 X37.5 Y29.209 E1440.72713
G0 F18000 X38 Y29.209
G1 F2400 X38 Y-29.208 E1443.763
G0 F18000 X38.5 Y-29.208
G1 F2400 X38.5 Y29.209 E1446.79882
G0 F18000 X39 Y29.209
G1 F2400 X39 Y-29.208 E1449.83469
G0 F18000 X39.5 Y-29.208
G1 F2400 X39.5 Y29.209 E1452.87051
G0 F18000 X40 Y29.209
G1 F2400 X40 Y-29.208 E1455.90638
G0 F18000 X40.5 Y-29.208
G1 F2400 X40.5 Y29.209 E1458.9422
G0 F18000 X41 Y29.209
G1 F2400 X41 Y-29.208 E1461.97807
G0 F18000 X41.5 Y-29.208
G1 F2400 X41.5 Y29.209 E1465.01389
G0 F18000 X42 Y29.209
G1 F2400 X42 Y-29.208 E1468.04976
G0 F18000 X42.5 Y-29.208
G1 F2400 X42.5 Y29.209 E1471.08558
G0 F18000 X43 Y29.209
G1 F2400 X43 Y-29.208 E1474.12145
G0 F18000 X43.5 Y-29.208
G1 F2400 X43.5 Y29.209 E1477.15727
G0 F18000 X44 Y29.209
G1 F2400 X44 Y-29.208 E1480.19314
G0 F18000 X44.5 Y-29.208
G1 F2400 X44.5 Y29.209 E1483.22896
G0 F18000 X45 Y29.209
G1 F2400 X45 Y-29.208 E1486.26483
G0 F18000 X45.5 Y-29.208
G1 F2400 X45.5 Y29.209 E1489.30065
G0 F18000 X46 Y29.209
G1 F2400 X46 Y-29.208 E1492.33652
G0 F18000 X46.5 Y-29.208
G1 F2400 X46.5 Y29.209 E1495.37234
G0 F18000 X47 Y29.209
G1 F2400 X47 Y-29.208 E1498.40821
G0 F18000 X47.5 Y-29.208
G1 F2400 X47.5 Y29.209 E1501.44403
G0 F18000 X48 Y29.209
G1 F2400 X48 Y-29.208 E1504.4799
G0 F18000 X48.5 Y-29.208
G1 F2400 X48.5 Y29.209 E1507.51572
G0 F18000 X49 Y29.209
G1 F2400 X49 Y-29.208 E1510.55159
G0 F18000 X49.5 Y-29.208
G1 F2400 X49.5 Y29.209 E1513.58741
G0 F18000 X50 Y29.209
G1 F2400 X50 Y-29.208 E1516.62328
G0 F18000 X50.5 Y-29.208
G1 F2400 X50.5 Y29.209 E1519.6591
G0 F18000 X51 Y29.209
G1 F2400 X51 Y-29.208 E1522.69497
G0 F18000 X51.5 Y-29.208
G1 F2400 X51.5 Y29.209 E1525.73078
G0 F18000 X52 Y29.209
G1 F2400 X52 Y-29.208 E1528.76666
G0 F18000 X52.5 Y-29.208
G1 F2400 X52.5 Y29.209 E1531.80247
G0 F18000 X53 Y29.141
G1 F2400 X53 Y-29.138 E1534.83117
; LAYER:2
M106 S153
G0 F18000 X53.134 Y-29.298 Z0.8
; TYPE:WALL-INNER
G1 F2400 X53.313 Y-29.151 E1534.84318
G1 X53.422 Y-28.993 E1534.85311
G1 X53.475 Y-28.867 E1534.86017
G1 X53.511 Y-28.597 E1534.87427
G1 X53.511 Y28.598 E1537.84658
G1 X53.477 Y28.859 E1537.86026
G1 X53.397 Y29.038 E1537.87045
G1 X53.288 Y29.177 E1537.87963
G1 X53.155 Y29.282 E1537.88844
G1 X52.981 Y29.364 E1537.89843
G1 X52.709 Y29.4 E1537.91269
G1 X-52.708 Y29.4 E1543.3911
G1 X-52.98 Y29.364 E1543.40541
G1 X-53.133 Y29.299 E1543.4141
G1 X-53.308 Y29.154 E1543.42595
G1 X-53.424 Y28.989 E1543.43646
G1 X-53.474 Y28.868 E1543.44329
G1 X-53.51 Y28.598 E1543.45745
G1 X-53.51 Y-28.597 E1546.42982
G1 X-53.475 Y-28.86 E1546.44365
G1 X-53.391 Y-29.046 E1546.45428
G1 X-53.236 Y-29.222 E1546.46647
G1 X-53.048 Y-29.34 E1546.47799
G1 X-52.98 Y-29.363 E1546.48169
G1 X-52.708 Y-29.399 E1546.49591
G1 X52.709 Y-29.399 E1551.97427
G1 X52.981 Y-29.363 E1551.98852
G1 X53.134 Y-29.298 E1551.99714
G0 F18000 X53.384 Y-29.732
; TYPE:WALL-OUTER
G1 F2100 X53.52 Y-29.641 E1552.00561
G1 X53.681 Y-29.492 E1552.01698
G1 X53.863 Y-29.231 E1552.03347
G1 X53.965 Y-28.978 E1552.0476
G1 X54.011 Y-28.631 E1552.06574
G1 X54.011 Y28.632 E1555.04159
G1 X53.966 Y28.978 E1555.05972
G1 X53.89 Y29.179 E1555.07089
G1 X53.816 Y29.314 E1555.07889
G1 X53.644 Y29.533 E1555.09336
G1 X53.43 Y29.702 E1555.10753
G1 X53.233 Y29.806 E1555.11911
G1 X53.092 Y29.854 E1555.12685
G1 X52.743 Y29.9 E1555.14514
G1 X-52.742 Y29.9 E1560.62709
G1 X-53.091 Y29.854 E1560.64543
G1 X-53.239 Y29.804 E1560.6536
G1 X-53.383 Y29.733 E1560.66199
G1 X-53.519 Y29.642 E1560.67054
G1 X-53.675 Y29.496 E1560.68168
G1 X-53.784 Y29.361 E1560.69073
G1 X-53.932 Y29.075 E1560.70749
G1 X-53.964 Y28.979 E1560.71276
G1 X-54.01 Y28.632 E1560.73096
G1 X-54.01 Y-28.631 E1563.70686
G1 X-53.965 Y-28.977 E1563.72504
G1 X-53.889 Y-29.178 E1563.73624
G1 X-53.815 Y-29.313 E1563.74426
G1 X-53.717 Y-29.447 E1563.7529
G1 X-53.554 Y-29.61 E1563.76488
G1 X-53.384 Y-29.731 E1563.77571
G1 X-53.239 Y-29.803 E1563.7841
G1 X-53.091 Y-29.853 E1563.79219
G1 X-52.742 Y-29.899 E1563.81043
G1 X52.743 Y-29.899 E1569.29233
G1 X53.092 Y-29.853 E1569.31062
G1 X53.24 Y-29.803 E1569.31872
G1 X53.384 Y-29.732 E1569.32704
G0 F18000 X53.184 Y-29
; TYPE:FILL
G1 F2400 X-53.178 Y-28.999 E1574.85456
G0 F18000 X-53.32 Y-28.499
G1 F2400 X53.321 Y-28.5 E1580.39653
G0 F18000 X53.321 Y-28
G1 F2400 X-53.32 Y-27.999 E1585.93855
G0 F18000 X-53.32 Y-27.499
G1 F2400 X53.321 Y-27.5 E1591.48052
G0 F18000 X53.321 Y-27
G1 F2400 X-53.32 Y-26.999 E1597.02255
G0 F18000 X-53.32 Y-26.499
G1 F2400 X53.321 Y-26.5 E1602.56452
G0 F18000 X53.321 Y-26
G1 F2400 X-53.32 Y-25.999 E1608.10654
G0 F18000 X-53.32 Y-25.499
G1 F2400 X53.321 Y-25.5 E1613.64851
G0 F18000 X53.321 Y-25
G1 F2400 X-53.32 Y-24.999 E1619.19053
G0 F18000 X-53.32 Y-24.499
G1 F2400 X53.321 Y-24.5 E1624.7325
G0 F18000 X53.321 Y-24
G1 F2400 X-53.32 Y-23.999 E1630.27452
G0 F18000 X-53.32 Y-23.499
G1 F2400 X53.321 Y-23.5 E1635.81649
G0 F18000 X53.321 Y-23
G1 F2400 X-53.32 Y-22.999 E1641.35851
G0 F18000 X-53.32 Y-22.499
G1 F2400 X53.321 Y-22.5 E1646.90048
G0 F18000 X53.321 Y-22
G1 F2400 X-53.32 Y-21.999 E1652.44251
G0 F18000 X-53.32 Y-21.499
G1 F2400 X53.321 Y-21.5 E1657.98448
G0 F18000 X53.321 Y-21
G1 F2400 X-53.32 Y-20.999 E1663.5265
G0 F18000 X-53.32 Y-20.499
G1 F2400 X53.321 Y-20.5 E1669.06847
G0 F18000 X53.321 Y-20
G1 F2400 X-53.32 Y-19.999 E1674.61049
G0 F18000 X-53.32 Y-19.499
G1 F2400 X53.321 Y-19.5 E1680.15246
G0 F18000 X53.321 Y-19
G1 F2400 X-53.32 Y-18.999 E1685.69448
G0 F18000 X-53.32 Y-18.499
G1 F2400 X53.321 Y-18.5 E1691.23645
G0 F18000 X53.321 Y-18
G1 F2400 X-53.32 Y-17.999 E1696.77847
G0 F18000 X-53.32 Y-17.499
G1 F2400 X53.321 Y-17.5 E1702.32044
G0 F18000 X53.321 Y-17
G1 F2400 X-53.32 Y-16.999 E1707.86246
G0 F18000 X-53.32 Y-16.499
G1 F2400 X53.321 Y-16.5 E1713.40443
G0 F18000 X53.321 Y-16
G1 F2400 X-53.32 Y-15.999 E1718.94646
G0 F18000 X-53.32 Y-15.499
G1 F2400 X53.321 Y-15.5 E1724.48843
G0 F18000 X53.321 Y-15
G1 F2400 X-53.32 Y-14.999 E1730.03045
G0 F18000 X-53.32 Y-14.499
G1 F2400 X53.321 Y-14.5 E1735.57242
G0 F18000 X53.321 Y-14
G1 F2400 X-53.32 Y-13.999 E1741.11444
G0 F18000 X-53.32 Y-13.499
G1 F2400 X53.321 Y-13.5 E1746.65641
G0 F18000 X53.321 Y-13
G1 F2400 X-53.32 Y-12.999 E1752.19843
G0 F18000 X-53.32 Y-12.499
G1 F2400 X53.321 Y-12.5 E1757.7404
G0 F18000 X53.321 Y-12
G1 F2400 X-53.32 Y-11.999 E1763.28242
G0 F18000 X-53.32 Y-11.499
G1 F2400 X53.321 Y-11.5 E1768.82439
G0 F18000 X53.321 Y-11
G1 F2400 X-53.32 Y-10.999 E1774.36642
G0 F18000 X-53.32 Y-10.499
G1 F2400 X53.321 Y-10.5 E1779.90839
G0 F18000 X53.321 Y-10
G1 F2400 X-53.32 Y-9.999 E1785.45041
G0 F18000 X-53.32 Y-9.499
G1 F2400 X53.321 Y-9.5 E1790.99238
G0 F18000 X53.321 Y-9
G1 F2400 X-53.32 Y-8.999 E1796.5344
G0 F18000 X-53.32 Y-8.499
G1 F2400 X53.321 Y-8.5 E1802.07637
G0 F18000 X53.321 Y-8
G1 F2400 X-53.32 Y-7.999 E1807.61839
G0 F18000 X-53.32 Y-7.499
G1 F2400 X53.321 Y-7.5 E1813.16036
G0 F18000 X53.321 Y-7
G1 F2400 X-53.32 Y-6.999 E1818.70238
G0 F18000 X-53.32 Y-6.499
G1 F2400 X53.321 Y-6.5 E1824.24435
G0 F18000 X53.321 Y-6
G1 F2400 X-53.32 Y-5.999 E1829.78638
G0 F18000 X-53.32 Y-5.499
G1 F2400 X53.321 Y-5.5 E1835.32835
G0 F18000 X53.321 Y-5
G1 F2400 X-53.32 Y-4.999 E1840.87037
G0 F18000 X-53.32 Y-4.499
G1 F2400 X53.321 Y-4.5 E1846.41234
G0 F18000 X53.321 Y-4
G1 F2400 X-53.32 Y-3.999 E1851.95436
G0 F18000 X-53.32 Y-3.499
G1 F2400 X53.321 Y-3.5 E1857.49633
G0 F18000 X53.321 Y-3
G1 F2400 X-53.32 Y-2.999 E1863.03835
G0 F18000 X-53.32 Y-2.499
G1 F2400 X53.321 Y-2.5 E1868.58032
G0 F18000 X53.321 Y-2
G1 F2400 X-53.32 Y-1.999 E1874.12234
G0 F18000 X-53.32 Y-1.499
G1 F2400 X53.321 Y-1.5 E1879.66431
G0 F18000 X53.321 Y-1
G1 F2400 X-53.32 Y-0.999 E1885.20634
G0 F18000 X-53.32 Y-0.499
G1 F2400 X53.321 Y-0.5 E1890.74831
G0 F18000 X53.321 Y0
G1 F2400 X-53.32 Y0 E1896.29033
G0 F18000 X-53.32 Y0.5
G1 F2400 X53.321 Y0.499 E1901.8323
G0 F18000 X53.321 Y0.999
G1 F2400 X-53.32 Y1 E1907.37432
G0 F18000 X-53.32 Y1.5
G1 F2400 X53.321 Y1.499 E1912.91629
G0 F18000 X53.321 Y1.999
G1 F2400 X-53.32 Y2 E1918.45831
G0 F18000 X-53.32 Y2.5
G1 F2400 X53.321 Y2.499 E1924.00028
G0 F18000 X53.321 Y2.999
G1 F2400 X-53.32 Y3 E1929.5423
G0 F18000 X-53.32 Y3.5
G1 F2400 X53.321 Y3.499 E1935.08427
G0 F18000 X53.321 Y3.999
G1 F2400 X-53.32 Y4 E1940.6263
G0 F18000 X-53.32 Y4.5
G1 F2400 X53.321 Y4.499 E1946.16827
G0 F18000 X53.321 Y4.999
G1 F2400 X-53.32 Y5 E1951.71029
G0 F18000 X-53.32 Y5.5
G1 F2400 X53.321 Y5.499 E1957.25226
G0 F18000 X53.321 Y5.999
G1 F2400 X-53.32 Y6 E1962.79428
G0 F18000 X-53.32 Y6.5
G1 F2400 X53.321 Y6.499 E1968.33625
G0 F18000 X53.321 Y6.999
G1 F2400 X-53.32 Y7 E1973.87827
G0 F18000 X-53.32 Y7.5
G1 F2400 X53.321 Y7.499 E1979.42024
G0 F18000 X53.321 Y7.999
G1 F2400 X-53.32 Y8 E1984.96226
G0 F18000 X-53.32 Y8.5
G1 F2400 X53.321 Y8.499 E1990.50423
G0 F18000 X53.321 Y8.999
G1 F2400 X-53.32 Y9 E1996.04626
G0 F18000 X-53.32 Y9.5
G1 F2400 X53.321 Y9.499 E2001.58823
G0 F18000 X53.321 Y9.999
G1 F2400 X-53.32 Y10 E2007.13025
G0 F18000 X-53.32 Y10.5
G1 F2400 X53.321 Y10.499 E2012.67222
G0 F18000 X53.321 Y10.999
G1 F2400 X-53.32 Y11 E2018.21424
G0 F18000 X-53.32 Y11.5
G1 F2400 X53.321 Y11.499 E2023.75621
G0 F18000 X53.321 Y11.999
G1 F2400 X-53.32 Y12 E2029.29823
G0 F18000 X-53.32 Y12.5
G1 F2400 X53.321 Y12.499 E2034.8402
G0 F18000 X53.321 Y12.999
G1 F2400 X-53.32 Y13 E2040.38222
G0 F18000 X-53.32 Y13.5
G1 F2400 X53.321 Y13.499 E2045.92419
G0 F18000 X53.321 Y13.999
G1 F2400 X-53.32 Y14 E2051.46622
G0 F18000 X-53.32 Y14.5
G1 F2400 X53.321 Y14.499 E2057.00819
G0 F18000 X53.321 Y14.999
G1 F2400 X-53.32 Y15 E2062.55021
G0 F18000 X-53.32 Y15.5
G1 F2400 X53.321 Y15.499 E2068.09218
G0 F18000 X53.321 Y15.999
G1 F2400 X-53.32 Y16 E2073.6342
G0 F18000 X-53.32 Y16.5
G1 F2400 X53.321 Y16.499 E2079.17617
G0 F18000 X53.321 Y16.999
G1 F2400 X-53.32 Y17 E2084.71819
G0 F18000 X-53.32 Y17.5
G1 F2400 X53.321 Y17.499 E2090.26016
G0 F18000 X53.321 Y17.999
G1 F2400 X-53.32 Y18 E2095.80218
G0 F18000 X-53.32 Y18.5
G1 F2400 X53.321 Y18.499 E2101.34415
G0 F18000 X53.321 Y18.999
G1 F2400 X-53.32 Y19 E2106.88618
G0 F18000 X-53.32 Y19.5
G1 F2400 X53.321 Y19.499 E2112.42815
G0 F18000 X53.321 Y19.999
G1 F2400 X-53.32 Y20 E2117.97017
G0 F18000 X-53.32 Y20.5
G1 F2400 X53.321 Y20.499 E2123.51214
G0 F18000 X53.321 Y20.999
G1 F2400 X-53.32 Y21 E2129.05416
G0 F18000 X-53.32 Y21.5
G1 F2400 X53.321 Y21.499 E2134.59613
G0 F18000 X53.321 Y21.999
G1 F2400 X-53.32 Y22 E2140.13815
G0 F18000 X-53.32 Y22.5
G1 F2400 X53.321 Y22.499 E2145.68012
G0 F18000 X53.321 Y22.999
G1 F2400 X-53.32 Y23 E2151.22214
G0 F18000 X-53.32 Y23.5
G1 F2400 X53.321 Y23.499 E2156.76411
G0 F18000 X53.321 Y23.999
G1 F2400 X-53.32 Y24 E2162.30614
G0 F18000 X-53.32 Y24.5
G1 F2400 X53.321 Y24.499 E2167.84811
G0 F18000 X53.321 Y24.999
G1 F2400 X-53.32 Y25 E2173.39013
G0 F18000 X-53.32 Y25.5
G1 F2400 X53.321 Y25.499 E2178.9321
G0 F18000 X53.321 Y25.999
G1 F2400 X-53.32 Y26 E2184.47412
G0 F18000 X-53.32 Y26.5
G1 F2400 X53.321 Y26.499 E2190.01609
G0 F18000 X53.321 Y26.999
G1 F2400 X-53.32 Y27 E2195.55811
G0 F18000 X-53.32 Y27.5
G1 F2400 X53.321 Y27.499 E2201.10008
G0 F18000 X53.321 Y27.999
G1 F2400 X-53.32 Y28 E2206.6421
G0 F18000 X-53.32 Y28.5
G1 F2400 X53.321 Y28.499 E2212.18407
G0 F18000 X53.186 Y28.999
G1 F2400 X-53.183 Y29 E2217.71196
; LAYER:3
G0 F18000 X-53.293 Y29.174 Z1.05
; TYPE:WALL-INNER
G1 F2400 X-53.41 Y29.021 E2217.722
G1 X-53.477 Y28.849 E2217.73161
G1 X-53.51 Y28.599 E2217.74473
G1 X-53.506 Y-28.624 E2220.71855
G1 X-53.471 Y-28.872 E2220.73161
G1 X-53.405 Y-29.027 E2220.74039
G1 X-53.292 Y-29.175 E2220.75008
G1 X-53.133 Y-29.298 E2220.76051
G1 X-52.98 Y-29.363 E2220.76912
G1 X-52.708 Y-29.399 E2220.78334
G1 X52.709 Y-29.399 E2226.2617
G1 X52.981 Y-29.363 E2226.27595
G1 X53.134 Y-29.298 E2226.28457
G1 X53.29 Y-29.178 E2226.29477
G1 X53.411 Y-29.02 E2226.30507
G1 X53.478 Y-28.848 E2226.31461
G1 X53.511 Y-28.598 E2226.32767
G1 X53.507 Y28.625 E2229.30143
G1 X53.472 Y28.873 E2229.31445
G1 X53.406 Y29.028 E2229.3232
G1 X53.29 Y29.18 E2229.33314
G1 X53.134 Y29.299 E2229.34334
G1 X52.981 Y29.364 E2229.35198
G1 X52.709 Y29.4 E2229.36624
G1 X-52.708 Y29.4 E2234.84465
G1 X-52.98 Y29.364 E2234.85896
G1 X-53.133 Y29.299 E2234.86765
G1 X-53.293 Y29.174 E2234.87824
G0 F18000 X-53.65 Y29.526
; TYPE:WALL-OUTER
G1 F2100 X-53.76 Y29.397 E2234.88708
G1 X-53.849 Y29.262 E2234.89551
G1 X-53.916 Y29.122 E2234.9036
G1 X-53.968 Y28.955 E2234.91271
G1 X-54.01 Y28.633 E2234.92959
G1 X-54.006 Y-28.657 E2237.90689
G1 X-53.959 Y-28.993 E2237.92457
G1 X-53.907 Y-29.143 E2237.93285
G1 X-53.836 Y-29.283 E2237.94103
G1 X-53.643 Y-29.533 E2237.95746
G1 X-53.521 Y-29.64 E2237.96588
G1 X-53.383 Y-29.732 E2237.97449
G1 X-53.239 Y-29.803 E2237.98281
G1 X-53.091 Y-29.853 E2237.9909
G1 X-52.742 Y-29.899 E2238.00914
G1 X52.743 Y-29.899 E2243.49104
G1 X53.092 Y-29.853 E2243.50933
G1 X53.24 Y-29.803 E2243.51743
G1 X53.384 Y-29.732 E2243.52575
G1 X53.522 Y-29.64 E2243.53434
G1 X53.655 Y-29.522 E2243.54355
G1 X53.758 Y-29.401 E2243.55176
G1 X53.85 Y-29.261 E2243.56043
G1 X53.916 Y-29.124 E2243.56828
G1 X53.969 Y-28.954 E2243.57749
G1 X54.011 Y-28.632 E2243.59431
G1 X54.007 Y28.658 E2246.57156
G1 X53.96 Y28.994 E2246.58919
G1 X53.908 Y29.144 E2246.59744
G1 X53.837 Y29.284 E2246.6056
G1 X53.642 Y29.537 E2246.6222
G1 X53.526 Y29.638 E2246.63019
G1 X53.384 Y29.733 E2246.63907
G1 X53.24 Y29.804 E2246.64742
G1 X53.092 Y29.854 E2246.65554
G1 X52.743 Y29.9 E2246.67383
G1 X-52.742 Y29.9 E2252.15578
G1 X-53.091 Y29.854 E2252.17412
G1 X-53.239 Y29.804 E2252.18229
G1 X-53.383 Y29.733 E2252.19068
G1 X-53.52 Y29.641 E2252.1993
G1 X-53.65 Y29.526 E2252.20836
G0 F18000 X-53.186 Y29
; TYPE:FILL
G1 F2400 X53.188 Y28.999 E2257.73645
G0 F18000 X53.317 Y28.499
G1 F2400 X-53.32 Y28.5 E2263.27827
G0 F18000 X-53.32 Y28
G1 F2400 X53.317 Y27.999 E2268.82003
G0 F18000 X53.317 Y27.499
G1 F2400 X-53.32 Y27.5 E2274.36184
G0 F18000 X-53.32 Y27
G1 F2400 X53.317 Y26.999 E2279.9036
G0 F18000 X53.317 Y26.499
G1 F2400 X-53.32 Y26.5 E2285.44542
G0 F18000 X-53.32 Y26
G1 F2400 X53.317 Y25.999 E2290.98718
G0 F18000 X53.317 Y25.499
G1 F2400 X40.485 Y25.499 E2291.65405
G0 F18000 X40.5 Y25.646
G1 F2400 X40.5 Y22.582 E2291.81328
G0 F18000 X40.134 Y22.499
G1 F2400 X53.317 Y22.499 E2292.49839
G0 F18000 X53.317 Y21.999
G1 F2400 X-53.32 Y22 E2298.0402
G0 F18000 X-53.32 Y22.5
G1 F2400 X-36.96 Y22.5 E2298.89036
G0 F18000 X-37 Y22.387
G1 F2400 X-37 Y25.831 E2299.06934
G0 F18000 X-37.31 Y25.5
G1 F2400 X-53.32 Y25.5 E2299.90142
G0 F18000 X-53.32 Y25
G1 F2400 X-37.726 Y25 E2300.71177
G0 F18000 X-38 Y24.67
G1 F2400 X-38 Y23.545 E2300.77023
G0 F18000 X-37.856 Y23.5
G1 F2400 X-53.32 Y23.5 E2301.57393
G0 F18000 X-53.32 Y24
G1 F2400 X-37.961 Y24 E2302.37207
G0 F18000 X-37.926 Y24.5
G1 F2400 X-53.32 Y24.5 E2303.17213
G0 F18000 X-53.32 Y23
G1 F2400 X-37.579 Y23 E2303.99013
G0 F18000 X-37.5 Y22.734
G1 F2400 X-37.5 Y25.483 E2304.13299
G0 F18000 X-36.5 Y25.994
G1 F2400 X-36.5 Y22.223 E2304.32896
G0 F18000 X-36 Y22.21
G1 F2400 X-36 Y26.011 E2304.5265
G0 F18000 X-35.5 Y25.895
G1 F2400 X-35.5 Y22.318 E2304.71239
G0 F18000 X-35.394 Y22.5
G1 F2400 X38.579 Y22.499 E2308.55664
G0 F18000 X38.5 Y22.404
G1 F2400 X38.5 Y25.816 E2308.73396
G0 F18000 X38.228 Y25.499
G1 F2400 X-35.047 Y25.5 E2312.54198
G0 F18000 X-35 Y25.618
G1 F2400 X-35 Y22.604 E2312.69862
G0 F18000 X-34.769 Y23
G1 F2400 X37.952 Y22.999 E2316.4778
G0 F18000 X38 Y22.768
G1 F2400 X38 Y25.456 E2316.61749
G0 F18000 X37.802 Y24.999
G1 F2400 X-34.625 Y25 E2320.38145
G0 F18000 X-34.5 Y25.026
G1 F2400 X-34.5 Y23.184 E2320.47718
G0 F18000 X-34.491 Y23.5
G1 F2400 X37.668 Y23.499 E2324.22715
G0 F18000 X37.5 Y23.643
G1 F2400 X37.5 Y24.557 E2324.27465
G0 F18000 X37.611 Y24.499
G1 F2400 X-34.428 Y24.5 E2328.01844
G0 F18000 X-34.385 Y24
G1 F2400 X37.567 Y23.999 E2331.75766
G0 F18000 X39 Y22.23
G1 F2400 X39 Y25.987 E2331.95291
G0 F18000 X39.5 Y26.015
G1 F2400 X39.5 Y22.207 E2332.15081
G0 F18000 X40 Y22.306
G1 F2400 X40 Y25.907 E2332.33795
G0 F18000 X40.908 Y24.999
G1 F2400 X53.317 Y24.999 E2332.98283
G0 F18000 X53.317 Y24.499
G1 F2400 X41.107 Y24.499 E2333.61737
G0 F18000 X41.148 Y23.999
G1 F2400 X53.317 Y23.999 E2334.24978
G0 F18000 X53.317 Y23.499
G1 F2400 X41.037 Y23.499 E2334.88796
G0 F18000 X41 Y23.129
G1 F2400 X41 Y25.081 E2334.9894
G0 F18000 X40.764 Y22.999
G1 F2400 X53.317 Y22.999 E2335.64177
G0 F18000 X53.317 Y21.499
G1 F2400 X-53.32 Y21.5 E2341.18358
G0 F18000 X-53.319 Y21
G1 F2400 X53.318 Y20.999 E2346.72535
G0 F18000 X53.318 Y20.499
G1 F2400 X-53.319 Y20.5 E2352.26716
G0 F18000 X-53.319 Y20
G1 F2400 X53.318 Y19.999 E2357.80892
G0 F18000 X53.318 Y19.499
G1 F2400 X-53.319 Y19.5 E2363.35074
G0 F18000 X-53.319 Y19
G1 F2400 X53.318 Y18.999 E2368.8925
G0 F18000 X53.318 Y18.499
G1 F2400 X-53.319 Y18.5 E2374.43431
G0 F18000 X-53.319 Y18
G1 F2400 X53.318 Y17.999 E2379.97607
G0 F18000 X53.318 Y17.499
G1 F2400 X-53.319 Y17.5 E2385.51789
G0 F18000 X-53.319 Y17
G1 F2400 X53.318 Y16.999 E2391.05965
G0 F18000 X53.318 Y16.499
G1 F2400 X-53.319 Y16.5 E2396.60147
G0 F18000 X-53.319 Y16
G1 F2400 X53.318 Y15.999 E2402.14323
G0 F18000 X53.318 Y15.499
G1 F2400 X-53.319 Y15.5 E2407.68504
G0 F18000 X-53.319 Y15
G1 F2400 X53.318 Y14.999 E2413.2268
G0 F18000 X53.318 Y14.499
G1 F2400 X-53.319 Y14.5 E2418.76862
G0 F18000 X-53.319 Y14
G1 F2400 X53.318 Y13.999 E2424.31038
G0 F18000 X53.318 Y13.499
G1 F2400 X-53.319 Y13.5 E2429.85219
G0 F18000 X-53.319 Y13
G1 F2400 X53.318 Y12.999 E2435.39396
G0 F18000 X53.318 Y12.499
G1 F2400 X-53.319 Y12.5 E2440.93577
G0 F18000 X-53.319 Y12
G1 F2400 X53.318 Y11.999 E2446.47753
G0 F18000 X53.318 Y11.499
G1 F2400 X-53.319 Y11.5 E2452.01935
G0 F18000 X-53.319 Y11
G1 F2400 X53.318 Y10.999 E2457.56111
G0 F18000 X53.318 Y10.499
G1 F2400 X16.086 Y10.499 E2459.49602
G0 F18000 X16 Y10.67
G1 F2400 X16 Y7.081 E2459.68253
G0 F18000 X15.5 Y6.969
G1 F2400 X15.5 Y10.772 E2459.88017
G0 F18000 X15 Y10.76
G1 F2400 X15 Y6.996 E2460.07578
G0 F18000 X14.5 Y7.151
G1 F2400 X14.5 Y10.593 E2460.25466
G0 F18000 X14.586 Y10.5
G1 F2400 X-53.319 Y10.5 E2463.78361
G0 F18000 X-53.319 Y10
G1 F2400 X13.943 Y10 E2467.2791
G0 F18000 X14 Y10.246
G1 F2400 X14 Y7.505 E2467.42154
G0 F18000 X14.193 Y7.499
G1 F2400 X-53.319 Y7.5 E2470.93007
G0 F18000 X-53.319 Y8
G1 F2400 X13.776 Y7.999 E2474.41688
G0 F18000 X13.5 Y8.337
G1 F2400 X13.5 Y9.421 E2474.47321
G0 F18000 X13.655 Y9.5
G1 F2400 X-53.319 Y9.5 E2477.95378
G0 F18000 X-53.319 Y9
G1 F2400 X13.545 Y9 E2481.42858
G0 F18000 X13.584 Y8.5
G1 F2400 X-53.319 Y8.5 E2484.90546
G0 F18000 X-53.318 Y7
G1 F2400 X53.319 Y6.999 E2490.44722
G0 F18000 X53.319 Y6.499
G1 F2400 X-53.318 Y6.5 E2495.98904
G0 F18000 X-53.318 Y6
G1 F2400 X53.319 Y5.999 E2501.5308
G0 F18000 X53.319 Y5.499
G1 F2400 X-53.318 Y5.5 E2507.07261
G0 F18000 X-53.318 Y5
G1 F2400 X53.319 Y4.999 E2512.61438
G0 F18000 X53.319 Y4.499
G1 F2400 X-53.318 Y4.5 E2518.15619
G0 F18000 X-53.318 Y4
G1 F2400 X53.319 Y3.999 E2523.69795
G0 F18000 X53.319 Y3.499
G1 F2400 X-53.318 Y3.5 E2529.23977
G0 F18000 X-53.318 Y3
G1 F2400 X53.319 Y2.999 E2534.78153
G0 F18000 X53.319 Y2.499
G1 F2400 X-53.318 Y2.5 E2540.32334
G0 F18000 X-53.318 Y2
G1 F2400 X53.319 Y1.999 E2545.8651
G0 F18000 X53.319 Y1.499
G1 F2400 X-53.318 Y1.5 E2551.40692
G0 F18000 X-53.318 Y1
G1 F2400 X53.319 Y0.999 E2556.94868
G0 F18000 X53.319 Y0.499
G1 F2400 X-53.318 Y0.5 E2562.49049
G0 F18000 X-53.318 Y0
G1 F2400 X53.319 Y0 E2568.03226
G0 F18000 X53.319 Y-0.5
G1 F2400 X-53.318 Y-0.499 E2573.57407
G0 F18000 X-53.318 Y-0.999
G1 F2400 X53.319 Y-1 E2579.11583
G0 F18000 X53.319 Y-1.5
G1 F2400 X-53.318 Y-1.499 E2584.65765
G0 F18000 X-53.318 Y-1.999
G1 F2400 X53.319 Y-2 E2590.19941
G0 F18000 X53.319 Y-2.5
G1 F2400 X-53.318 Y-2.499 E2595.74122
G0 F18000 X-53.318 Y-2.999
G1 F2400 X53.319 Y-3 E2601.28299
G0 F18000 X53.319 Y-3.5
G1 F2400 X-53.318 Y-3.499 E2606.8248
G0 F18000 X-53.318 Y-3.999
G1 F2400 X53.319 Y-4 E2612.36656
G0 F18000 X53.319 Y-4.5
G1 F2400 X-53.318 Y-4.499 E2617.90838
G0 F18000 X-53.318 Y-4.999
G1 F2400 X53.319 Y-5 E2623.45014
G0 F18000 X53.319 Y-5.5
G1 F2400 X-53.318 Y-5.499 E2628.99195
G0 F18000 X-53.318 Y-5.999
G1 F2400 X53.319 Y-6 E2634.53371
G0 F18000 X53.319 Y-6.5
G1 F2400 X-53.318 Y-6.499 E2640.07553
G0 F18000 X-53.318 Y-6.999
G1 F2400 X53.319 Y-7 E2645.61729
G0 F18000 X53.32 Y-7.5
G1 F2400 X-53.317 Y-7.499 E2651.1591
G0 F18000 X-53.317 Y-7.999
G1 F2400 X53.32 Y-8 E2656.70087
G0 F18000 X53.32 Y-8.5
G1 F2400 X-53.317 Y-8.499 E2662.24268
G0 F18000 X-53.317 Y-8.999
G1 F2400 X53.32 Y-9 E2667.78444
G0 F18000 X53.32 Y-9.5
G1 F2400 X-53.317 Y-9.499 E2673.32626
G0 F18000 X-53.317 Y-9.999
G1 F2400 X53.32 Y-10 E2678.86802
G0 F18000 X53.32 Y-10.5
G1 F2400 X-53.317 Y-10.499 E2684.40983
G0 F18000 X-53.317 Y-10.999
G1 F2400 X53.32 Y-11 E2689.95159
G0 F18000 X53.32 Y-11.5
G1 F2400 X-53.317 Y-11.499 E2695.49341
G0 F18000 X-53.317 Y-11.999
G1 F2400 X53.32 Y-12 E2701.03517
G0 F18000 X53.32 Y-12.5
G1 F2400 X-53.317 Y-12.499 E2706.57699
G0 F18000 X-53.317 Y-12.999
G1 F2400 X53.32 Y-13 E2712.11875
G0 F18000 X53.32 Y-13.5
G1 F2400 X-53.317 Y-13.499 E2717.66056
G0 F18000 X-53.317 Y-13.999
G1 F2400 X53.32 Y-14 E2723.20232
G0 F18000 X53.32 Y-14.5
G1 F2400 X-53.317 Y-14.499 E2728.74414
G0 F18000 X-53.317 Y-14.999
G1 F2400 X53.32 Y-15 E2734.2859
G0 F18000 X53.32 Y-15.5
G1 F2400 X-53.317 Y-15.499 E2739.82771
G0 F18000 X-53.317 Y-15.999
G1 F2400 X53.32 Y-16 E2745.36948
G0 F18000 X53.32 Y-16.5
G1 F2400 X-53.317 Y-16.499 E2750.91129
G0 F18000 X-53.317 Y-16.999
G1 F2400 X53.32 Y-17 E2756.45305
G0 F18000 X53.32 Y-17.5
G1 F2400 X16.26 Y-17.5 E2758.37902
G0 F18000 X16.499 Y-17.518
G1 F2400 X16.499 Y-20.542 E2758.53623
G0 F18000 X16.357 Y-20.5
G1 F2400 X53.32 Y-20.5 E2760.45716
G0 F18000 X53.32 Y-21
G1 F2400 X-53.317 Y-20.999 E2765.99897
G0 F18000 X-53.317 Y-20.499
G1 F2400 X14.305 Y-20.5 E2769.51316
G0 F18000 X14.499 Y-20.756
G1 F2400 X14.499 Y-17.315 E2769.69194
G0 F18000 X14.398 Y-17.5
G1 F2400 X-53.317 Y-17.499 E2773.21102
G0 F18000 X-53.317 Y-17.999
G1 F2400 X13.872 Y-18 E2776.70271
G0 F18000 X13.999 Y-17.662
G1 F2400 X13.999 Y-20.4 E2776.84505
G0 F18000 X13.83 Y-20
G1 F2400 X-53.317 Y-19.999 E2780.33461
G0 F18000 X-53.317 Y-19.499
G1 F2400 X13.602 Y-19.5 E2783.81227
G0 F18000 X13.499 Y-19.582
G1 F2400 X13.499 Y-18.506 E2783.86813
G0 F18000 X13.626 Y-18.5
G1 F2400 X-53.317 Y-18.499 E2787.34709
G0 F18000 X-53.317 Y-18.999
G1 F2400 X13.539 Y-19 E2790.82148
G0 F18000 X14.999 Y-17.148
G1 F2400 X14.999 Y-20.91 E2791.01704
G0 F18000 X15.499 Y-20.937
G1 F2400 X15.499 Y-17.123 E2791.21519
G0 F18000 X15.999 Y-17.242
G1 F2400 X15.999 Y-20.825 E2791.40145
G0 F18000 X16.841 Y-20
G1 F2400 X53.32 Y-20 E2793.29723
G0 F18000 X53.32 Y-19.5
G1 F2400 X17.062 Y-19.5 E2795.18152
G0 F18000 X16.999 Y-19.979
G1 F2400 X16.999 Y-18.097 E2795.27927
G0 F18000 X16.802 Y-18
G1 F2400 X53.32 Y-18 E2797.17707
G0 F18000 X53.32 Y-18.5
G1 F2400 X17.046 Y-18.5 E2799.0622
G0 F18000 X17.123 Y-19
G1 F2400 X53.32 Y-19 E2800.94332
G0 F18000 X53.321 Y-21.5
G1 F2400 X-53.316 Y-21.499 E2806.48513
G0 F18000 X-53.316 Y-21.999
G1 F2400 X53.321 Y-22 E2812.02689
G0 F18000 X53.321 Y-22.5
G1 F2400 X46.472 Y-22.5 E2812.38283
G0 F18000 X46.5 Y-22.378
G1 F2400 X46.5 Y-25.834 E2812.56248
G0 F18000 X46.813 Y-25.5
G1 F2400 X53.321 Y-25.5 E2812.9007
G0 F18000 X53.321 Y-26
G1 F2400 X-53.316 Y-25.999 E2818.44251
G0 F18000 X-53.316 Y-25.499
G1 F2400 X-38.577 Y-25.499 E2819.20843
G0 F18000 X-38.5 Y-25.704
G1 F2400 X-38.5 Y-22.519 E2819.3739
G0 F18000 X-38.23 Y-22.499
G1 F2400 X-53.316 Y-22.499 E2820.15796
G0 F18000 X-53.316 Y-22.999
G1 F2400 X-38.847 Y-22.999 E2820.90984
G0 F18000 X-39 Y-23
G1 F2400 X-39 Y-25.216 E2821.02506
G0 F18000 X-38.996 Y-24.999
G1 F2400 X-53.316 Y-24.999 E2821.76931
G0 F18000 X-53.316 Y-24.499
G1 F2400 X-39.196 Y-24.499 E2822.50306
G0 F18000 X-39.237 Y-23.999
G1 F2400 X-53.316 Y-23.999 E2823.23478
G0 F18000 X-53.316 Y-23.499
G1 F2400 X-39.127 Y-23.499 E2823.97211
G0 F18000 X-38 Y-22.276
G1 F2400 X-38 Y-25.936 E2824.16237
G0 F18000 X-37.5 Y-26.019
G1 F2400 X-37.5 Y-22.201 E2824.36074
G0 F18000 X-37 Y-22.247
G1 F2400 X-37 Y-25.967 E2824.55411
G0 F18000 X-36.5 Y-25.769
G1 F2400 X-36.5 Y-22.448 E2824.72665
G0 F18000 X-36.664 Y-22.499
G1 F2400 X44.893 Y-22.5 E2828.96503
G0 F18000 X45 Y-22.327
G1 F2400 X45 Y-25.898 E2829.15066
G0 F18000 X45.5 Y-26.008
G1 F2400 X45.5 Y-22.203 E2829.34835
G0 F18000 X46 Y-22.227
G1 F2400 X46 Y-25.997 E2829.54433
G0 F18000 X47 Y-25.491
G1 F2400 X47 Y-22.721 E2829.68823
G0 F18000 X47.088 Y-23
G1 F2400 X53.321 Y-23 E2830.01215
G0 F18000 X53.321 Y-23.5
G1 F2400 X47.365 Y-23.5 E2830.32168
G0 F18000 X47.5 Y-23.518
G1 F2400 X47.5 Y-24.693 E2830.3828
G0 F18000 X47.434 Y-24.5
G1 F2400 X53.321 Y-24.5 E2830.68874
G0 F18000 X53.321 Y-25
G1 F2400 X47.242 Y-25 E2831.00466
G0 F18000 X47.468 Y-24
G1 F2400 X53.321 Y-24 E2831.30883
G0 F18000 X53.321 Y-26.5
G1 F2400 X-53.316 Y-26.499 E2836.85065
G0 F18000 X-53.316 Y-26.999
G1 F2400 X53.321 Y-27 E2842.39241
G0 F18000 X53.321 Y-27.5
G1 F2400 X-53.316 Y-27.499 E2847.93422
G0 F18000 X-53.316 Y-27.999
G1 F2400 X53.321 Y-28 E2853.47598
G0 F18000 X53.321 Y-28.5
G1 F2400 X-53.316 Y-28.499 E2859.0178
G0 F18000 X-53.186 Y-28.999
G1 F2400 X53.187 Y-29 E2864.54584
G0 F18000 X44.553 Y-25.5
G1 F2400 X-36.317 Y-25.499 E2868.74857
G0 F18000 X-36 Y-25.359
G1 F2400 X-36 Y-22.861 E2868.87834
G0 F18000 X-36.037 Y-22.999
G1 F2400 X44.279 Y-23 E2873.05222
G0 F18000 X44 Y-23.206
G1 F2400 X44 Y-25.009 E2873.14598
G0 F18000 X44.131 Y-25
G1 F2400 X-35.89 Y-24.999 E2877.30458
G0 F18000 X-35.693 Y-24.499
G1 F2400 X43.93 Y-24.5 E2881.44246
G0 F18000 X43.893 Y-24
G1 F2400 X-35.659 Y-23.999 E2885.57669
G0 F18000 X-35.76 Y-23.499
G1 F2400 X44.001 Y-23.5 E2889.72174
G0 F18000 X44.5 Y-22.61
G1 F2400 X44.5 Y-25.616 E2889.87801
G0 F18000 X53.318 Y7.499
G0 X53.318 Y7.499
G1 F2400 X16.48 Y7.499 E2891.79244
G0 F18000 X16.5 Y7.364
G1 F2400 X16.5 Y10.391 E2891.94975
G0 F18000 X16.73 Y9.999
G1 F2400 X53.318 Y9.999 E2893.85119
G0 F18000 X53.318 Y9.499
G1 F2400 X17.011 Y9.499 E2895.73803
G0 F18000 X17 Y9.807
G1 F2400 X17 Y7.936 E2895.83526
G0 F18000 X16.898 Y7.999
G1 F2400 X53.318 Y7.999 E2897.72797
G0 F18000 X53.318 Y8.499
G1 F2400 X17.09 Y8.499 E2899.6107
G0 F18000 X17.121 Y8.999
G1 F2400 X53.318 Y8.999 E2901.49182
; LAYER:4
G1 F6600 E2894.69182
G1 Z1.35
G0 F18000 X17.186 Y8.736 Z1.3
; TYPE:WALL-INNER
G1 Z1.3
G1 F6600 E2901.59182
G1 F408 X17.18 Y9.075 E2901.60944
G1 X17.14 Y9.31 E2901.62183
G1 X17.031 Y9.627 E2901.63925
G1 X16.879 Y9.905 E2901.65572
G1 X16.725 Y10.105 E2901.66884
G1 X16.506 Y10.315 E2901.6846
G1 X16.25 Y10.489 E2901.70069
G1 X15.988 Y10.613 E2901.71575
G1 X15.671 Y10.701 E2901.73285
G1 X15.24 Y10.731 E2901.7553
G1 X14.969 Y10.696 E2901.7695
G1 X14.732 Y10.632 E2901.78226
G1 X14.43 Y10.496 E2901.79948
G1 X14.162 Y10.315 E2901.81628
G1 X13.981 Y10.146 E2901.82915
G1 X13.785 Y9.896 E2901.84566
G1 X13.625 Y9.599 E2901.86319
G1 X13.541 Y9.354 E2901.87665
G1 X13.485 Y9.015 E2901.89451
G1 X13.485 Y8.732 E2901.90922
G1 X13.538 Y8.413 E2901.92602
G1 X13.645 Y8.111 E2901.94267
G1 X13.803 Y7.83 E2901.95942
G1 X14.007 Y7.58 E2901.97619
G1 X14.253 Y7.369 E2901.99304
G1 X14.526 Y7.206 E2902.00956
G1 X14.827 Y7.092 E2902.02629
G1 X15.141 Y7.031 E2902.04291
G1 X15.462 Y7.025 E2902.0596
G1 X15.79 Y7.078 E2902.07686
G1 X16.03 Y7.155 E2902.08996
G1 X16.314 Y7.3 E2902.10653
G1 X16.578 Y7.499 E2902.12371
G1 X16.794 Y7.731 E2902.14019
G1 X16.977 Y8.012 E2902.15761
G1 X17.079 Y8.238 E2902.1705
G1 X17.15 Y8.49 E2902.18411
G1 X17.186 Y8.736 E2902.19703
G0 F18000 X17.687 Y8.704
; TYPE:WALL-OUTER
G1 F357 X17.679 Y9.124 E2902.21886
G1 X17.626 Y9.433 E2902.23515
G1 X17.491 Y9.829 E2902.25689
G1 X17.297 Y10.182 E2902.27783
G1 X17.095 Y10.445 E2902.29506
G1 X16.824 Y10.704 E2902.31454
G1 X16.497 Y10.926 E2902.33508
G1 X16.165 Y11.083 E2902.35417
G1 X15.768 Y11.193 E2902.37558
G1 X15.355 Y11.234 E2902.39714
G1 X15.203 Y11.23 E2902.40505
G1 X14.871 Y11.188 E2902.42244
G1 X14.565 Y11.105 E2902.43892
G1 X14.187 Y10.935 E2902.46045
G1 X13.847 Y10.705 E2902.48179
G1 X13.616 Y10.49 E2902.49819
G1 X13.361 Y10.164 E2902.5197
G1 X13.167 Y9.804 E2902.54095
G1 X13.055 Y9.479 E2902.55881
G1 X12.985 Y9.055 E2902.58115
G1 X12.985 Y8.691 E2902.60006
G1 X13.052 Y8.288 E2902.62129
G1 X13.189 Y7.901 E2902.64263
G1 X13.389 Y7.546 E2902.6638
G1 X13.646 Y7.231 E2902.68493
G1 X13.958 Y6.963 E2902.70631
G1 X14.308 Y6.755 E2902.72747
G1 X14.694 Y6.608 E2902.74893
G1 X15.088 Y6.532 E2902.76978
G1 X15.498 Y6.524 E2902.7911
G1 X15.908 Y6.59 E2902.81268
G1 X16.217 Y6.69 E2902.82956
G1 X16.581 Y6.875 E2902.85078
G1 X16.912 Y7.125 E2902.87233
G1 X17.191 Y7.424 E2902.89359
G1 X17.417 Y7.771 E2902.91511
G1 X17.55 Y8.067 E2902.93197
G1 X17.64 Y8.384 E2902.9491
G1 X17.687 Y8.704 E2902.9659
G0 F18000 X16.991 Y8.999
; TYPE:FILL
G1 F408 X13.675 Y9 E2903.13823
G0 F18000 X13.717 Y8.5
G1 F408 X16.955 Y8.499 E2903.30651
G0 F18000 X16.744 Y7.999
G1 F408 X13.926 Y7.999 E2903.45296
G0 F18000 X14.405 Y7.499
G1 F408 X16.264 Y7.499 E2903.54957
G0 F18000 X16.874 Y9.499
G0 X16.874 Y9.499
G1 F408 X13.791 Y9.5 E2903.70979
G0 F18000 X14.108 Y10
G1 F408 X16.56 Y9.999 E2903.83722
G0 F18000 X15.683 Y10.499
G1 F408 X14.97 Y10.499 E2903.87427
G1 F6600 E2897.07427
G1 Z1.6
G0 F18000 X15.156 Y-17.185
; TYPE:WALL-INNER
G1 Z1.3
G1 F6600 E2903.97427
G1 F408 X14.909 Y-17.225 E2903.98728
G1 X14.672 Y-17.298 E2904.00018
G1 X14.379 Y-17.441 E2904.01715
G1 X14.107 Y-17.64 E2904.0347
G1 X13.941 Y-17.806 E2904.04693
G1 X13.747 Y-18.07 E2904.064
G1 X13.605 Y-18.359 E2904.08078
G1 X13.516 Y-18.667 E2904.09749
G1 X13.479 Y-18.988 E2904.11434
G1 X13.5 Y-19.312 E2904.13126
G1 X13.553 Y-19.551 E2904.14404
G1 X13.672 Y-19.854 E2904.161
G1 X13.845 Y-20.138 E2904.17833
G1 X14.001 Y-20.322 E2904.1909
G1 X14.253 Y-20.539 E2904.20822
G1 X14.526 Y-20.702 E2904.22477
G1 X14.827 Y-20.816 E2904.24152
G1 X15.141 Y-20.877 E2904.25815
G1 X15.462 Y-20.883 E2904.27484
G1 X15.79 Y-20.83 E2904.29209
G1 X16.03 Y-20.753 E2904.30518
G1 X16.314 Y-20.608 E2904.32173
G1 X16.581 Y-20.406 E2904.33909
G1 X16.753 Y-20.229 E2904.35188
G1 X16.943 Y-19.959 E2904.369
G1 X17.054 Y-19.731 E2904.38213
G1 X17.151 Y-19.413 E2904.39936
G1 X17.186 Y-19.172 E2904.41196
G1 X17.18 Y-18.811 E2904.43067
G1 X17.122 Y-18.531 E2904.44548
G1 X17.006 Y-18.225 E2904.46244
G1 X16.842 Y-17.949 E2904.47908
G1 X16.636 Y-17.709 E2904.49548
G1 X16.382 Y-17.5 E2904.51254
G1 X16.105 Y-17.344 E2904.52904
G1 X15.802 Y-17.236 E2904.54574
G1 X15.482 Y-17.182 E2904.56259
G1 X15.156 Y-17.185 E2904.57954
G0 F18000 X15.116 Y-16.685
; TYPE:WALL-OUTER
G1 F357 X14.795 Y-16.737 E2904.59644
G1 X14.487 Y-16.833 E2904.61322
G1 X14.117 Y-17.013 E2904.63463
G1 X13.786 Y-17.255 E2904.65597
G1 X13.56 Y-17.481 E2904.67262
G1 X13.315 Y-17.815 E2904.69419
G1 X13.139 Y-18.174 E2904.71501
G1 X13.023 Y-18.572 E2904.7366
G1 X12.977 Y-18.975 E2904.75774
G1 X13.004 Y-19.381 E2904.77893
G1 X13.073 Y-19.696 E2904.79574
G1 X13.223 Y-20.078 E2904.81712
G1 X13.439 Y-20.433 E2904.83876
G1 X13.643 Y-20.674 E2904.85521
G1 X13.958 Y-20.945 E2904.87684
G1 X14.308 Y-21.153 E2904.89802
G1 X14.694 Y-21.3 E2904.91951
G1 X15.088 Y-21.376 E2904.94037
G1 X15.498 Y-21.384 E2904.96168
G1 X15.908 Y-21.318 E2904.98325
G1 X16.217 Y-21.218 E2905.00012
G1 X16.581 Y-21.033 E2905.02131
G1 X16.915 Y-20.781 E2905.04303
G1 X17.14 Y-20.547 E2905.05986
G1 X17.374 Y-20.215 E2905.08093
G1 X17.52 Y-19.917 E2905.09812
G1 X17.641 Y-19.52 E2905.11964
G1 X17.687 Y-19.204 E2905.13619
G1 X17.673 Y-18.725 E2905.16104
G1 X17.603 Y-18.392 E2905.17867
G1 X17.456 Y-18.005 E2905.20014
G1 X17.252 Y-17.66 E2905.22092
G1 X16.983 Y-17.346 E2905.24237
G1 X16.668 Y-17.088 E2905.2635
G1 X16.313 Y-16.887 E2905.28467
G1 X15.927 Y-16.75 E2905.30594
G1 X15.522 Y-16.682 E2905.32727
G1 X15.116 Y-16.685 E2905.34838
G0 F18000 X14.691 Y-17.5
; TYPE:FILL
G1 F408 X15.979 Y-17.5 E2905.41531
G0 F18000 X16.635 Y-18
G1 F408 X14.033 Y-18 E2905.55053
G0 F18000 X13.761 Y-18.5
G1 F408 X16.907 Y-18.5 E2905.71403
G0 F18000 X16.993 Y-19
G1 F408 X13.669 Y-19 E2905.88677
G0 F18000 X13.736 Y-19.5
G1 F408 X16.926 Y-19.5 E2906.05255
G0 F18000 X16.682 Y-20
G1 F408 X13.982 Y-20 E2906.19287
G0 F18000 X14.559 Y-20.5
G1 F408 X16.106 Y-20.5 E2906.27327
G1 F6600 E2899.47327
G1 Z1.6
G0 F18000 X43.835 Y-23.943
; TYPE:WALL-INNER
G1 Z1.3
G1 F6600 E2906.37327
G1 F408 X43.828 Y-24.186 E2906.38595
G1 X43.872 Y-24.515 E2906.40325
G1 X43.967 Y-24.816 E2906.41971
G1 X44.117 Y-25.105 E2906.43667
G1 X44.312 Y-25.361 E2906.45344
G1 X44.545 Y-25.576 E2906.46995
G1 X44.824 Y-25.755 E2906.48721
G1 X45.045 Y-25.853 E2906.49979
G1 X45.365 Y-25.938 E2906.51701
G1 X45.684 Y-25.965 E2906.53365
G1 X46.005 Y-25.938 E2906.55039
G1 X46.315 Y-25.855 E2906.56705
G1 X46.611 Y-25.717 E2906.58401
G1 X46.878 Y-25.529 E2906.60095
G1 X47.102 Y-25.305 E2906.61737
G1 X47.291 Y-25.037 E2906.63437
G1 X47.402 Y-24.809 E2906.6475
G1 X47.497 Y-24.498 E2906.66435
G1 X47.537 Y-24.178 E2906.68106
G1 X47.52 Y-23.851 E2906.69803
G1 X47.47 Y-23.609 E2906.71082
G1 X47.354 Y-23.305 E2906.72768
G1 X47.189 Y-23.026 E2906.74448
G1 X46.983 Y-22.786 E2906.76088
G1 X46.73 Y-22.578 E2906.77787
G1 X46.453 Y-22.422 E2906.79436
G1 X46.151 Y-22.314 E2906.81101
G1 X45.831 Y-22.26 E2906.82787
G1 X45.511 Y-22.263 E2906.8445
G1 X45.199 Y-22.319 E2906.86098
G1 X44.89 Y-22.433 E2906.87812
G1 X44.618 Y-22.59 E2906.89446
G1 X44.371 Y-22.798 E2906.91128
G1 X44.167 Y-23.04 E2906.92777
G1 X44.004 Y-23.32 E2906.94465
G1 X43.893 Y-23.622 E2906.96142
G1 X43.835 Y-23.943 E2906.97842
G0 F18000 X43.336 Y-23.892
; TYPE:WALL-OUTER
G1 F357 X43.327 Y-24.213 E2906.99516
G1 X43.382 Y-24.624 E2907.01676
G1 X43.503 Y-25.007 E2907.03769
G1 X43.692 Y-25.372 E2907.0591
G1 X43.938 Y-25.696 E2907.08028
G1 X44.241 Y-25.975 E2907.10172
G1 X44.582 Y-26.194 E2907.12281
G1 X44.88 Y-26.326 E2907.13977
G1 X45.278 Y-26.432 E2907.16119
G1 X45.684 Y-26.467 E2907.18237
G1 X46.094 Y-26.432 E2907.20375
G1 X46.484 Y-26.327 E2907.22472
G1 X46.861 Y-26.151 E2907.24632
G1 X47.198 Y-25.915 E2907.26768
G1 X47.489 Y-25.624 E2907.28903
G1 X47.722 Y-25.293 E2907.31002
G1 X47.868 Y-24.995 E2907.32722
G1 X47.988 Y-24.603 E2907.34847
G1 X48.039 Y-24.197 E2907.36969
G1 X48.017 Y-23.783 E2907.39118
G1 X47.953 Y-23.471 E2907.40768
G1 X47.805 Y-23.086 E2907.42907
G1 X47.596 Y-22.734 E2907.4503
G1 X47.334 Y-22.427 E2907.47123
G1 X47.016 Y-22.166 E2907.49258
G1 X46.661 Y-21.965 E2907.51376
G1 X46.276 Y-21.828 E2907.53498
G1 X45.871 Y-21.76 E2907.55631
G1 X45.465 Y-21.763 E2907.57741
G1 X45.068 Y-21.834 E2907.59838
G1 X44.676 Y-21.979 E2907.62012
G1 X44.329 Y-22.179 E2907.64096
G1 X44.016 Y-22.443 E2907.66227
G1 X43.756 Y-22.751 E2907.68326
G1 X43.551 Y-23.105 E2907.70456
G1 X43.409 Y-23.491 E2907.72598
G1 X43.336 Y-23.892 E2907.74722
G0 F18000 X44.023 Y-24
; TYPE:FILL
G1 F408 X47.337 Y-24 E2907.91944
G0 F18000 X47.298 Y-24.5
G1 F408 X44.067 Y-24.5 E2908.08735
G0 F18000 X44.277 Y-25
G1 F408 X47.084 Y-25 E2908.23323
G0 F18000 X46.587 Y-25.5
G1 F408 X44.779 Y-25.5 E2908.32719
G0 F18000 X44.14 Y-23.5
G0 X44.14 Y-23.5
G1 F408 X47.225 Y-23.5 E2908.48752
G0 F18000 X46.917 Y-23
G1 F408 X44.447 Y-23 E2908.61588
G0 F18000 X45.259 Y-22.5
G1 F408 X46.111 Y-22.5 E2908.66016
G1 F6600 E2901.86016
G1 Z1.6
G0 F18000 X39.678 Y22.283
; TYPE:WALL-INNER
G1 Z1.3
G1 F6600 E2908.76016
G1 F408 X39.988 Y22.366 E2908.77683
G1 X40.283 Y22.504 E2908.79376
G1 X40.553 Y22.693 E2908.81089
G1 X40.781 Y22.921 E2908.82764
G1 X40.928 Y23.123 E2908.84063
G1 X41.049 Y23.348 E2908.8539
G1 X41.155 Y23.656 E2908.87083
G1 X41.208 Y23.989 E2908.88836
G1 X41.208 Y24.232 E2908.90098
G1 X41.159 Y24.551 E2908.91776
G1 X41.052 Y24.863 E2908.9349
G1 X40.901 Y25.139 E2908.95125
G1 X40.699 Y25.392 E2908.96807
G1 X40.457 Y25.605 E2908.98483
G1 X40.184 Y25.772 E2909.00146
G1 X39.887 Y25.888 E2909.01803
G1 X39.57 Y25.954 E2909.03486
G1 X39.247 Y25.963 E2909.05165
G1 X38.935 Y25.918 E2909.06803
G1 X38.623 Y25.815 E2909.08511
G1 X38.341 Y25.664 E2909.10173
G1 X38.092 Y25.47 E2909.11813
G1 X37.876 Y25.23 E2909.13491
G1 X37.708 Y24.963 E2909.15131
G1 X37.583 Y24.656 E2909.16853
G1 X37.515 Y24.348 E2909.18493
G1 X37.503 Y24.032 E2909.20136
G1 X37.547 Y23.697 E2909.21892
G1 X37.614 Y23.469 E2909.23127
G1 X37.754 Y23.176 E2909.24814
G1 X37.941 Y22.911 E2909.265
G1 X38.171 Y22.684 E2909.28179
G1 X38.435 Y22.501 E2909.29849
G1 X38.727 Y22.366 E2909.31521
G1 X39.038 Y22.283 E2909.33193
G1 X39.357 Y22.256 E2909.34857
G1 X39.678 Y22.283 E2909.36531
G0 F18000 X39.767 Y21.789
; TYPE:WALL-OUTER
G1 F357 X40.157 Y21.894 E2909.3863
G1 X40.537 Y22.071 E2909.40809
G1 X40.87 Y22.304 E2909.42921
G1 X41.163 Y22.597 E2909.45074
G1 X41.355 Y22.86 E2909.46767
G1 X41.509 Y23.148 E2909.48464
G1 X41.642 Y23.534 E2909.50586
G1 X41.708 Y23.947 E2909.52759
G1 X41.708 Y24.27 E2909.54438
G1 X41.646 Y24.671 E2909.56546
G1 X41.511 Y25.064 E2909.58706
G1 X41.318 Y25.418 E2909.60801
G1 X41.065 Y25.735 E2909.62909
G1 X40.755 Y26.008 E2909.65056
G1 X40.407 Y26.221 E2909.67176
G1 X40.027 Y26.371 E2909.69299
G1 X39.628 Y26.453 E2909.71416
G1 X39.218 Y26.464 E2909.73548
G1 X38.821 Y26.407 E2909.75632
G1 X38.424 Y26.276 E2909.77805
G1 X38.071 Y26.087 E2909.79885
G1 X37.748 Y25.834 E2909.82018
G1 X37.475 Y25.531 E2909.84137
G1 X37.261 Y25.193 E2909.86216
G1 X37.105 Y24.808 E2909.88375
G1 X37.018 Y24.414 E2909.90472
G1 X37.002 Y24.004 E2909.92604
G1 X37.055 Y23.599 E2909.94727
G1 X37.147 Y23.288 E2909.96412
G1 X37.322 Y22.92 E2909.9853
G1 X37.558 Y22.587 E2910.00651
G1 X37.851 Y22.297 E2910.02794
G1 X38.186 Y22.065 E2910.04911
G1 X38.554 Y21.895 E2910.07018
G1 X38.952 Y21.789 E2910.09158
G1 X39.357 Y21.754 E2910.11271
G1 X39.767 Y21.789 E2910.1341
G0 F18000 X39.756 Y22.499
; TYPE:FILL
G1 F408 X38.965 Y22.499 E2910.1752
G0 F18000 X38.122 Y22.999
G1 F408 X40.591 Y22.999 E2910.30351
G0 F18000 X40.901 Y23.499
G1 F408 X37.811 Y23.499 E2910.4641
G0 F18000 X37.699 Y23.999
G1 F408 X41.017 Y23.999 E2910.63653
G0 F18000 X40.974 Y24.499
G1 F408 X37.743 Y24.499 E2910.80444
G0 F18000 X37.956 Y24.999
G1 F408 X40.76 Y24.999 E2910.95016
G0 F18000 X40.265 Y25.499
G1 F408 X38.441 Y25.499 E2911.04496
G1 F6600 E2904.24496
G1 Z1.6
G0 F18000 X-34.33 Y24.302
; TYPE:WALL-INNER
G1 Z1.3
G1 F6600 E2911.14496
G1 F408 X-34.389 Y24.615 E2911.16152
G1 X-34.506 Y24.92 E2911.17851
G1 X-34.67 Y25.196 E2911.19522
G1 X-34.829 Y25.389 E2911.20825
G1 X-35.072 Y25.603 E2911.22512
G1 X-35.347 Y25.771 E2911.24191
G1 X-35.653 Y25.892 E2911.25906
G1 X-35.889 Y25.945 E2911.27168
G1 X-36.218 Y25.965 E2911.28886
G1 X-36.54 Y25.93 E2911.30575
G1 X-36.845 Y25.841 E2911.32231
G1 X-37.137 Y25.698 E2911.33925
G1 X-37.343 Y25.553 E2911.35239
G1 X-37.578 Y25.326 E2911.3694
G1 X-37.722 Y25.136 E2911.38182
G1 X-37.88 Y24.844 E2911.3991
G1 X-37.981 Y24.536 E2911.41596
G1 X-38.027 Y24.221 E2911.43252
G1 X-38.018 Y23.891 E2911.44967
G1 X-37.974 Y23.652 E2911.46229
G1 X-37.862 Y23.338 E2911.4796
G1 X-37.745 Y23.12 E2911.49243
G1 X-37.547 Y22.861 E2911.50934
G1 X-37.313 Y22.645 E2911.52585
G1 X-37.042 Y22.471 E2911.54255
G1 X-36.735 Y22.341 E2911.55983
G1 X-36.503 Y22.284 E2911.57219
G1 X-36.174 Y22.256 E2911.5893
G1 X-35.853 Y22.283 E2911.60599
G1 X-35.543 Y22.366 E2911.62261
G1 X-35.247 Y22.504 E2911.63954
G1 X-34.98 Y22.692 E2911.65647
G1 X-34.757 Y22.914 E2911.67278
G1 X-34.567 Y23.185 E2911.68995
G1 X-34.456 Y23.412 E2911.70306
G1 X-34.359 Y23.73 E2911.72033
G1 X-34.324 Y23.971 E2911.73297
G1 X-34.33 Y24.302 E2911.75018
G0 F18000 X-33.831 Y24.351
; TYPE:WALL-OUTER
G1 F357 X-33.907 Y24.754 E2911.7715
G1 X-34.054 Y25.137 E2911.79284
G1 X-34.26 Y25.485 E2911.81388
G1 X-34.47 Y25.739 E2911.83104
G1 X-34.775 Y26.008 E2911.85222
G1 X-35.12 Y26.219 E2911.87328
G1 X-35.508 Y26.372 E2911.895
G1 X-35.818 Y26.441 E2911.91156
G1 X-36.229 Y26.467 E2911.93301
G1 X-36.638 Y26.422 E2911.95445
G1 X-37.029 Y26.308 E2911.97566
G1 X-37.392 Y26.13 E2911.99672
G1 X-37.656 Y25.945 E2912.01352
G1 X-37.956 Y25.656 E2912.0352
G1 X-38.148 Y25.402 E2912.05178
G1 X-38.34 Y25.045 E2912.07287
G1 X-38.47 Y24.649 E2912.09455
G1 X-38.528 Y24.251 E2912.11546
G1 X-38.517 Y23.839 E2912.13687
G1 X-38.459 Y23.525 E2912.15346
G1 X-38.318 Y23.13 E2912.17524
G1 X-38.171 Y22.855 E2912.19142
G1 X-37.917 Y22.523 E2912.21311
G1 X-37.617 Y22.246 E2912.23429
G1 X-37.274 Y22.026 E2912.25543
G1 X-36.9 Y21.867 E2912.2765
G1 X-36.582 Y21.789 E2912.29346
G1 X-36.174 Y21.754 E2912.31469
G1 X-35.764 Y21.789 E2912.33603
G1 X-35.374 Y21.894 E2912.35697
G1 X-34.997 Y22.07 E2912.37854
G1 X-34.656 Y22.309 E2912.40014
G1 X-34.374 Y22.59 E2912.42079
G1 X-34.134 Y22.932 E2912.44247
G1 X-33.99 Y23.226 E2912.45946
G1 X-33.869 Y23.623 E2912.48102
G1 X-33.823 Y23.939 E2912.49761
G1 X-33.831 Y24.351 E2912.51902
G0 F18000 X-34.561 Y24.5
; TYPE:FILL
G1 F408 X-37.793 Y24.5 E2912.68704
G0 F18000 X-37.831 Y24
G1 F408 X-34.514 Y24 E2912.85937
G0 F18000 X-34.627 Y23.5
G1 F408 X-37.718 Y23.5 E2913.02006
G0 F18000 X-37.415 Y23
G1 F408 X-34.938 Y23 E2913.14873
G0 F18000 X-35.772 Y22.5
G1 F408 X-36.589 Y22.5 E2913.19124
G0 F18000 X-37.579 Y25
G0 X-37.579 Y25
G1 F408 X-34.776 Y25 E2913.33686
G0 F18000 X-35.269 Y25.5
G1 F408 X-37.087 Y25.5 E2913.43139
G1 F6600 E2906.63139
G1 Z1.6
G0 F18000 X-37.358 Y-22.256
; TYPE:WALL-INNER
G1 Z1.3
G1 F6600 E2913.53139
G1 F408 X-37.679 Y-22.269 E2913.54814
G1 X-37.993 Y-22.337 E2913.5649
G1 X-38.288 Y-22.458 E2913.58154
G1 X-38.565 Y-22.631 E2913.59858
G1 X-38.799 Y-22.842 E2913.61503
G1 X-38.997 Y-23.094 E2913.63176
G1 X-39.15 Y-23.377 E2913.64855
G1 X-39.251 Y-23.685 E2913.66546
G1 X-39.297 Y-23.999 E2913.68201
G1 X-39.288 Y-24.332 E2913.69937
G1 X-39.243 Y-24.571 E2913.71205
G1 X-39.162 Y-24.812 E2913.7253
G1 X-39.01 Y-25.105 E2913.74247
G1 X-38.815 Y-25.361 E2913.75921
G1 X-38.576 Y-25.582 E2913.77612
G1 X-38.372 Y-25.718 E2913.78885
G1 X-38.077 Y-25.854 E2913.8057
G1 X-37.762 Y-25.938 E2913.82261
G1 X-37.444 Y-25.965 E2913.83915
G1 X-37.096 Y-25.935 E2913.85724
G1 X-36.748 Y-25.829 E2913.87609
G1 X-36.463 Y-25.684 E2913.89263
G1 X-36.203 Y-25.489 E2913.90945
G1 X-35.983 Y-25.254 E2913.92611
G1 X-35.804 Y-24.977 E2913.94317
G1 X-35.703 Y-24.751 E2913.95597
G1 X-35.63 Y-24.499 E2913.96954
G1 X-35.59 Y-24.178 E2913.98629
G1 X-35.607 Y-23.854 E2914.00311
G1 X-35.677 Y-23.544 E2914.01958
G1 X-35.802 Y-23.248 E2914.03625
G1 X-35.975 Y-22.978 E2914.0529
G1 X-36.197 Y-22.736 E2914.06997
G1 X-36.448 Y-22.544 E2914.0864
G1 X-36.736 Y-22.395 E2914.10327
G1 X-37.042 Y-22.298 E2914.11999
G1 X-37.358 Y-22.256 E2914.1366
G0 F18000 X-37.335 Y-21.755
; TYPE:WALL-OUTER
G1 F357 X-37.746 Y-21.772 E2914.15803
G1 X-38.141 Y-21.857 E2914.17909
G1 X-38.517 Y-22.011 E2914.20027
G1 X-38.866 Y-22.229 E2914.22173
G1 X-39.166 Y-22.5 E2914.24281
G1 X-39.419 Y-22.822 E2914.26417
G1 X-39.61 Y-23.176 E2914.28514
G1 X-39.74 Y-23.572 E2914.30687
G1 X-39.798 Y-23.969 E2914.32778
G1 X-39.787 Y-24.379 E2914.34914
G1 X-39.727 Y-24.701 E2914.36621
G1 X-39.624 Y-25.008 E2914.38307
G1 X-39.435 Y-25.372 E2914.40441
G1 X-39.189 Y-25.696 E2914.42556
G1 X-38.886 Y-25.975 E2914.44696
G1 X-38.617 Y-26.155 E2914.46377
G1 X-38.246 Y-26.326 E2914.48497
G1 X-37.849 Y-26.432 E2914.50629
G1 X-37.444 Y-26.467 E2914.52737
G1 X-36.964 Y-26.419 E2914.55238
G1 X-36.562 Y-26.296 E2914.57416
G1 X-36.196 Y-26.109 E2914.59545
G1 X-35.869 Y-25.863 E2914.61665
G1 X-35.588 Y-25.562 E2914.63797
G1 X-35.363 Y-25.215 E2914.65939
G1 X-35.23 Y-24.918 E2914.67624
G1 X-35.14 Y-24.606 E2914.69305
G1 X-35.089 Y-24.197 E2914.71441
G1 X-35.11 Y-23.786 E2914.73575
G1 X-35.201 Y-23.387 E2914.75698
G1 X-35.358 Y-23.014 E2914.77798
G1 X-35.578 Y-22.671 E2914.79914
G1 X-35.854 Y-22.37 E2914.82036
G1 X-36.182 Y-22.119 E2914.84184
G1 X-36.545 Y-21.931 E2914.8631
G1 X-36.928 Y-21.81 E2914.88401
G1 X-37.335 Y-21.755 E2914.9054
G0 F18000 X-37.031 Y-22.499
; TYPE:FILL
G1 F408 X-37.853 Y-22.499 E2914.94817
G0 F18000 X-38.681 Y-22.999
G1 F408 X-36.212 Y-22.999 E2915.07643
G0 F18000 X-35.902 Y-23.499
G1 F408 X-38.989 Y-23.499 E2915.23691
G0 F18000 X-39.105 Y-23.999
G1 F408 X-35.79 Y-23.999 E2915.40913
G0 F18000 X-35.829 Y-24.499
G1 F408 X-39.063 Y-24.499 E2915.57725
G0 F18000 X-38.85 Y-24.999
G1 F408 X-36.045 Y-24.999 E2915.72297
G0 F18000 X-36.535 Y-25.499
G1 F408 X-38.356 Y-25.499 E2915.81766
; LAYER:5
G1 F6600 E2909.01766
G1 Z1.6
G0 F18000 X13.802 Y7.831 Z1.55
; TYPE:WALL-INNER
G1 Z1.55
G1 F6600 E2915.91766
G1 F408 X14.012 Y7.574 E2915.93491
G1 X14.249 Y7.371 E2915.95113
G1 X14.526 Y7.206 E2915.96788
G1 X14.827 Y7.092 E2915.98461
G1 X15.141 Y7.031 E2916.00123
G1 X15.462 Y7.025 E2916.01792
G1 X15.79 Y7.078 E2916.03518
G1 X16.03 Y7.155 E2916.04828
G1 X16.314 Y7.3 E2916.06485
G1 X16.578 Y7.499 E2916.08204
G1 X16.793 Y7.729 E2916.0984
G1 X16.975 Y8.007 E2916.11567
G1 X17.073 Y8.227 E2916.12818
G1 X17.161 Y8.549 E2916.14553
G1 X17.19 Y8.873 E2916.16243
G1 X17.163 Y9.192 E2916.17907
G1 X17.102 Y9.444 E2916.19255
G1 X17.012 Y9.67 E2916.20519
G1 X16.843 Y9.956 E2916.22245
G1 X16.629 Y10.207 E2916.23959
G1 X16.386 Y10.406 E2916.25592
G1 X16.105 Y10.564 E2916.27267
G1 X15.802 Y10.672 E2916.28939
G1 X15.475 Y10.727 E2916.30662
G1 X15.229 Y10.729 E2916.3194
G1 X14.969 Y10.696 E2916.33303
G1 X14.732 Y10.632 E2916.34578
G1 X14.43 Y10.496 E2916.363
G1 X14.165 Y10.317 E2916.37961
G1 X13.942 Y10.102 E2916.39571
G1 X13.748 Y9.838 E2916.41274
G1 X13.605 Y9.547 E2916.42959
G1 X13.531 Y9.311 E2916.44244
G1 X13.484 Y8.989 E2916.45935
G1 X13.492 Y8.661 E2916.4764
G1 X13.537 Y8.415 E2916.4894
G1 X13.643 Y8.114 E2916.50599
G1 X13.802 Y7.831 E2916.52286
G0 F18000 X13.387 Y7.547
; TYPE:WALL-OUTER
G1 F357 X13.65 Y7.227 E2916.54438
G1 X13.958 Y6.963 E2916.56546
G1 X14.308 Y6.755 E2916.58662
G1 X14.694 Y6.608 E2916.60809
G1 X15.088 Y6.532 E2916.62894
G1 X15.498 Y6.524 E2916.65025
G1 X15.908 Y6.59 E2916.67183
G1 X16.217 Y6.69 E2916.68871
G1 X16.581 Y6.875 E2916.70993
G1 X16.912 Y7.125 E2916.73149
G1 X17.189 Y7.422 E2916.75259
G1 X17.414 Y7.766 E2916.77396
G1 X17.547 Y8.061 E2916.79077
G1 X17.655 Y8.458 E2916.81215
G1 X17.692 Y8.868 E2916.83355
G1 X17.658 Y9.276 E2916.85482
G1 X17.579 Y9.597 E2916.872
G1 X17.462 Y9.894 E2916.88859
G1 X17.254 Y10.245 E2916.9098
G1 X16.979 Y10.566 E2916.93176
G1 X16.672 Y10.818 E2916.95241
G1 X16.313 Y11.021 E2916.97384
G1 X15.927 Y11.158 E2916.99512
G1 X15.519 Y11.226 E2917.01662
G1 X15.199 Y11.23 E2917.03325
G1 X14.871 Y11.188 E2917.05044
G1 X14.565 Y11.105 E2917.06691
G1 X14.187 Y10.935 E2917.08845
G1 X13.849 Y10.706 E2917.10967
G1 X13.564 Y10.432 E2917.13022
G1 X13.317 Y10.096 E2917.15189
G1 X13.141 Y9.738 E2917.17262
G1 X13.041 Y9.419 E2917.18999
G1 X12.982 Y9.021 E2917.2109
G1 X12.993 Y8.61 E2917.23227
G1 X13.05 Y8.293 E2917.24901
G1 X13.187 Y7.904 E2917.27044
G1 X13.387 Y7.547 E2917.29171
G0 F18000 X14 Y7.886
; TYPE:FILL
G1 F408 X14 Y9.861 E2917.39435
G0 F18000 X14.5 Y10.314
G1 F408 X14.5 Y7.442 E2917.5436
G0 F18000 X15 Y7.251
G1 F408 X15 Y10.507 E2917.71281
G0 F18000 X15.5 Y10.528
G1 F408 X15.5 Y7.223 E2917.88457
G0 F18000 X16 Y7.353
G1 F408 X16 Y10.399 E2918.04287
G0 F18000 X16.5 Y10.065
G1 F408 X16.5 Y7.694 E2918.16609
G1 F6600 E2911.36609
G1 Z1.85
G0 F18000 X15.358 Y-17.177
; TYPE:WALL-INNER
G1 Z1.55
G1 F6600 E2918.26609
G1 F408 X15.035 Y-17.2 E2918.28292
G1 X14.726 Y-17.278 E2918.29949
G1 X14.43 Y-17.412 E2918.3164
G1 X14.165 Y-17.591 E2918.33305
G1 X13.941 Y-17.807 E2918.34926
G1 X13.748 Y-18.071 E2918.36629
G1 X13.604 Y-18.362 E2918.38321
G1 X13.532 Y-18.595 E2918.39594
G1 X13.484 Y-18.919 E2918.41301
G1 X13.492 Y-19.247 E2918.43011
G1 X13.537 Y-19.493 E2918.44316
G1 X13.643 Y-19.794 E2918.45979
G1 X13.802 Y-20.077 E2918.47671
G1 X14.012 Y-20.334 E2918.494
G1 X14.249 Y-20.537 E2918.51025
G1 X14.526 Y-20.702 E2918.52703
G1 X14.827 Y-20.816 E2918.54377
G1 X15.141 Y-20.877 E2918.56041
G1 X15.462 Y-20.883 E2918.57709
G1 X15.79 Y-20.83 E2918.59435
G1 X16.03 Y-20.753 E2918.60744
G1 X16.314 Y-20.608 E2918.62398
G1 X16.578 Y-20.409 E2918.64113
G1 X16.794 Y-20.177 E2918.65757
G1 X16.974 Y-19.902 E2918.67461
G1 X17.073 Y-19.681 E2918.68714
G1 X17.161 Y-19.359 E2918.70444
G1 X17.191 Y-19.028 E2918.72166
G1 X17.175 Y-18.782 E2918.73442
G1 X17.124 Y-18.538 E2918.74732
G1 X17.035 Y-18.286 E2918.76116
G1 X16.915 Y-18.057 E2918.77455
G1 X16.769 Y-17.854 E2918.78751
G1 X16.539 Y-17.62 E2918.80452
G1 X16.274 Y-17.432 E2918.82138
G1 X15.987 Y-17.295 E2918.83788
G1 X15.671 Y-17.207 E2918.85492
G1 X15.358 Y-17.177 E2918.87125
G0 F18000 X15.359 Y-16.675
; TYPE:WALL-OUTER
G1 F357 X14.955 Y-16.704 E2918.8923
G1 X14.563 Y-16.804 E2918.91334
G1 X14.187 Y-16.973 E2918.93479
G1 X13.849 Y-17.202 E2918.95603
G1 X13.564 Y-17.476 E2918.97661
G1 X13.317 Y-17.812 E2918.99833
G1 X13.14 Y-18.171 E2919.01918
G1 X13.042 Y-18.487 E2919.03642
G1 X12.982 Y-18.887 E2919.05749
G1 X12.993 Y-19.298 E2919.07891
G1 X13.05 Y-19.615 E2919.0957
G1 X13.187 Y-20.004 E2919.11718
G1 X13.387 Y-20.361 E2919.13849
G1 X13.65 Y-20.681 E2919.16006
G1 X13.958 Y-20.945 E2919.18118
G1 X14.308 Y-21.153 E2919.20236
G1 X14.694 Y-21.3 E2919.22384
G1 X15.088 Y-21.376 E2919.24471
G1 X15.498 Y-21.384 E2919.26602
G1 X15.908 Y-21.318 E2919.28759
G1 X16.217 Y-21.218 E2919.30446
G1 X16.581 Y-21.033 E2919.32565
G1 X16.912 Y-20.783 E2919.34718
G1 X17.189 Y-20.485 E2919.36828
G1 X17.415 Y-20.142 E2919.38959
G1 X17.547 Y-19.847 E2919.40634
G1 X17.655 Y-19.45 E2919.42767
G1 X17.692 Y-19.034 E2919.44932
G1 X17.671 Y-18.718 E2919.46573
G1 X17.604 Y-18.395 E2919.48282
G1 X17.493 Y-18.082 E2919.50003
G1 X17.343 Y-17.795 E2919.51681
G1 X17.155 Y-17.533 E2919.53353
G1 X16.864 Y-17.238 E2919.55503
G1 X16.53 Y-17 E2919.57631
G1 X16.159 Y-16.824 E2919.59763
G1 X15.768 Y-16.715 E2919.61871
G1 X15.359 Y-16.675 E2919.64006
G0 F18000 X15.499 Y-17.381
; TYPE:FILL
G1 F408 X15.499 Y-20.683 E2919.81171
G0 F18000 X14.999 Y-20.655
G1 F408 X14.999 Y-17.403 E2919.98066
G0 F18000 X14.499 Y-17.594
G1 F408 X14.499 Y-20.465 E2920.12992
G0 F18000 X13.999 Y-20.019
G1 F408 X13.999 Y-18.049 E2920.23225
G0 F18000 X15.999 Y-17.512
G0 X15.999 Y-17.512
G1 F408 X15.999 Y-20.554 E2920.39039
G0 F18000 X16.499 Y-20.213
G1 F408 X16.499 Y-17.849 E2920.51319
G0 F18000 X16.999 Y-19.006
G1 F408 X16.999 Y-19.032 E2920.51459
G1 F6600 E2913.71459
G1 Z1.85
G0 F18000 X43.835 Y-23.939
; TYPE:WALL-INNER
G1 Z1.55
G1 F6600 E2920.61459
G1 F408 X43.829 Y-24.185 E2920.62743
G1 X43.87 Y-24.508 E2920.64441
G1 X43.968 Y-24.818 E2920.66135
G1 X44.114 Y-25.101 E2920.67795
G1 X44.313 Y-25.362 E2920.69504
G1 X44.491 Y-25.533 E2920.70791
G1 X44.762 Y-25.721 E2920.72508
G1 X45.05 Y-25.854 E2920.74159
G1 X45.365 Y-25.938 E2920.75854
G1 X45.684 Y-25.965 E2920.77518
G1 X46.005 Y-25.938 E2920.79192
G1 X46.315 Y-25.855 E2920.80858
G1 X46.611 Y-25.717 E2920.82554
G1 X46.878 Y-25.529 E2920.84248
G1 X47.097 Y-25.311 E2920.8585
G1 X47.29 Y-25.037 E2920.87587
G1 X47.399 Y-24.816 E2920.88863
G1 X47.496 Y-24.5 E2920.90576
G1 X47.538 Y-24.179 E2920.92253
G1 X47.521 Y-23.856 E2920.93929
G1 X47.47 Y-23.609 E2920.95235
G1 X47.353 Y-23.3 E2920.96947
G1 X47.234 Y-23.09 E2920.98197
G1 X47.026 Y-22.83 E2920.99923
G1 X46.838 Y-22.657 E2921.01247
G1 X46.568 Y-22.479 E2921.02925
G1 X46.271 Y-22.35 E2921.04606
G1 X45.958 Y-22.275 E2921.06277
G1 X45.641 Y-22.254 E2921.07928
G1 X45.319 Y-22.29 E2921.09612
G1 X45.078 Y-22.356 E2921.10912
G1 X44.777 Y-22.49 E2921.12627
G1 X44.513 Y-22.669 E2921.14287
G1 X44.285 Y-22.889 E2921.15938
G1 X44.134 Y-23.088 E2921.1724
G1 X43.975 Y-23.383 E2921.18986
G1 X43.896 Y-23.607 E2921.20225
G1 X43.835 Y-23.939 E2921.21985
G0 F18000 X43.336 Y-23.887
; TYPE:WALL-OUTER
G1 F357 X43.328 Y-24.21 E2921.23669
G1 X43.38 Y-24.614 E2921.25791
G1 X43.503 Y-25.008 E2921.27941
G1 X43.69 Y-25.369 E2921.30058
G1 X43.938 Y-25.695 E2921.32191
G1 X44.174 Y-25.922 E2921.33897
G1 X44.511 Y-26.156 E2921.36032
G1 X44.881 Y-26.326 E2921.3815
G1 X45.278 Y-26.432 E2921.40287
G1 X45.684 Y-26.467 E2921.42405
G1 X46.094 Y-26.432 E2921.44543
G1 X46.484 Y-26.327 E2921.46641
G1 X46.861 Y-26.151 E2921.48801
G1 X47.202 Y-25.912 E2921.50962
G1 X47.484 Y-25.631 E2921.53027
G1 X47.72 Y-25.297 E2921.55148
G1 X47.865 Y-25 E2921.56861
G1 X47.987 Y-24.606 E2921.59
G1 X48.039 Y-24.201 E2921.61116
G1 X48.018 Y-23.788 E2921.6326
G1 X47.953 Y-23.475 E2921.64917
G1 X47.805 Y-23.082 E2921.67094
G1 X47.65 Y-22.809 E2921.68721
G1 X47.391 Y-22.487 E2921.70865
G1 X47.151 Y-22.265 E2921.7256
G1 X46.803 Y-22.036 E2921.74722
G1 X46.433 Y-21.875 E2921.76817
G1 X46.032 Y-21.778 E2921.7896
G1 X45.629 Y-21.752 E2921.81058
G1 X45.223 Y-21.798 E2921.83182
G1 X44.909 Y-21.883 E2921.84874
G1 X44.537 Y-22.05 E2921.86996
G1 X44.197 Y-22.28 E2921.89132
G1 X43.908 Y-22.558 E2921.91219
G1 X43.714 Y-22.814 E2921.92893
G1 X43.518 Y-23.178 E2921.95046
G1 X43.41 Y-23.483 E2921.96732
G1 X43.336 Y-23.887 E2921.98872
G0 F18000 X44.5 Y-22.944
; TYPE:FILL
G1 F408 X44.5 Y-25.278 E2922.11007
G0 F18000 X45 Y-25.62
G1 F408 X45 Y-22.597 E2922.26712
G0 F18000 X45.5 Y-22.46
G1 F408 X45.5 Y-25.757 E2922.43851
G0 F18000 X46 Y-25.742
G1 F408 X46 Y-22.479 E2922.60803
G0 F18000 X46.5 Y-22.661
G1 F408 X46.5 Y-25.557 E2922.75859
G0 F18000 X47 Y-25.119
G1 F408 X47 Y-23.1 E2922.86346
G1 F6600 E2916.06346
G1 Z1.85
G0 F18000 X39.678 Y22.283
; TYPE:WALL-INNER
G1 Z1.55
G1 F6600 E2922.96346
G1 F408 X39.988 Y22.366 E2922.98014
G1 X40.283 Y22.504 E2922.99706
G1 X40.554 Y22.693 E2923.01423
G1 X40.776 Y22.915 E2923.03055
G1 X40.924 Y23.118 E2923.0436
G1 X41.074 Y23.41 E2923.06067
G1 X41.17 Y23.722 E2923.07763
G1 X41.211 Y24.04 E2923.09429
G1 X41.194 Y24.36 E2923.11095
G1 X41.12 Y24.69 E2923.12852
G1 X41.063 Y24.842 E2923.13696
G1 X40.902 Y25.138 E2923.15447
G1 X40.697 Y25.394 E2923.17151
G1 X40.515 Y25.56 E2923.18431
G1 X40.241 Y25.742 E2923.20141
G1 X39.94 Y25.873 E2923.21847
G1 X39.7 Y25.935 E2923.23135
G1 X39.381 Y25.966 E2923.24801
G1 X39.058 Y25.942 E2923.26484
G1 X38.747 Y25.863 E2923.28152
G1 X38.45 Y25.73 E2923.29843
G1 X38.189 Y25.554 E2923.31479
G1 X37.959 Y25.332 E2923.3314
G1 X37.767 Y25.069 E2923.34832
G1 X37.654 Y24.852 E2923.36104
G1 X37.552 Y24.541 E2923.37805
G1 X37.505 Y24.224 E2923.3947
G1 X37.512 Y23.901 E2923.41149
G1 X37.577 Y23.584 E2923.42831
G1 X37.666 Y23.344 E2923.44161
G1 X37.784 Y23.125 E2923.45454
G1 X37.986 Y22.86 E2923.47185
G1 X38.163 Y22.689 E2923.48464
G1 X38.435 Y22.501 E2923.50183
G1 X38.727 Y22.366 E2923.51855
G1 X39.038 Y22.283 E2923.53527
G1 X39.357 Y22.256 E2923.55191
G1 X39.678 Y22.283 E2923.56865
G0 F18000 X39.767 Y21.789
; TYPE:WALL-OUTER
G1 F357 X40.157 Y21.894 E2923.58964
G1 X40.537 Y22.071 E2923.61143
G1 X40.874 Y22.306 E2923.63278
G1 X41.158 Y22.59 E2923.65365
G1 X41.352 Y22.856 E2923.67076
G1 X41.538 Y23.218 E2923.69191
G1 X41.661 Y23.615 E2923.71351
G1 X41.712 Y24.019 E2923.73467
G1 X41.691 Y24.43 E2923.75606
G1 X41.601 Y24.83 E2923.77737
G1 X41.516 Y25.054 E2923.78982
G1 X41.319 Y25.417 E2923.81128
G1 X41.065 Y25.734 E2923.83239
G1 X40.825 Y25.955 E2923.84935
G1 X40.476 Y26.185 E2923.87107
G1 X40.104 Y26.347 E2923.89216
G1 X39.793 Y26.428 E2923.90886
G1 X39.381 Y26.468 E2923.93037
G1 X38.977 Y26.438 E2923.95142
G1 X38.581 Y26.337 E2923.97266
G1 X38.209 Y26.171 E2923.99383
G1 X37.873 Y25.944 E2924.0149
G1 X37.584 Y25.664 E2924.03582
G1 X37.339 Y25.33 E2924.05734
G1 X37.192 Y25.045 E2924.07401
G1 X37.063 Y24.657 E2924.09526
G1 X37.003 Y24.255 E2924.11638
G1 X37.013 Y23.846 E2924.13764
G1 X37.096 Y23.441 E2924.15913
G1 X37.208 Y23.14 E2924.17582
G1 X37.359 Y22.858 E2924.19244
G1 X37.614 Y22.523 E2924.21432
G1 X37.846 Y22.3 E2924.23104
G1 X38.186 Y22.065 E2924.25252
G1 X38.554 Y21.895 E2924.27359
G1 X38.952 Y21.789 E2924.29499
G1 X39.357 Y21.754 E2924.31612
G1 X39.767 Y21.789 E2924.3375
G0 F18000 X39.5 Y22.458
; TYPE:FILL
G1 F408 X39.5 Y25.762 E2924.50921
G0 F18000 X39 Y25.73
G1 F408 X39 Y22.49 E2924.67759
G0 F18000 X38.5 Y22.687
G1 F408 X38.5 Y25.534 E2924.82555
G0 F18000 X38 Y25.065
G1 F408 X38 Y23.155 E2924.92481
G0 F18000 X40 Y22.579
G0 X40 Y22.579
G1 F408 X40 Y25.639 E2925.08383
G0 F18000 X40.5 Y25.316
G1 F408 X40.5 Y22.907 E2925.20902
G0 F18000 X41 Y23.888
G1 F408 X41 Y24.356 E2925.23335
G1 F6600 E2918.43335
G1 Z1.85
G0 F18000 X-34.32 Y24.042
; TYPE:WALL-INNER
G1 Z1.55
G1 F6600 E2925.33335
G1 F408 X-34.337 Y24.365 E2925.35016
G1 X-34.388 Y24.611 E2925.36322
G1 X-34.501 Y24.909 E2925.37981
G1 X-34.671 Y25.198 E2925.39726
G1 X-34.827 Y25.386 E2925.40999
G1 X-35.072 Y25.603 E2925.42703
G1 X-35.347 Y25.771 E2925.44382
G1 X-35.653 Y25.892 E2925.46097
G1 X-35.889 Y25.945 E2925.47359
G1 X-36.218 Y25.965 E2925.49078
G1 X-36.54 Y25.93 E2925.50766
G1 X-36.845 Y25.841 E2925.52422
G1 X-37.137 Y25.698 E2925.54117
G1 X-37.344 Y25.553 E2925.55434
G1 X-37.573 Y25.332 E2925.57092
G1 X-37.724 Y25.133 E2925.58393
G1 X-37.883 Y24.838 E2925.60137
G1 X-37.962 Y24.614 E2925.61373
G1 X-38.022 Y24.287 E2925.63102
G1 X-38.025 Y23.966 E2925.6477
G1 X-37.972 Y23.648 E2925.66445
G1 X-37.866 Y23.348 E2925.68097
G1 X-37.705 Y23.06 E2925.69809
G1 X-37.551 Y22.864 E2925.71101
G1 X-37.367 Y22.688 E2925.72421
G1 X-37.096 Y22.5 E2925.7413
G1 X-36.808 Y22.367 E2925.75774
G1 X-36.493 Y22.283 E2925.77464
G1 X-36.174 Y22.256 E2925.79122
G1 X-35.853 Y22.283 E2925.80791
G1 X-35.543 Y22.366 E2925.82454
G1 X-35.247 Y22.504 E2925.84146
G1 X-34.983 Y22.69 E2925.8582
G1 X-34.756 Y22.915 E2925.87478
G1 X-34.569 Y23.18 E2925.8916
G1 X-34.46 Y23.404 E2925.90453
G1 X-34.362 Y23.721 E2925.92175
G1 X-34.32 Y24.042 E2925.93857
G0 F18000 X-33.819 Y24.02
; TYPE:WALL-OUTER
G1 F357 X-33.84 Y24.433 E2925.96007
G1 X-33.904 Y24.746 E2925.97668
G1 X-34.052 Y25.134 E2925.99828
G1 X-34.258 Y25.482 E2926.01932
G1 X-34.464 Y25.732 E2926.03619
G1 X-34.778 Y26.01 E2926.05802
G1 X-35.12 Y26.219 E2926.0789
G1 X-35.508 Y26.372 E2926.10062
G1 X-35.818 Y26.441 E2926.11718
G1 X-36.229 Y26.467 E2926.13863
G1 X-36.638 Y26.422 E2926.16006
G1 X-37.029 Y26.308 E2926.18128
G1 X-37.392 Y26.13 E2926.20234
G1 X-37.66 Y25.942 E2926.21939
G1 X-37.95 Y25.663 E2926.24034
G1 X-38.144 Y25.407 E2926.25707
G1 X-38.34 Y25.043 E2926.27858
G1 X-38.448 Y24.738 E2926.29541
G1 X-38.521 Y24.336 E2926.31665
G1 X-38.526 Y23.929 E2926.33781
G1 X-38.458 Y23.523 E2926.35919
G1 X-38.323 Y23.139 E2926.38033
G1 X-38.123 Y22.783 E2926.40152
G1 X-37.922 Y22.527 E2926.4184
G1 X-37.684 Y22.299 E2926.4355
G1 X-37.347 Y22.065 E2926.45677
G1 X-36.977 Y21.895 E2926.47789
G1 X-36.58 Y21.789 E2926.49919
G1 X-36.174 Y21.754 E2926.52032
G1 X-35.764 Y21.789 E2926.54165
G1 X-35.374 Y21.894 E2926.56259
G1 X-34.997 Y22.07 E2926.58417
G1 X-34.656 Y22.309 E2926.60576
G1 X-34.374 Y22.589 E2926.62638
G1 X-34.138 Y22.924 E2926.64765
G1 X-33.993 Y23.221 E2926.6648
G1 X-33.871 Y23.615 E2926.68622
G1 X-33.819 Y24.02 E2926.70743
G0 F18000 X-34.169 Y24.039
G0 X-35 Y22.94
G0 X-35 Y22.94
; TYPE:FILL
G1 F408 X-35 Y25.284 E2926.82925
G0 F18000 X-35.5 Y25.627
G1 F408 X-35.5 Y22.595 E2926.98682
G0 F18000 X-36 Y22.46
G1 F408 X-36 Y25.76 E2927.15831
G0 F18000 X-36.5 Y25.742
G1 F408 X-36.5 Y22.481 E2927.32779
G0 F18000 X-37 Y22.665
G1 F408 X-37 Y25.552 E2927.47782
G0 F18000 X-37.5 Y25.114
G1 F408 X-37.5 Y23.106 E2927.58217
G1 F6600 E2920.78217
G1 Z1.85
G0 F18000 X-37.358 Y-22.256
; TYPE:WALL-INNER
G1 Z1.55
G1 F6600 E2927.68217
G1 F408 X-37.679 Y-22.269 E2927.69892
G1 X-37.993 Y-22.337 E2927.71568
G1 X-38.288 Y-22.458 E2927.73232
G1 X-38.565 Y-22.631 E2927.74936
G1 X-38.798 Y-22.841 E2927.76574
G1 X-38.997 Y-23.093 E2927.7825
G1 X-39.148 Y-23.374 E2927.79915
G1 X-39.25 Y-23.68 E2927.81598
G1 X-39.296 Y-23.997 E2927.83268
G1 X-39.289 Y-24.319 E2927.84947
G1 X-39.224 Y-24.637 E2927.86638
G1 X-39.138 Y-24.869 E2927.87927
G1 X-38.978 Y-25.155 E2927.89632
G1 X-38.772 Y-25.406 E2927.9132
G1 X-38.577 Y-25.581 E2927.92681
G1 X-38.373 Y-25.717 E2927.93954
G1 X-38.077 Y-25.854 E2927.95647
G1 X-37.762 Y-25.938 E2927.97337
G1 X-37.444 Y-25.965 E2927.98991
G1 X-37.096 Y-25.935 E2928.00801
G1 X-36.748 Y-25.829 E2928.02685
G1 X-36.463 Y-25.684 E2928.0434
G1 X-36.203 Y-25.489 E2928.06021
G1 X-35.988 Y-25.259 E2928.0765
G1 X-35.805 Y-24.978 E2928.09386
G1 X-35.703 Y-24.751 E2928.10672
G1 X-35.631 Y-24.506 E2928.11993
G1 X-35.59 Y-24.18 E2928.13694
G1 X-35.606 Y-23.858 E2928.15365
G1 X-35.676 Y-23.548 E2928.17013
G1 X-35.802 Y-23.248 E2928.18701
G1 X-35.972 Y-22.982 E2928.2034
G1 X-36.197 Y-22.736 E2928.22072
G1 X-36.448 Y-22.544 E2928.23715
G1 X-36.736 Y-22.395 E2928.25403
G1 X-37.042 Y-22.298 E2928.27074
G1 X-37.358 Y-22.256 E2928.28736
G0 F18000 X-37.335 Y-21.755
; TYPE:WALL-OUTER
G1 F357 X-37.746 Y-21.772 E2928.30879
G1 X-38.141 Y-21.857 E2928.32985
G1 X-38.517 Y-22.011 E2928.35103
G1 X-38.866 Y-22.229 E2928.37249
G1 X-39.164 Y-22.498 E2928.39342
G1 X-39.415 Y-22.817 E2928.41459
G1 X-39.61 Y-23.178 E2928.43598
G1 X-39.738 Y-23.564 E2928.45718
G1 X-39.798 Y-23.965 E2928.47831
G1 X-39.788 Y-24.374 E2928.49963
G1 X-39.705 Y-24.78 E2928.5212
G1 X-39.594 Y-25.078 E2928.53776
G1 X-39.394 Y-25.435 E2928.55905
G1 X-39.133 Y-25.755 E2928.58051
G1 X-38.887 Y-25.974 E2928.59763
G1 X-38.617 Y-26.155 E2928.61451
G1 X-38.246 Y-26.326 E2928.63571
G1 X-37.849 Y-26.432 E2928.65703
G1 X-37.444 Y-26.467 E2928.67811
G1 X-36.964 Y-26.419 E2928.70312
G1 X-36.562 Y-26.296 E2928.7249
G1 X-36.196 Y-26.109 E2928.74619
G1 X-35.869 Y-25.863 E2928.76738
G1 X-35.591 Y-25.566 E2928.78845
G1 X-35.365 Y-25.219 E2928.8099
G1 X-35.233 Y-24.924 E2928.82663
G1 X-35.14 Y-24.609 E2928.84363
G1 X-35.089 Y-24.201 E2928.86494
G1 X-35.109 Y-23.791 E2928.88623
G1 X-35.199 Y-23.394 E2928.90734
G1 X-35.357 Y-23.016 E2928.92861
G1 X-35.576 Y-22.672 E2928.94978
G1 X-35.854 Y-22.37 E2928.97111
G1 X-36.182 Y-22.119 E2928.99259
G1 X-36.545 Y-21.931 E2929.01385
G1 X-36.928 Y-21.81 E2929.03476
G1 X-37.335 Y-21.755 E2929.05615
G0 F18000 X-37.5 Y-22.451
; TYPE:FILL
G1 F408 X-37.5 Y-25.768 E2929.22858
G0 F18000 X-37 Y-25.706
G1 F408 X-37 Y-22.509 E2929.39467
G0 F18000 X-36.5 Y-22.743
G1 F408 X-36.5 Y-25.473 E2929.5366
G0 F18000 X-36 Y-24.929
G1 F408 X-36 Y-23.291 E2929.62167
G0 F18000 X-38 Y-22.543
G0 X-38 Y-22.543
G1 F408 X-38 Y-25.677 E2929.7846
G0 F18000 X-38.5 Y-25.394
G1 F408 X-38.5 Y-22.827 E2929.91795
G0 F18000 X-39 Y-23.53
G1 F408 X-39 Y-24.695 E2929.97855
; LAYER:6
G1 F6600 E2923.17855
G1 Z1.85
G0 F18000 X13.735 Y7.936 Z1.8
; TYPE:WALL-INNER
G1 Z1.8
G1 F6600 E2930.07855
G1 F408 X13.926 Y7.668 E2930.09565
G1 X14.102 Y7.489 E2930.10869
G1 X14.357 Y7.3 E2930.12519
G1 X14.645 Y7.154 E2930.14197
G1 X14.958 Y7.06 E2930.15895
G1 X15.272 Y7.022 E2930.17539
G1 X15.592 Y7.039 E2930.19204
G1 X15.918 Y7.115 E2930.20944
G1 X16.211 Y7.241 E2930.22602
G1 X16.486 Y7.422 E2930.24313
G1 X16.712 Y7.633 E2930.25919
G1 X16.911 Y7.897 E2930.27637
G1 X17.055 Y8.18 E2930.29288
G1 X17.151 Y8.493 E2930.30989
G1 X17.186 Y8.742 E2930.32296
G1 X17.18 Y9.07 E2930.34001
G1 X17.119 Y9.384 E2930.35663
G1 X17.005 Y9.685 E2930.37336
G1 X16.842 Y9.958 E2930.38988
G1 X16.626 Y10.208 E2930.40705
G1 X16.382 Y10.408 E2930.42345
G1 X16.105 Y10.564 E2930.43997
G1 X15.802 Y10.672 E2930.45668
G1 X15.478 Y10.726 E2930.47375
G1 X15.207 Y10.727 E2930.48784
G1 X14.902 Y10.681 E2930.50387
G1 X14.663 Y10.606 E2930.51689
G1 X14.379 Y10.467 E2930.53332
G1 X14.116 Y10.275 E2930.55024
G1 X13.9 Y10.051 E2930.56641
G1 X13.716 Y9.783 E2930.58331
G1 X13.582 Y9.486 E2930.60024
G1 X13.504 Y9.178 E2930.61675
G1 X13.48 Y8.851 E2930.63379
G1 X13.51 Y8.54 E2930.65003
G1 X13.598 Y8.224 E2930.66708
G1 X13.735 Y7.936 E2930.68365
G0 F18000 X13.303 Y7.681
; TYPE:WALL-OUTER
G1 F357 X13.543 Y7.345 E2930.70511
G1 X13.771 Y7.112 E2930.72205
G1 X14.095 Y6.872 E2930.743
G1 X14.46 Y6.687 E2930.76427
G1 X14.858 Y6.568 E2930.78586
G1 X15.249 Y6.521 E2930.80632
G1 X15.667 Y6.542 E2930.82808
G1 X16.07 Y6.637 E2930.84959
G1 X16.454 Y6.801 E2930.87129
G1 X16.792 Y7.024 E2930.89234
G1 X17.086 Y7.299 E2930.91326
G1 X17.336 Y7.63 E2930.93481
G1 X17.521 Y7.993 E2930.95599
G1 X17.64 Y8.385 E2930.97728
G1 X17.687 Y8.712 E2930.99445
G1 X17.679 Y9.123 E2931.01581
G1 X17.603 Y9.517 E2931.03666
G1 X17.456 Y9.903 E2931.05813
G1 X17.248 Y10.253 E2931.07929
G1 X16.974 Y10.57 E2931.10106
G1 X16.668 Y10.82 E2931.1216
G1 X16.313 Y11.021 E2931.1428
G1 X15.927 Y11.158 E2931.16408
G1 X15.52 Y11.226 E2931.18553
G1 X15.166 Y11.227 E2931.20393
G1 X14.793 Y11.171 E2931.22353
G1 X14.481 Y11.072 E2931.24054
G1 X14.117 Y10.895 E2931.26157
G1 X13.788 Y10.654 E2931.28277
G1 X13.509 Y10.366 E2931.30361
G1 X13.282 Y10.036 E2931.32442
G1 X13.107 Y9.648 E2931.34654
G1 X13.008 Y9.257 E2931.3675
G1 X12.978 Y8.851 E2931.38866
G1 X13.018 Y8.443 E2931.40996
G1 X13.127 Y8.052 E2931.43106
G1 X13.303 Y7.681 E2931.4524
G0 F18000 X13.923 Y7.999
; TYPE:FILL
G1 F408 X16.75 Y7.999 E2931.59932
G0 F18000 X16.955 Y8.499
G1 F408 X13.719 Y8.5 E2931.76749
G0 F18000 X13.681 Y9
G1 F408 X16.991 Y8.999 E2931.9395
G0 F18000 X16.871 Y9.499
G1 F408 X13.797 Y9.5 E2932.09926
G0 F18000 X14.115 Y10
G1 F408 X16.555 Y9.999 E2932.22606
G0 F18000 X15.675 Y10.499
G1 F408 X14.969 Y10.499 E2932.26275
G0 F18000 X14.407 Y7.499
G0 X14.407 Y7.499
G1 F408 X16.259 Y7.499 E2932.359
G1 F6600 E2925.559
G1 Z2.1
G0 F18000 X15.421 Y-17.178
; TYPE:WALL-INNER
G1 Z1.8
G1 F6600 E2932.459
G1 F408 X15.092 Y-17.192 E2932.47611
G1 X14.776 Y-17.262 E2932.49294
G1 X14.481 Y-17.384 E2932.50955
G1 X14.208 Y-17.557 E2932.52638
G1 X13.981 Y-17.763 E2932.54234
G1 X13.78 Y-18.02 E2932.55934
G1 X13.629 Y-18.301 E2932.57597
G1 X13.531 Y-18.597 E2932.59222
G1 X13.483 Y-18.924 E2932.60945
G1 X13.492 Y-19.245 E2932.62619
G1 X13.558 Y-19.562 E2932.64306
G1 X13.674 Y-19.858 E2932.65963
G1 X13.843 Y-20.135 E2932.67654
G1 X14.052 Y-20.373 E2932.69304
G1 X14.309 Y-20.578 E2932.71016
G1 X14.527 Y-20.703 E2932.72324
G1 X14.83 Y-20.817 E2932.74009
G1 X15.14 Y-20.877 E2932.75651
G1 X15.474 Y-20.882 E2932.77387
G1 X15.79 Y-20.83 E2932.7905
G1 X16.098 Y-20.723 E2932.80743
G1 X16.323 Y-20.603 E2932.82066
G1 X16.575 Y-20.412 E2932.83706
G1 X16.789 Y-20.183 E2932.85331
G1 X16.974 Y-19.902 E2932.87075
G1 X17.077 Y-19.672 E2932.8838
G1 X17.161 Y-19.362 E2932.90044
G1 X17.189 Y-19.099 E2932.91413
G1 X17.172 Y-18.755 E2932.93198
G1 X17.082 Y-18.406 E2932.95066
G1 X16.951 Y-18.12 E2932.96696
G1 X16.766 Y-17.852 E2932.98384
G1 X16.578 Y-17.654 E2932.99799
G1 X16.325 Y-17.463 E2933.01444
G1 X16.033 Y-17.313 E2933.03147
G1 X15.74 Y-17.221 E2933.04742
G1 X15.421 Y-17.178 E2933.06414
G0 F18000 X15.444 Y-16.677
; TYPE:WALL-OUTER
G1 F357 X15.023 Y-16.695 E2933.08604
G1 X14.626 Y-16.783 E2933.10718
G1 X14.25 Y-16.938 E2933.12834
G1 X13.905 Y-17.158 E2933.14963
G1 X13.612 Y-17.422 E2933.17016
G1 X13.359 Y-17.747 E2933.19161
G1 X13.168 Y-18.104 E2933.2127
G1 X13.043 Y-18.481 E2933.23339
G1 X12.982 Y-18.894 E2933.25513
G1 X12.993 Y-19.303 E2933.27645
G1 X13.075 Y-19.702 E2933.29767
G1 X13.226 Y-20.086 E2933.31916
G1 X13.437 Y-20.431 E2933.34022
G1 X13.705 Y-20.735 E2933.36132
G1 X14.026 Y-20.992 E2933.38272
G1 X14.316 Y-21.158 E2933.40012
G1 X14.691 Y-21.299 E2933.42095
G1 X15.088 Y-21.376 E2933.44198
G1 X15.508 Y-21.383 E2933.46381
G1 X15.919 Y-21.315 E2933.48545
G1 X16.297 Y-21.184 E2933.50623
G1 X16.591 Y-21.027 E2933.52352
G1 X16.909 Y-20.786 E2933.54423
G1 X17.187 Y-20.489 E2933.56533
G1 X17.413 Y-20.146 E2933.58663
G1 X17.55 Y-19.839 E2933.60406
G1 X17.653 Y-19.456 E2933.62462
G1 X17.69 Y-19.115 E2933.64239
G1 X17.662 Y-18.648 E2933.66665
G1 X17.555 Y-18.239 E2933.68857
G1 X17.388 Y-17.873 E2933.70943
G1 X17.155 Y-17.534 E2933.73077
G1 X16.913 Y-17.281 E2933.74893
G1 X16.589 Y-17.035 E2933.77004
G1 X16.227 Y-16.85 E2933.79114
G1 X15.852 Y-16.732 E2933.81155
G1 X15.444 Y-16.677 E2933.83294
G0 F18000 X15.982 Y-17.5
; TYPE:FILL
G1 F408 X14.698 Y-17.5 E2933.89967
G0 F18000 X14.036 Y-18
G1 F408 X16.637 Y-18 E2934.03484
G0 F18000 X16.91 Y-18.5
G1 F408 X13.762 Y-18.5 E2934.19844
G0 F18000 X13.675 Y-19
G1 F408 X16.994 Y-19 E2934.37093
G0 F18000 X16.927 Y-19.5
G1 F408 X13.738 Y-19.5 E2934.53665
G0 F18000 X13.982 Y-20
G1 F408 X16.682 Y-20 E2934.67697
G0 F18000 X16.11 Y-20.5
G1 F408 X14.554 Y-20.5 E2934.75783
G1 F6600 E2927.95783
G1 Z2.1
G0 F18000 X43.835 Y-23.943
; TYPE:WALL-INNER
G1 Z1.8
G1 F6600 E2934.85783
G1 F408 X43.828 Y-24.193 E2934.87088
G1 X43.871 Y-24.513 E2934.88771
G1 X43.969 Y-24.821 E2934.90456
G1 X44.116 Y-25.104 E2934.92118
G1 X44.313 Y-25.362 E2934.93809
G1 X44.545 Y-25.576 E2934.95453
G1 X44.821 Y-25.753 E2934.9716
G1 X45.057 Y-25.857 E2934.98502
G1 X45.363 Y-25.938 E2935.00148
G1 X45.684 Y-25.965 E2935.01823
G1 X46.005 Y-25.938 E2935.03497
G1 X46.315 Y-25.855 E2935.05163
G1 X46.611 Y-25.717 E2935.06858
G1 X46.878 Y-25.529 E2935.08552
G1 X47.102 Y-25.305 E2935.10195
G1 X47.29 Y-25.038 E2935.11888
G1 X47.428 Y-24.742 E2935.1358
G1 X47.509 Y-24.44 E2935.152
G1 X47.538 Y-24.177 E2935.1657
G1 X47.52 Y-23.851 E2935.18262
G1 X47.453 Y-23.553 E2935.19844
G1 X47.327 Y-23.25 E2935.21544
G1 X47.155 Y-22.981 E2935.23199
G1 X46.978 Y-22.782 E2935.2458
G1 X46.723 Y-22.573 E2935.2629
G1 X46.443 Y-22.417 E2935.27953
G1 X46.139 Y-22.311 E2935.29624
G1 X45.826 Y-22.26 E2935.31272
G1 X45.505 Y-22.263 E2935.3294
G1 X45.183 Y-22.323 E2935.34643
G1 X44.888 Y-22.433 E2935.36281
G1 X44.609 Y-22.596 E2935.37963
G1 X44.372 Y-22.797 E2935.39581
G1 X44.162 Y-23.046 E2935.41278
G1 X44.006 Y-23.317 E2935.42908
G1 X43.892 Y-23.626 E2935.44624
G1 X43.835 Y-23.943 E2935.46303
G0 F18000 X43.336 Y-23.893
; TYPE:WALL-OUTER
G1 F357 X43.328 Y-24.216 E2935.47987
G1 X43.383 Y-24.627 E2935.50148
G1 X43.504 Y-25.009 E2935.52235
G1 X43.692 Y-25.371 E2935.54359
G1 X43.943 Y-25.7 E2935.56514
G1 X44.241 Y-25.975 E2935.58625
G1 X44.584 Y-26.195 E2935.60745
G1 X44.889 Y-26.329 E2935.62479
G1 X45.278 Y-26.432 E2935.64571
G1 X45.684 Y-26.467 E2935.6669
G1 X46.094 Y-26.432 E2935.68828
G1 X46.484 Y-26.327 E2935.70925
G1 X46.861 Y-26.151 E2935.73085
G1 X47.198 Y-25.915 E2935.7522
G1 X47.488 Y-25.625 E2935.77348
G1 X47.724 Y-25.288 E2935.79482
G1 X47.9 Y-24.911 E2935.81639
G1 X48.002 Y-24.534 E2935.83664
G1 X48.039 Y-24.193 E2935.85441
G1 X48.017 Y-23.783 E2935.8757
G1 X47.93 Y-23.398 E2935.89616
G1 X47.773 Y-23.02 E2935.91739
G1 X47.553 Y-22.676 E2935.93856
G1 X47.324 Y-22.418 E2935.95645
G1 X47.004 Y-22.157 E2935.97788
G1 X46.652 Y-21.961 E2935.99879
G1 X46.265 Y-21.825 E2936.02009
G1 X45.862 Y-21.759 E2936.04131
G1 X45.455 Y-21.764 E2936.06246
G1 X45.053 Y-21.838 E2936.08371
G1 X44.672 Y-21.98 E2936.10486
G1 X44.321 Y-22.186 E2936.12604
G1 X44.014 Y-22.446 E2936.14698
G1 X43.752 Y-22.756 E2936.16811
G1 X43.552 Y-23.103 E2936.18897
G1 X43.407 Y-23.495 E2936.21074
G1 X43.336 Y-23.893 E2936.2318
G0 F18000 X44.024 Y-24
; TYPE:FILL
G1 F408 X47.338 Y-24 E2936.40403
G0 F18000 X47.296 Y-24.5
G1 F408 X44.066 Y-24.5 E2936.57189
G0 F18000 X44.278 Y-25
G1 F408 X47.083 Y-25 E2936.71766
G0 F18000 X46.587 Y-25.5
G1 F408 X44.779 Y-25.5 E2936.81162
G0 F18000 X44.141 Y-23.5
G0 X44.141 Y-23.5
G1 F408 X47.225 Y-23.5 E2936.97189
G0 F18000 X46.919 Y-23
G1 F408 X44.448 Y-23 E2937.10031
G0 F18000 X45.268 Y-22.5
G1 F408 X46.106 Y-22.5 E2937.14386
G1 F6600 E2930.34386
G1 Z2.1
G0 F18000 X39.678 Y22.283
; TYPE:WALL-INNER
G1 Z1.8
G1 F6600 E2937.24386
G1 F408 X39.988 Y22.366 E2937.26054
G1 X40.283 Y22.504 E2937.27746
G1 X40.553 Y22.693 E2937.29459
G1 X40.775 Y22.915 E2937.3109
G1 X40.962 Y23.182 E2937.32784
G1 X41.076 Y23.413 E2937.34123
G1 X41.172 Y23.726 E2937.35825
G1 X41.211 Y24.043 E2937.37484
G1 X41.193 Y24.37 E2937.39186
G1 X41.122 Y24.686 E2937.4087
G1 X41.034 Y24.904 E2937.42091
G1 X40.899 Y25.142 E2937.43513
G1 X40.698 Y25.393 E2937.45184
G1 X40.457 Y25.605 E2937.46852
G1 X40.184 Y25.772 E2937.48516
G1 X39.887 Y25.888 E2937.50173
G1 X39.57 Y25.954 E2937.51855
G1 X39.24 Y25.962 E2937.53571
G1 X38.92 Y25.914 E2937.55253
G1 X38.62 Y25.814 E2937.56896
G1 X38.338 Y25.662 E2937.58561
G1 X38.134 Y25.507 E2937.59892
G1 X37.916 Y25.281 E2937.61524
G1 X37.735 Y25.014 E2937.632
G1 X37.605 Y24.723 E2937.64857
G1 X37.525 Y24.409 E2937.66541
G1 X37.501 Y24.086 E2937.68224
G1 X37.531 Y23.775 E2937.69848
G1 X37.619 Y23.46 E2937.71547
G1 X37.757 Y23.171 E2937.73212
G1 X37.942 Y22.91 E2937.74874
G1 X38.171 Y22.684 E2937.76546
G1 X38.435 Y22.501 E2937.78216
G1 X38.727 Y22.366 E2937.79888
G1 X39.038 Y22.283 E2937.8156
G1 X39.357 Y22.256 E2937.83224
G1 X39.678 Y22.283 E2937.84898
G0 F18000 X39.767 Y21.789
; TYPE:WALL-OUTER
G1 F357 X40.157 Y21.894 E2937.86997
G1 X40.537 Y22.071 E2937.89176
G1 X40.87 Y22.304 E2937.91288
G1 X41.161 Y22.595 E2937.93427
G1 X41.396 Y22.93 E2937.95553
G1 X41.541 Y23.224 E2937.97257
G1 X41.663 Y23.622 E2937.9942
G1 X41.712 Y24.026 E2938.01535
G1 X41.69 Y24.438 E2938.03679
G1 X41.599 Y24.837 E2938.05806
G1 X41.484 Y25.124 E2938.07413
G1 X41.315 Y25.422 E2938.09193
G1 X41.063 Y25.737 E2938.1129
G1 X40.755 Y26.008 E2938.13422
G1 X40.407 Y26.221 E2938.15542
G1 X40.027 Y26.371 E2938.17665
G1 X39.628 Y26.453 E2938.19782
G1 X39.208 Y26.463 E2938.21965
G1 X38.806 Y26.403 E2938.24078
G1 X38.417 Y26.274 E2938.26207
G1 X38.068 Y26.086 E2938.28268
G1 X37.801 Y25.882 E2938.30014
G1 X37.527 Y25.597 E2938.32068
G1 X37.297 Y25.257 E2938.34202
G1 X37.13 Y24.886 E2938.36316
G1 X37.029 Y24.49 E2938.3844
G1 X36.999 Y24.086 E2938.40545
G1 X37.039 Y23.678 E2938.42676
G1 X37.148 Y23.287 E2938.44785
G1 X37.325 Y22.915 E2938.46926
G1 X37.56 Y22.585 E2938.49032
G1 X37.851 Y22.297 E2938.51159
G1 X38.186 Y22.065 E2938.53277
G1 X38.554 Y21.895 E2938.55384
G1 X38.952 Y21.789 E2938.57524
G1 X39.357 Y21.754 E2938.59637
G1 X39.767 Y21.789 E2938.61775
G0 F18000 X39.756 Y22.499
; TYPE:FILL
G1 F408 X38.965 Y22.499 E2938.65886
G0 F18000 X38.122 Y22.999
G1 F408 X40.591 Y22.999 E2938.78717
G0 F18000 X40.904 Y23.499
G1 F408 X37.812 Y23.499 E2938.94786
G0 F18000 X37.701 Y23.999
G1 F408 X41.014 Y23.999 E2939.12003
G0 F18000 X40.969 Y24.499
G1 F408 X37.744 Y24.499 E2939.28763
G0 F18000 X37.955 Y24.999
G1 F408 X40.762 Y24.999 E2939.43351
G0 F18000 X40.265 Y25.499
G1 F408 X38.438 Y25.499 E2939.52846
G1 F6600 E2932.72846
G1 Z2.1
