; Generated with MatterSlice 1.0
; filamentDiameter = 1.75
; extrusionWidth = 0.5
; firstLayerExtrusionWidth = 0.4
; layerThickness = 0.25
; firstLayerThickness = 0.3
; automatic settings before start_gcode
G21 ; set units to millimeters
M107 ; fan off
T0 ; set the active extruder to 0
; settings from start_gcode
M104 S190
M190 S60
M109 S190
G28
; automatic settings after start_gcode
T0 ; set the active extruder to 0
G90 ; use absolute coordinates
G92 E0 ; reset the expected extruder position
M82 ; use absolute distance for extrusion
; Layer count: 79
; LAYER:0
M107
G0 F18000 X54.912 Y-34.621 Z0.3
; TYPE:SKIRT
G1 Z0.3
G1 F6600 E0
G1 F720 X55.652 Y-34.373 E0.03892
G1 X56.259 Y-34.077 E0.07259
G1 X56.82 Y-33.701 E0.10626
G1 X57.32 Y-33.263 E0.13939
G1 X57.762 Y-32.761 E0.17272
G1 X58.133 Y-32.205 E0.20602
G1 X58.43 Y-31.604 E0.23943
G1 X58.683 Y-30.857 E0.27873
G1 X58.811 Y-29.885 E0.32759
G1 X58.811 Y29.886 E3.30953
G1 X58.683 Y30.858 E3.35844
G1 X58.43 Y31.605 E3.39778
G1 X58.133 Y32.206 E3.43123
G1 X57.762 Y32.761 E3.46454
G1 X57.321 Y33.263 E3.49787
G1 X56.822 Y33.701 E3.531
G1 X56.268 Y34.071 E3.56423
G1 X55.675 Y34.364 E3.59723
G1 X54.93 Y34.621 E3.63655
G1 X53.951 Y34.75 E3.68582
G1 X-53.947 Y34.75 E9.06887
G1 X-54.911 Y34.622 E9.11743
G1 X-55.651 Y34.374 E9.15642
G1 X-56.258 Y34.078 E9.19016
G1 X-56.814 Y33.706 E9.22357
G1 X-57.321 Y33.264 E9.25717
G1 X-57.764 Y32.756 E9.29083
G1 X-58.132 Y32.206 E9.32387
G1 X-58.429 Y31.605 E9.35734
G1 X-58.697 Y30.815 E9.39897
G1 X-58.81 Y29.749 E9.45246
G1 X-58.81 Y-29.886 E12.42766
G1 X-58.682 Y-30.85 E12.47622
G1 X-58.434 Y-31.59 E12.51519
G1 X-58.138 Y-32.197 E12.5489
G1 X-57.766 Y-32.753 E12.58229
G1 X-57.324 Y-33.261 E12.61589
G1 X-56.816 Y-33.703 E12.64948
G1 X-56.267 Y-34.07 E12.68241
G1 X-55.674 Y-34.363 E12.71539
G1 X-54.929 Y-34.62 E12.75468
G1 X-53.95 Y-34.749 E12.8039
G1 X53.948 Y-34.749 E18.1869
G1 X54.912 Y-34.621 E18.23541
G0 F18000 X54.821 Y-34.23
G1 F720 X55.5 Y-34.002 E18.27113
G1 X56.059 Y-33.729 E18.30215
G1 X56.576 Y-33.383 E18.33315
G1 X57.036 Y-32.98 E18.36363
G1 X57.444 Y-32.516 E18.39442
G1 X57.786 Y-32.004 E18.4251
G1 X58.06 Y-31.451 E18.45584
G1 X58.292 Y-30.766 E18.49188
G1 X58.411 Y-29.858 E18.53752
G1 X58.411 Y29.859 E21.51676
G1 X58.292 Y30.767 E21.56245
G1 X58.06 Y31.452 E21.59853
G1 X57.786 Y32.005 E21.62932
G1 X57.444 Y32.517 E21.66004
G1 X57.037 Y32.98 E21.69079
G1 X56.577 Y33.383 E21.7213
G1 X56.067 Y33.724 E21.75191
G1 X55.521 Y33.994 E21.7823
G1 X54.838 Y34.229 E21.81833
G1 X53.924 Y34.35 E21.86433
G1 X-53.921 Y34.35 E27.24474
G1 X-54.82 Y34.231 E27.29003
G1 X-55.499 Y34.003 E27.32581
G1 X-56.058 Y33.73 E27.3569
G1 X-56.571 Y33.387 E27.38773
G1 X-57.037 Y32.981 E27.4186
G1 X-57.446 Y32.512 E27.44968
G1 X-57.785 Y32.005 E27.48013
G1 X-58.059 Y31.452 E27.51094
G1 X-58.304 Y30.729 E27.54905
G1 X-58.41 Y29.728 E27.59927
G1 X-58.41 Y-29.86 E30.57213
G1 X-58.291 Y-30.759 E30.61741
G1 X-58.063 Y-31.438 E30.65318
G1 X-57.79 Y-31.997 E30.68424
G1 X-57.447 Y-32.51 E30.71504
G1 X-57.04 Y-32.977 E30.74595
G1 X-56.573 Y-33.384 E30.77685
G1 X-56.066 Y-33.723 E30.80727
G1 X-55.52 Y-33.993 E30.83763
G1 X-54.837 Y-34.228 E30.87364
G1 X-53.923 Y-34.349 E30.91959
G1 X53.922 Y-34.349 E36.29995
G1 X54.821 Y-34.23 E36.34519
G0 F18000 X54.047 Y-30.903
; TYPE:WALL-OUTER
G1 F720 X54.209 Y-30.849 E36.35369
G1 X54.364 Y-30.773 E36.36228
G1 X54.5 Y-30.682 E36.37042
G1 X54.628 Y-30.569 E36.3789
G1 X54.743 Y-30.439 E36.38752
G1 X54.836 Y-30.3 E36.39583
G1 X54.913 Y-30.144 E36.40446
G1 X54.964 Y-29.992 E36.41241
G1 X55.011 Y-29.638 E36.43018
G1 X55.011 Y29.639 E39.38747
G1 X54.964 Y29.993 E39.40529
G1 X54.913 Y30.145 E39.41329
G1 X54.836 Y30.301 E39.42196
G1 X54.743 Y30.44 E39.43031
G1 X54.629 Y30.569 E39.4389
G1 X54.502 Y30.681 E39.44734
G1 X54.363 Y30.774 E39.45569
G1 X54.209 Y30.85 E39.46426
G1 X54.053 Y30.904 E39.47249
G1 X53.703 Y30.95 E39.4901
G1 X-53.699 Y30.95 E44.84841
G1 X-54.046 Y30.904 E44.86592
G1 X-54.208 Y30.85 E44.87449
G1 X-54.363 Y30.774 E44.88315
G1 X-54.499 Y30.683 E44.89135
G1 X-54.628 Y30.57 E44.89995
G1 X-54.742 Y30.44 E44.90861
G1 X-54.835 Y30.301 E44.91698
G1 X-54.912 Y30.145 E44.92568
G1 X-54.962 Y29.997 E44.93349
G1 X-55.01 Y29.546 E44.95612
G1 X-55.01 Y-29.638 E47.90882
G1 X-54.964 Y-29.985 E47.92633
G1 X-54.91 Y-30.147 E47.93488
G1 X-54.834 Y-30.302 E47.94352
G1 X-54.743 Y-30.438 E47.9517
G1 X-54.63 Y-30.567 E47.96026
G1 X-54.501 Y-30.68 E47.96881
G1 X-54.362 Y-30.773 E47.97714
G1 X-54.208 Y-30.849 E47.98568
G1 X-54.052 Y-30.903 E47.99389
G1 X-53.702 Y-30.949 E48.01146
G1 X53.7 Y-30.949 E53.36972
G1 X54.047 Y-30.903 E53.38717
G0 F18000 X53.986 Y-30.608
G0 X47.507 Y-22.578
G0 X47.256 Y-22.266
G0 X47.445 Y-22.499
G0 X47.445 Y-22.499
G0 X47.263 Y-22.263
G1 F720 X46.6 Y-22.772 E53.4289
G1 X45.827 Y-23.092 E53.47066
G1 X44.999 Y-23.201 E53.51233
G1 X44.171 Y-23.092 E53.55399
G1 X43.398 Y-22.772 E53.59571
G1 X42.735 Y-22.263 E53.63738
G1 X42.226 Y-21.6 E53.67904
G1 X41.906 Y-20.827 E53.72074
G1 X41.797 Y-19.999 E53.76235
G1 X41.906 Y-19.17 E53.80402
G1 X42.226 Y-18.398 E53.84567
G1 X42.735 Y-17.735 E53.88733
G1 X43.398 Y-17.226 E53.929
G1 X44.171 Y-16.906 E53.97072
G1 X44.999 Y-16.797 E54.01238
G1 X45.827 Y-16.906 E54.05405
G1 X46.6 Y-17.226 E54.09581
G1 X47.263 Y-17.735 E54.13754
G1 X47.772 Y-18.398 E54.17928
G1 X48.092 Y-19.171 E54.22106
G1 X48.201 Y-19.999 E54.26278
G1 X48.092 Y-20.827 E54.30449
G1 X47.772 Y-21.6 E54.34628
G1 X47.263 Y-22.263 E54.38802
G0 F18000 X47.445 Y-22.499
G0 X47.51 Y-22.509
G0 X46.801 Y-23.119
G0 X45.93 Y-23.48
G0 X44.999 Y-23.602
G0 X44.068 Y-23.48
G0 X43.197 Y-23.119
G0 X42.452 Y-22.546
G0 X41.879 Y-21.801
G0 X41.776 Y-21.475
G0 X38.495 Y-20.883
G0 X38.101 Y-20.812
G0 X38.39 Y-20.865
G0 X38.39 Y-20.865
G0 X38.092 Y-20.827
G1 F720 X37.772 Y-21.6 E54.4298
G1 X37.263 Y-22.263 E54.47154
G1 X36.6 Y-22.772 E54.51328
G1 X35.827 Y-23.092 E54.55503
G1 X34.999 Y-23.201 E54.59671
G1 X34.171 Y-23.092 E54.63836
G1 X33.398 Y-22.772 E54.68008
G1 X32.735 Y-22.263 E54.72176
G1 X32.226 Y-21.6 E54.76342
G1 X31.906 Y-20.827 E54.80511
G1 X31.797 Y-19.999 E54.84673
G1 X31.906 Y-19.171 E54.88834
G1 X32.226 Y-18.398 E54.93003
G1 X32.735 Y-17.735 E54.9717
G1 X33.398 Y-17.226 E55.01337
G1 X34.171 Y-16.906 E55.05509
G1 X34.999 Y-16.797 E55.09675
G1 X35.827 Y-16.906 E55.13842
G1 X36.6 Y-17.226 E55.18018
G1 X37.263 Y-17.735 E55.22191
G1 X37.772 Y-18.398 E55.26365
G1 X38.092 Y-19.171 E55.30543
G1 X38.201 Y-19.999 E55.34715
G1 X38.092 Y-20.827 E55.38886
G0 F18000 X38.39 Y-20.865
G0 X38.375 Y-20.819
G0 X38.602 Y-19.999
G0 X38.48 Y-19.068
G0 X38.119 Y-18.197
G0 X37.392 Y-17.456
G0 X36.202 Y-13.39
G0 X36.09 Y-13.006
G0 X36.175 Y-13.293
G0 X36.175 Y-13.293
G0 X36.108 Y-13.002
G1 F720 X35.294 Y-13.187 E55.43052
G1 X34.458 Y-13.155 E55.47226
G1 X33.66 Y-12.907 E55.51393
G1 X32.953 Y-12.461 E55.55561
G1 X32.385 Y-11.847 E55.5973
G1 X31.996 Y-11.108 E55.63892
G1 X31.811 Y-10.294 E55.68052
G1 X31.843 Y-9.459 E55.72216
G1 X32.091 Y-8.659 E55.7639
G1 X32.537 Y-7.953 E55.80552
G1 X33.151 Y-7.385 E55.84721
G1 X33.89 Y-6.996 E55.88886
G1 X34.704 Y-6.811 E55.93049
G1 X35.54 Y-6.843 E55.97223
G1 X36.338 Y-7.091 E56.01394
G1 X37.046 Y-7.537 E56.05571
G1 X37.613 Y-8.151 E56.09744
G1 X38.002 Y-8.89 E56.13915
G1 X38.187 Y-9.704 E56.18085
G1 X38.155 Y-10.54 E56.22264
G1 X37.907 Y-11.338 E56.26437
G1 X37.461 Y-12.045 E56.30612
G1 X36.847 Y-12.613 E56.34788
G1 X36.108 Y-13.002 E56.38957
G0 F18000 X36.175 Y-13.293
G0 X36.454 Y-13.167
G0 X36.819 Y-13.004
G0 X41.506 Y-10.91
G0 X41.871 Y-10.747
G0 X41.609 Y-10.866
G0 X41.609 Y-10.866
G0 X41.906 Y-10.827
G1 F720 X41.797 Y-9.999 E56.43119
G1 X41.906 Y-9.17 E56.47285
G1 X42.226 Y-8.398 E56.5145
G1 X42.735 Y-7.735 E56.55616
G1 X43.398 Y-7.226 E56.59783
G1 X44.171 Y-6.906 E56.63955
G1 X44.999 Y-6.797 E56.68121
G1 X45.827 Y-6.906 E56.72288
G1 X46.6 Y-7.226 E56.76464
G1 X47.263 Y-7.735 E56.80637
G1 X47.772 Y-8.398 E56.84811
G1 X48.092 Y-9.171 E56.8899
G1 X48.201 Y-9.999 E56.93161
G1 X48.092 Y-10.827 E56.97333
G1 X47.772 Y-11.6 E57.01511
G1 X47.263 Y-12.263 E57.05685
G1 X46.6 Y-12.772 E57.09859
G1 X45.827 Y-13.092 E57.14034
G1 X44.999 Y-13.201 E57.18202
G1 X44.171 Y-13.092 E57.22367
G1 X43.398 Y-12.772 E57.26539
G1 X42.735 Y-12.263 E57.30706
G1 X42.226 Y-11.6 E57.34873
G1 X41.906 Y-10.827 E57.39042
G0 F18000 X41.609 Y-10.866
G0 X41.616 Y-10.842
G0 X41.396 Y-9.999
G0 X41.519 Y-9.066
G0 X41.57 Y-8.94
G0 X41.879 Y-8.197
G0 X42.452 Y-7.452
G0 X42.819 Y-7.278
G0 X44.097 Y-3.494
G0 X44.225 Y-3.115
G0 X44.133 Y-3.39
G0 X44.133 Y-3.39
G0 X44.171 Y-3.092
G1 F720 X43.398 Y-2.772 E57.43214
G1 X42.735 Y-2.263 E57.47381
G1 X42.226 Y-1.6 E57.51547
G1 X41.906 Y-0.827 E57.55716
G1 X41.797 Y0 E57.59873
G1 X41.906 Y0.828 E57.6404
G1 X42.226 Y1.601 E57.68213
G1 X42.735 Y2.264 E57.72384
G1 X43.398 Y2.773 E57.76554
G1 X44.171 Y3.093 E57.80728
G1 X44.999 Y3.202 E57.84894
G1 X45.827 Y3.093 E57.89061
G1 X46.6 Y2.773 E57.93235
G1 X47.263 Y2.264 E57.97405
G1 X47.772 Y1.601 E58.01575
G1 X48.092 Y0.828 E58.05749
G1 X48.201 Y0 E58.09915
G1 X48.092 Y-0.827 E58.14077
G1 X47.772 Y-1.6 E58.18255
G1 X47.263 Y-2.263 E58.22429
G1 X46.6 Y-2.772 E58.26602
G1 X45.827 Y-3.092 E58.30778
G1 X44.999 Y-3.201 E58.34945
G1 X44.171 Y-3.092 E58.39111
G0 F18000 X44.133 Y-3.39
G0 X43.938 Y-3.313
G0 X43.566 Y-3.167
G0 X38.412 Y-1.137
G0 X38.04 Y-0.991
G0 X38.319 Y-1.101
G0 X38.319 Y-1.101
G0 X38.048 Y-0.975
G1 F720 X37.692 Y-1.73 E58.4328
G1 X37.153 Y-2.368 E58.47451
G1 X36.465 Y-2.845 E58.51631
G1 X35.679 Y-3.128 E58.558
G1 X34.846 Y-3.198 E58.59971
G1 X34.023 Y-3.048 E58.64144
G1 X33.268 Y-2.692 E58.68306
G1 X32.63 Y-2.153 E58.7247
G1 X32.153 Y-1.465 E58.76642
G1 X31.87 Y-0.679 E58.80805
G1 X31.8 Y0.153 E58.84966
G1 X31.95 Y0.976 E58.8914
G1 X32.306 Y1.731 E58.93304
G1 X32.846 Y2.369 E58.97474
G1 X33.533 Y2.846 E59.01647
G1 X34.319 Y3.129 E59.05814
G1 X35.152 Y3.199 E59.09985
G1 X35.975 Y3.049 E59.14159
G1 X36.73 Y2.693 E59.18323
G1 X37.368 Y2.154 E59.2249
G1 X37.845 Y1.466 E59.26667
G1 X38.128 Y0.68 E59.30834
G1 X38.198 Y-0.152 E59.35
G1 X38.048 Y-0.975 E59.39178
G0 F18000 X38.319 Y-1.101
G0 X38.413 Y-1.112
G0 X38.029 Y-1.947
G0 X37.423 Y-2.664
G0 X36.649 Y-3.202
G0 X35.764 Y-3.52
G0 X34.828 Y-3.598
G0 X33.901 Y-3.43
G0 X33.051 Y-3.029
G0 X32.334 Y-2.423
G0 X31.796 Y-1.649
G0 X31.478 Y-0.764
G0 X31.441 Y-0.303
G0 X28.605 Y0.025
G0 X28.207 Y0.071
G0 X28.497 Y0.038
G0 X28.497 Y0.038
G0 X28.201 Y0
G1 F720 X28.092 Y-0.827 E59.4334
G1 X27.772 Y-1.6 E59.47519
G1 X27.263 Y-2.263 E59.51693
G1 X26.6 Y-2.772 E59.55866
G1 X25.827 Y-3.092 E59.60042
G1 X24.999 Y-3.201 E59.64209
G1 X24.171 Y-3.092 E59.68375
G1 X23.398 Y-2.772 E59.72547
G1 X22.735 Y-2.263 E59.76714
G1 X22.226 Y-1.6 E59.8088
G1 X21.906 Y-0.827 E59.85049
G1 X21.797 Y0 E59.89206
G1 X21.906 Y0.828 E59.93372
G1 X22.226 Y1.601 E59.97546
G1 X22.735 Y2.264 E60.01716
G1 X23.398 Y2.773 E60.05886
G1 X24.171 Y3.093 E60.1006
G1 X24.999 Y3.202 E60.14227
G1 X25.827 Y3.093 E60.18393
G1 X26.6 Y2.773 E60.22567
G1 X27.263 Y2.264 E60.26737
G1 X27.772 Y1.601 E60.30907
G1 X28.092 Y0.828 E60.35081
G1 X28.201 Y0 E60.39248
G0 F18000 X28.497 Y0.038
G0 X28.484 Y-0.002
G0 X28.602 Y0
G0 X28.48 Y-0.93
G0 X28.119 Y-1.801
G0 X27.932 Y-1.835
G0 X26.467 Y-6.704
G0 X26.352 Y-7.087
G0 X26.437 Y-6.809
G0 X26.437 Y-6.809
G0 X26.284 Y-7.066
G1 F720 X26.999 Y-7.499 E60.43421
G1 X27.579 Y-8.101 E60.47595
G1 X27.981 Y-8.835 E60.51774
G1 X28.181 Y-9.646 E60.55947
G1 X28.164 Y-10.481 E60.60118
G1 X27.932 Y-11.284 E60.64293
G1 X27.499 Y-11.999 E60.68468
G1 X26.897 Y-12.579 E60.72642
G1 X26.163 Y-12.981 E60.76819
G1 X25.352 Y-13.181 E60.80988
G1 X24.517 Y-13.164 E60.85154
G1 X23.714 Y-12.932 E60.89323
G1 X22.999 Y-12.499 E60.93491
G1 X22.419 Y-11.897 E60.97658
G1 X22.017 Y-11.163 E61.01829
G1 X21.817 Y-10.352 E61.05991
G1 X21.834 Y-9.517 E61.10153
G1 X22.066 Y-8.714 E61.14318
G1 X22.5 Y-7.999 E61.18487
G1 X23.102 Y-7.419 E61.22654
G1 X23.835 Y-7.017 E61.26822
G1 X24.646 Y-6.817 E61.30988
G1 X25.481 Y-6.834 E61.35155
G1 X26.284 Y-7.066 E61.39326
G0 F18000 X26.437 Y-6.809
G0 X26.45 Y-6.716
G0 X27.249 Y-7.186
G0 X27.902 Y-7.864
G0 X28.355 Y-8.689
G0 X28.58 Y-9.601
G0 X28.561 Y-10.542
G0 X28.299 Y-11.445
G0 X27.812 Y-12.249
G0 X27.134 Y-12.902
G0 X26.309 Y-13.355
G0 X25.407 Y-13.563
G0 X24.976 Y-16.391
G0 X24.916 Y-16.786
G0 X24.961 Y-16.501
G0 X24.961 Y-16.501
G0 X24.999 Y-16.797
G1 F720 X25.827 Y-16.906 E61.43494
G1 X26.6 Y-17.226 E61.47669
G1 X27.263 Y-17.735 E61.51843
G1 X27.772 Y-18.398 E61.56017
G1 X28.092 Y-19.171 E61.60195
G1 X28.201 Y-19.999 E61.64367
G1 X28.092 Y-20.827 E61.68538
G1 X27.772 Y-21.6 E61.72717
G1 X27.263 Y-22.263 E61.76891
G1 X26.6 Y-22.772 E61.81064
G1 X25.827 Y-23.092 E61.8524
G1 X24.999 Y-23.201 E61.89407
G1 X24.171 Y-23.092 E61.93573
G1 X23.398 Y-22.772 E61.97745
G1 X22.735 Y-22.263 E62.01912
G1 X22.226 Y-21.6 E62.06078
G1 X21.906 Y-20.828 E62.10243
G1 X21.797 Y-19.999 E62.14409
G1 X21.906 Y-19.171 E62.18571
G1 X22.226 Y-18.398 E62.2274
G1 X22.735 Y-17.735 E62.26906
G1 X23.398 Y-17.226 E62.31073
G1 X24.171 Y-16.906 E62.35245
G1 X24.999 Y-16.797 E62.39411
G0 F18000 X24.961 Y-16.501
G0 X24.613 Y-16.61
G0 X24.068 Y-16.518
G0 X23.197 Y-16.879
G0 X23.159 Y-17.071
G0 X18.317 Y-18.605
G0 X17.936 Y-18.725
G0 X18.221 Y-18.636
G0 X18.221 Y-18.636
G0 X17.934 Y-18.719
G1 F720 X18.165 Y-19.522 E62.43585
G1 X18.18 Y-20.359 E62.47766
G1 X17.979 Y-21.17 E62.51939
G1 X17.574 Y-21.901 E62.56113
G1 X16.995 Y-22.503 E62.60284
G1 X16.279 Y-22.934 E62.64456
G1 X15.476 Y-23.165 E62.68626
G1 X14.64 Y-23.18 E62.72797
G1 X13.828 Y-22.979 E62.76969
G1 X13.097 Y-22.574 E62.81136
G1 X12.495 Y-21.995 E62.853
G1 X12.064 Y-21.279 E62.89465
G1 X11.833 Y-20.476 E62.93629
G1 X11.818 Y-19.639 E62.978
G1 X12.019 Y-18.828 E63.01964
G1 X12.424 Y-18.097 E63.06129
G1 X13.003 Y-17.495 E63.10293
G1 X13.719 Y-17.064 E63.14459
G1 X14.523 Y-16.833 E63.18631
G1 X15.359 Y-16.818 E63.22803
G1 X16.17 Y-17.019 E63.26973
G1 X16.901 Y-17.424 E63.31144
G1 X17.503 Y-18.003 E63.35315
G1 X17.934 Y-18.719 E63.39488
G0 F18000 X18.221 Y-18.636
G0 X18.016 Y-18.18
G0 X17.852 Y-17.815
G0 X15.911 Y-13.49
G0 X15.747 Y-13.125
G0 X15.866 Y-13.389
G0 X15.866 Y-13.389
G0 X15.827 Y-13.092
G1 F720 X14.999 Y-13.201 E63.43656
G1 X14.171 Y-13.092 E63.47822
G1 X13.398 Y-12.772 E63.51994
G1 X12.735 Y-12.263 E63.56161
G1 X12.226 Y-11.6 E63.60327
G1 X11.906 Y-10.827 E63.64496
G1 X11.797 Y-9.999 E63.68658
G1 X11.906 Y-9.171 E63.72819
G1 X12.226 Y-8.398 E63.76989
G1 X12.735 Y-7.735 E63.81155
G1 X13.398 Y-7.226 E63.85322
G1 X14.171 Y-6.906 E63.89494
G1 X14.999 Y-6.797 E63.9366
G1 X15.827 Y-6.906 E63.97827
G1 X16.6 Y-7.226 E64.02003
G1 X17.263 Y-7.735 E64.06176
G1 X17.772 Y-8.398 E64.1035
G1 X18.092 Y-9.171 E64.14528
G1 X18.201 Y-9.999 E64.187
G1 X18.092 Y-10.827 E64.22871
G1 X17.772 Y-11.6 E64.2705
G1 X17.263 Y-12.263 E64.31224
G1 X16.6 Y-12.772 E64.35397
G1 X15.827 Y-13.092 E64.39573
G0 F18000 X15.866 Y-13.389
G0 X15.873 Y-13.487
G0 X15.93 Y-13.48
G0 X16.801 Y-13.119
G0 X17.546 Y-12.546
G0 X18.119 Y-11.801
G0 X18.48 Y-10.93
G0 X18.602 Y-9.999
G0 X18.48 Y-9.068
G0 X18.119 Y-8.197
G0 X17.546 Y-7.452
G0 X16.801 Y-6.879
G0 X15.93 Y-6.518
G0 X15.282 Y-6.435
G0 X15.044 Y-3.596
G0 X15.011 Y-3.197
G0 X15.037 Y-3.497
G0 X15.037 Y-3.497
G0 X14.999 Y-3.201
G1 F720 X14.171 Y-3.092 E64.43739
G1 X13.398 Y-2.772 E64.47911
G1 X12.735 Y-2.263 E64.52078
G1 X12.226 Y-1.6 E64.56244
G1 X11.906 Y-0.827 E64.60413
G1 X11.797 Y0 E64.6457
G1 X11.906 Y0.828 E64.68736
G1 X12.226 Y1.601 E64.7291
G1 X12.735 Y2.264 E64.7708
G1 X13.398 Y2.773 E64.8125
G1 X14.171 Y3.093 E64.85424
G1 X14.999 Y3.202 E64.89591
G1 X15.827 Y3.093 E64.93757
G1 X16.6 Y2.773 E64.97931
G1 X17.263 Y2.264 E65.02101
G1 X17.772 Y1.601 E65.06272
G1 X18.092 Y0.828 E65.10445
G1 X18.201 Y0 E65.14612
G1 X18.092 Y-0.827 E65.18774
G1 X17.772 Y-1.6 E65.22952
G1 X17.263 Y-2.263 E65.27126
G1 X16.6 Y-2.772 E65.31299
G1 X15.827 Y-3.092 E65.35475
G1 X14.999 Y-3.201 E65.39642
G0 F18000 X15.037 Y-3.497
G0 X15.005 Y-3.487
G0 X14.999 Y-3.602
G0 X14.068 Y-3.48
G0 X13.197 Y-3.119
G0 X13.089 Y-2.873
G0 X8.343 Y-1.351
G0 X7.962 Y-1.229
G0 X8.24 Y-1.318
G0 X8.24 Y-1.318
G0 X7.978 Y-1.174
G1 F720 X7.571 Y-1.905 E65.43821
G1 X6.99 Y-2.506 E65.47995
G1 X6.273 Y-2.936 E65.52168
G1 X5.47 Y-3.166 E65.56337
G1 X4.634 Y-3.179 E65.60509
G1 X3.824 Y-2.977 E65.64672
G1 X3.093 Y-2.571 E65.68841
G1 X2.492 Y-1.99 E65.73008
G1 X2.062 Y-1.273 E65.77175
G1 X1.832 Y-0.47 E65.81338
G1 X1.819 Y0.365 E65.85499
G1 X2.021 Y1.175 E65.89664
G1 X2.427 Y1.906 E65.93836
G1 X3.008 Y2.507 E65.98006
G1 X3.725 Y2.937 E66.02177
G1 X4.528 Y3.167 E66.06344
G1 X5.364 Y3.18 E66.10516
G1 X6.174 Y2.978 E66.14681
G1 X6.905 Y2.572 E66.18852
G1 X7.506 Y1.991 E66.23023
G1 X7.936 Y1.274 E66.27194
G1 X8.165 Y0.471 E66.3136
G1 X8.18 Y-0.364 E66.35526
G1 X7.978 Y-1.174 E66.39696
G0 F18000 X8.24 Y-1.318
G0 X7.747 Y-2.942
G0 X7.632 Y-3.325
G0 X6.593 Y-6.762
G0 X6.477 Y-7.145
G0 X6.562 Y-6.869
G0 X6.562 Y-6.869
G0 X6.398 Y-7.12
G1 F720 X7.096 Y-7.58 E66.43869
G1 X7.651 Y-8.205 E66.48043
G1 X8.025 Y-8.952 E66.52215
G1 X8.192 Y-9.771 E66.5639
G1 X8.143 Y-10.605 E66.60563
G1 X7.878 Y-11.398 E66.64739
G1 X7.418 Y-12.096 E66.68914
G1 X6.794 Y-12.65 E66.73081
G1 X6.046 Y-13.025 E66.77257
G1 X5.227 Y-13.192 E66.81428
G1 X4.393 Y-13.143 E66.85596
G1 X3.6 Y-12.878 E66.89766
G1 X2.902 Y-12.418 E66.93934
G1 X2.348 Y-11.793 E66.98097
G1 X1.973 Y-11.046 E67.02262
G1 X1.806 Y-10.227 E67.06427
G1 X1.855 Y-9.393 E67.10591
G1 X2.12 Y-8.6 E67.14757
G1 X2.58 Y-7.902 E67.18924
G1 X3.205 Y-7.348 E67.23087
G1 X3.952 Y-6.973 E67.27255
G1 X4.771 Y-6.806 E67.31424
G1 X5.605 Y-6.855 E67.35592
G1 X6.398 Y-7.12 E67.39765
G0 F18000 X6.562 Y-6.869
G0 X6.576 Y-6.778
G0 X7.358 Y-7.276
G0 X7.983 Y-7.98
G0 X8.404 Y-8.821
G0 X8.592 Y-9.742
G0 X8.537 Y-10.68
G0 X8.239 Y-11.573
G0 X7.722 Y-12.358
G0 X7.019 Y-12.982
G0 X6.177 Y-13.404
G0 X5.452 Y-13.539
G0 X4.978 Y-16.39
G0 X4.913 Y-16.784
G0 X4.961 Y-16.501
G0 X4.961 Y-16.501
G0 X4.999 Y-16.797
G1 F720 X5.827 Y-16.906 E67.43932
G1 X6.6 Y-17.226 E67.48108
G1 X7.263 Y-17.735 E67.52281
G1 X7.772 Y-18.398 E67.56455
G1 X8.092 Y-19.171 E67.60634
G1 X8.201 Y-19.999 E67.64805
G1 X8.092 Y-20.827 E67.68977
G1 X7.772 Y-21.6 E67.73155
G1 X7.307 Y-22.205 E67.76966
G1 X7.205 Y-22.307 E67.77689
G1 X6.6 Y-22.772 E67.81499
G1 X5.827 Y-23.092 E67.85675
G1 X4.999 Y-23.201 E67.89842
G1 X4.171 Y-23.092 E67.94008
G1 X3.398 Y-22.772 E67.9818
G1 X2.735 Y-22.263 E68.02347
G1 X2.226 Y-21.6 E68.06513
G1 X1.906 Y-20.827 E68.10683
G1 X1.797 Y-19.999 E68.14844
G1 X1.906 Y-19.171 E68.19006
G1 X2.226 Y-18.398 E68.23175
G1 X2.735 Y-17.735 E68.27341
G1 X3.398 Y-17.226 E68.31508
G1 X4.171 Y-16.906 E68.3568
G1 X4.999 Y-16.797 E68.39846
G0 F18000 X4.961 Y-16.501
G0 X4.701 Y-16.592
G0 X4.068 Y-16.518
G0 X2.48 Y-17.379
G0 X-1.597 Y-18.823
G0 X-1.974 Y-18.957
G0 X-1.693 Y-18.858
G0 X-1.693 Y-18.858
G0 X-1.985 Y-18.922
G1 F720 X-1.809 Y-19.739 E68.4402
G1 X-1.851 Y-20.573 E68.48191
G1 X-2.107 Y-21.369 E68.52369
G1 X-2.559 Y-22.072 E68.56545
G1 X-3.179 Y-22.633 E68.60724
G1 X-3.922 Y-23.014 E68.64896
G1 X-4.74 Y-23.19 E68.69077
G1 X-5.574 Y-23.148 E68.73248
G1 X-6.37 Y-22.892 E68.77422
G1 X-7.073 Y-22.44 E68.81594
G1 X-7.633 Y-21.82 E68.85761
G1 X-8.015 Y-21.076 E68.89932
G1 X-8.191 Y-20.259 E68.94098
G1 X-8.149 Y-19.425 E68.98258
G1 X-7.893 Y-18.629 E69.02424
G1 X-7.441 Y-17.926 E69.06587
G1 X-6.821 Y-17.365 E69.10751
G1 X-6.077 Y-16.984 E69.14914
G1 X-5.26 Y-16.808 E69.19078
G1 X-4.426 Y-16.85 E69.23239
G1 X-3.63 Y-17.106 E69.27408
G1 X-2.927 Y-17.558 E69.31576
G1 X-2.366 Y-18.178 E69.35748
G1 X-1.985 Y-18.922 E69.3992
G0 F18000 X-1.693 Y-18.858
G0 X-1.797 Y-18.629
G0 X-1.965 Y-18.266
G0 X-4.171 Y-13.503
G0 X-4.339 Y-13.14
G0 X-4.216 Y-13.409
G0 X-4.216 Y-13.409
G0 X-4.317 Y-13.127
G1 F720 X-5.149 Y-13.198 E69.44092
G1 X-5.972 Y-13.049 E69.48268
G1 X-6.729 Y-12.694 E69.52442
G1 X-7.367 Y-12.155 E69.5661
G1 X-7.844 Y-11.469 E69.60777
G1 X-8.128 Y-10.682 E69.64948
G1 X-8.199 Y-9.85 E69.69109
G1 X-8.05 Y-9.027 E69.73276
G1 X-7.695 Y-8.27 E69.77441
G1 X-7.156 Y-7.632 E69.81601
G1 X-6.47 Y-7.155 E69.85762
G1 X-5.683 Y-6.871 E69.8993
G1 X-4.851 Y-6.8 E69.94091
G1 X-4.028 Y-6.949 E69.9826
G1 X-3.271 Y-7.304 E70.02428
G1 X-2.633 Y-7.843 E70.06595
G1 X-2.156 Y-8.529 E70.10765
G1 X-1.872 Y-9.316 E70.14942
G1 X-1.801 Y-10.148 E70.19112
G1 X-1.95 Y-10.971 E70.23291
G1 X-2.305 Y-11.728 E70.27469
G1 X-2.844 Y-12.366 E70.31643
G1 X-3.53 Y-12.843 E70.35818
G1 X-4.317 Y-13.127 E70.39999
G0 F18000 X-4.216 Y-13.409
G0 X-4.212 Y-13.518
G0 X-4.232 Y-13.519
G0 X-3.347 Y-13.199
G0 X-2.574 Y-12.663
G0 X-1.967 Y-11.944
G0 X-1.568 Y-11.093
G0 X-1.401 Y-10.167
G0 X-1.48 Y-9.231
G0 X-1.8 Y-8.346
G0 X-2.336 Y-7.573
G0 X-3.055 Y-6.966
G0 X-3.906 Y-6.567
G0 X-4.406 Y-6.477
G0 X-4.487 Y-3.571
G0 X-4.498 Y-3.171
G0 X-4.491 Y-3.46
G0 X-4.491 Y-3.46
G0 X-4.571 Y-3.172
G1 F720 X-5.407 Y-3.175 E70.44174
G1 X-6.215 Y-2.962 E70.48347
G1 X-6.94 Y-2.545 E70.52521
G1 X-7.534 Y-1.957 E70.56691
G1 X-7.954 Y-1.235 E70.60857
G1 X-8.173 Y-0.428 E70.65025
G1 X-8.176 Y0.407 E70.69186
G1 X-7.963 Y1.215 E70.73353
G1 X-7.546 Y1.94 E70.77524
G1 X-6.958 Y2.534 E70.8169
G1 X-6.236 Y2.954 E70.85853
G1 X-5.429 Y3.173 E70.9002
G1 X-4.593 Y3.176 E70.94186
G1 X-3.785 Y2.963 E70.9835
G1 X-3.06 Y2.546 E71.02518
G1 X-2.466 Y1.958 E71.06684
G1 X-2.046 Y1.236 E71.10849
G1 X-1.827 Y0.429 E71.1502
G1 X-1.824 Y-0.406 E71.19185
G1 X-2.037 Y-1.214 E71.2336
G1 X-2.454 Y-1.939 E71.2754
G1 X-3.042 Y-2.533 E71.31717
G1 X-3.764 Y-2.953 E71.35891
G1 X-4.571 Y-3.172 E71.40069
G0 F18000 X-4.491 Y-3.46
G0 X-4.489 Y-3.571
G0 X-4.518 Y-3.57
G0 X-3.609 Y-3.323
G0 X-2.796 Y-2.85
G0 X-2.134 Y-2.182
G0 X-1.666 Y-1.365
G0 X-1.426 Y-0.456
G0 X-1.429 Y0.482
G0 X-1.676 Y1.391
G0 X-2.149 Y2.204
G0 X-2.817 Y2.866
G0 X-3.634 Y3.334
G0 X-4.551 Y3.571
G0 X-4.576 Y6.416
G0 X-4.579 Y6.816
G0 X-4.578 Y6.527
G0 X-4.578 Y6.527
G0 X-4.649 Y6.817
G1 F720 X-5.485 Y6.836 E71.44245
G1 X-6.287 Y7.068 E71.48416
G1 X-7.002 Y7.502 E71.52593
G1 X-7.581 Y8.105 E71.56767
G1 X-7.983 Y8.837 E71.60936
G1 X-8.183 Y9.649 E71.65109
G1 X-8.164 Y10.485 E71.69281
G1 X-7.932 Y11.287 E71.73445
G1 X-7.498 Y12.002 E71.77615
G1 X-6.895 Y12.581 E71.81782
G1 X-6.163 Y12.983 E71.85944
G1 X-5.351 Y13.183 E71.90111
G1 X-4.515 Y13.164 E71.94278
G1 X-3.713 Y12.932 E71.98439
G1 X-2.998 Y12.498 E72.02607
G1 X-2.419 Y11.895 E72.06775
G1 X-2.017 Y11.163 E72.10939
G1 X-1.817 Y10.351 E72.1511
G1 X-1.836 Y9.515 E72.19282
G1 X-2.068 Y8.713 E72.23448
G1 X-2.502 Y7.998 E72.27624
G1 X-3.105 Y7.419 E72.31798
G1 X-3.837 Y7.017 E72.35969
G1 X-4.649 Y6.817 E72.40146
G0 F18000 X-4.578 Y6.527
G0 X-4.175 Y6.695
G0 X-3.691 Y6.643
G0 X-2.867 Y7.096
G0 X-2.912 Y7.225
G0 X1.509 Y9.082
G0 X1.878 Y9.236
G0 X1.612 Y9.125
G0 X1.612 Y9.125
G0 X1.908 Y9.166
G1 F720 X1.797 Y9.994 E72.44314
G1 X1.905 Y10.823 E72.48484
G1 X2.223 Y11.597 E72.52659
G1 X2.731 Y12.26 E72.56826
G1 X3.394 Y12.771 E72.61002
G1 X4.166 Y13.091 E72.65172
G1 X4.994 Y13.202 E72.6934
G1 X5.823 Y13.094 E72.7351
G1 X6.596 Y12.776 E72.77681
G1 X7.259 Y12.268 E72.81848
G1 X7.77 Y11.605 E72.86024
G1 X8.09 Y10.833 E72.90193
G1 X8.201 Y10.005 E72.94361
G1 X8.093 Y9.177 E72.98527
G1 X7.775 Y8.403 E73.02702
G1 X7.267 Y7.74 E73.06869
G1 X6.604 Y7.229 E73.11045
G1 X5.832 Y6.909 E73.15214
G1 X5.004 Y6.798 E73.19382
G1 X4.176 Y6.906 E73.23548
G1 X3.402 Y7.224 E73.27723
G1 X2.738 Y7.732 E73.31894
G1 X2.229 Y8.395 E73.36064
G1 X1.908 Y9.166 E73.4023
G0 F18000 X1.612 Y9.125
G0 X1.627 Y9.178
G0 X1.396 Y9.994
G0 X1.517 Y10.926
G0 X1.875 Y11.796
G0 X2.447 Y12.544
G0 X2.522 Y12.506
G0 X3.64 Y16.66
G0 X3.744 Y17.046
G0 X3.668 Y16.765
G0 X3.668 Y16.765
G0 X3.748 Y17.053
G1 F720 X3.09 Y17.44 E73.44039
G1 X2.977 Y17.529 E73.44756
G1 X2.442 Y18.074 E73.48566
G1 X2.03 Y18.8 E73.52731
G1 X1.821 Y19.61 E73.56905
G1 X1.828 Y20.446 E73.61075
G1 X2.052 Y21.251 E73.65244
G1 X2.476 Y21.971 E73.69413
G1 X3.073 Y22.557 E73.73586
G1 X3.799 Y22.969 E73.77751
G1 X4.609 Y23.178 E73.81925
G1 X5.445 Y23.171 E73.86095
G1 X6.25 Y22.947 E73.90264
G1 X6.97 Y22.523 E73.94433
G1 X7.556 Y21.926 E73.98606
G1 X7.968 Y21.2 E74.02771
G1 X8.177 Y20.39 E74.06945
G1 X8.17 Y19.554 E74.11115
G1 X7.946 Y18.749 E74.15284
G1 X7.522 Y18.029 E74.19453
G1 X6.925 Y17.443 E74.23626
G1 X6.199 Y17.031 E74.27791
G1 X5.389 Y16.822 E74.31965
G1 X4.553 Y16.829 E74.36135
G1 X3.748 Y17.053 E74.40304
G0 F18000 X3.668 Y16.765
G0 X1.908 Y17.349
G0 X1.528 Y17.476
G0 X-1.697 Y18.548
G0 X-2.077 Y18.674
G0 X-1.801 Y18.583
G0 X-1.801 Y18.583
G0 X-2.088 Y18.671
G1 F720 X-2.53 Y17.963 E74.44471
G1 X-3.142 Y17.393 E74.48647
G1 X-3.88 Y17 E74.52823
G1 X-4.695 Y16.813 E74.56999
G1 X-5.53 Y16.842 E74.61173
G1 X-6.329 Y17.088 E74.65348
G1 X-7.037 Y17.53 E74.69517
G1 X-7.607 Y18.142 E74.73693
G1 X-7.999 Y18.881 E74.77868
G1 X-8.187 Y19.695 E74.82037
G1 X-8.158 Y20.53 E74.86206
G1 X-7.912 Y21.329 E74.90375
G1 X-7.47 Y22.037 E74.94536
G1 X-6.858 Y22.607 E74.98705
G1 X-6.12 Y23 E75.02872
G1 X-5.305 Y23.187 E75.07039
G1 X-4.47 Y23.158 E75.11202
G1 X-3.671 Y22.912 E75.15369
G1 X-2.963 Y22.47 E75.19528
G1 X-2.393 Y21.858 E75.23697
G1 X-2 Y21.12 E75.27867
G1 X-1.813 Y20.305 E75.32037
G1 X-1.842 Y19.47 E75.36206
G1 X-2.088 Y18.671 E75.40378
G0 F18000 X-1.801 Y18.583
G0 X-1.701 Y18.57
G0 X-2.221 Y17.707
G0 X-2.909 Y17.067
G0 X-3.741 Y16.624
G0 X-4.657 Y16.413
G0 X-5.596 Y16.446
G0 X-6.496 Y16.722
G0 X-7.293 Y17.221
G0 X-7.934 Y17.909
G0 X-8.375 Y18.741
G0 X-8.407 Y18.873
G0 X-8.512 Y19.378
G0 X-11.401 Y19.721
G0 X-11.798 Y19.769
G0 X-11.511 Y19.736
G0 X-11.511 Y19.736
G0 X-11.81 Y19.724
G1 F720 X-11.99 Y18.907 E75.44553
G1 X-12.376 Y18.165 E75.48728
G1 X-12.94 Y17.549 E75.52898
G1 X-13.645 Y17.099 E75.57075
G1 X-14.442 Y16.847 E75.6125
G1 X-15.276 Y16.81 E75.6542
G1 X-16.093 Y16.99 E75.69599
G1 X-16.835 Y17.376 E75.73776
G1 X-17.451 Y17.94 E75.77946
G1 X-17.901 Y18.645 E75.82122
G1 X-18.153 Y19.442 E75.86294
G1 X-18.19 Y20.276 E75.90459
G1 X-18.01 Y21.093 E75.94631
G1 X-17.624 Y21.835 E75.98802
G1 X-17.06 Y22.451 E76.02965
G1 X-16.355 Y22.901 E76.07134
G1 X-15.558 Y23.153 E76.11299
G1 X-14.724 Y23.19 E76.15459
G1 X-13.907 Y23.01 E76.19628
G1 X-13.165 Y22.624 E76.23797
G1 X-12.549 Y22.06 E76.2796
G1 X-12.099 Y21.355 E76.3213
G1 X-11.847 Y20.558 E76.36299
G1 X-11.81 Y19.724 E76.40463
G0 F18000 X-11.511 Y19.736
G0 X-11.402 Y19.73
G0 X-11.613 Y18.77
G0 X-12.047 Y17.936
G0 X-12.682 Y17.241
G0 X-13.475 Y16.735
G0 X-14.373 Y16.453
G0 X-15.311 Y16.41
G0 X-16.23 Y16.613
G0 X-17.064 Y17.047
G0 X-17.759 Y17.682
G0 X-18.265 Y18.475
G0 X-18.547 Y19.373
G0 X-18.579 Y20.062
G0 X-21.396 Y20.192
G0 X-21.796 Y20.21
G0 X-21.507 Y20.198
G0 X-21.507 Y20.198
G0 X-21.801 Y20.147
G1 F720 X-21.872 Y19.315 E76.4463
G1 X-22.156 Y18.528 E76.48806
G1 X-22.634 Y17.843 E76.52976
G1 X-23.273 Y17.304 E76.5715
G1 X-24.03 Y16.949 E76.61326
G1 X-24.853 Y16.801 E76.65503
G1 X-25.685 Y16.872 E76.69674
G1 X-26.472 Y17.156 E76.73853
G1 X-27.157 Y17.634 E76.78024
G1 X-27.696 Y18.273 E76.82198
G1 X-28.051 Y19.03 E76.86371
G1 X-28.199 Y19.853 E76.90544
G1 X-28.127 Y20.685 E76.9471
G1 X-27.843 Y21.472 E76.98882
G1 X-27.366 Y22.157 E77.03044
G1 X-26.727 Y22.696 E77.07211
G1 X-25.97 Y23.051 E77.11378
G1 X-25.147 Y23.199 E77.15545
G1 X-24.315 Y23.128 E77.19706
G1 X-23.528 Y22.844 E77.23875
G1 X-22.843 Y22.366 E77.28038
G1 X-22.304 Y21.727 E77.32206
G1 X-21.949 Y20.97 E77.36375
G1 X-21.801 Y20.147 E77.40546
G0 F18000 X-21.507 Y20.198
G0 X-21.396 Y20.201
G0 X-21.401 Y20.166
G0 X-21.567 Y21.091
G0 X-21.966 Y21.943
G0 X-22.573 Y22.662
G0 X-23.344 Y23.2
G0 X-24.23 Y23.52
G0 X-25.166 Y23.599
G0 X-26.091 Y23.433
G0 X-26.943 Y23.034
G0 X-27.662 Y22.427
G0 X-28.199 Y21.655
G0 X-28.519 Y20.77
G0 X-28.592 Y19.911
G0 X-31.399 Y19.797
G0 X-31.799 Y19.781
G0 X-31.508 Y19.794
G0 X-31.508 Y19.794
G0 X-31.806 Y19.777
G1 F720 X-31.972 Y18.957 E77.44721
G1 X-32.346 Y18.209 E77.48895
G1 X-32.9 Y17.584 E77.53065
G1 X-33.597 Y17.123 E77.57239
G1 X-34.389 Y16.857 E77.61412
G1 X-35.223 Y16.806 E77.65585
G1 X-36.043 Y16.972 E77.69764
G1 X-36.791 Y17.346 E77.73941
G1 X-37.416 Y17.9 E77.78111
G1 X-37.877 Y18.597 E77.82283
G1 X-38.143 Y19.389 E77.86453
G1 X-38.194 Y20.223 E77.90622
G1 X-38.027 Y21.043 E77.94796
G1 X-37.654 Y21.791 E77.98964
G1 X-37.1 Y22.416 E78.03127
G1 X-36.403 Y22.877 E78.07292
G1 X-35.611 Y23.143 E78.11456
G1 X-34.777 Y23.194 E78.15619
G1 X-33.957 Y23.028 E78.19788
G1 X-33.209 Y22.654 E78.23956
G1 X-32.584 Y22.1 E78.28119
G1 X-32.123 Y21.403 E78.32286
G1 X-31.857 Y20.611 E78.36452
G1 X-31.806 Y19.777 E78.40621
G0 F18000 X-31.508 Y19.794
G0 X-31.525 Y19.743
G0 X-31.406 Y19.749
G0 X-31.593 Y18.827
G0 X-32.014 Y17.985
G0 X-32.127 Y18.041
G0 X-33.774 Y13.383
G0 X-33.907 Y13.006
G0 X-33.808 Y13.29
G0 X-33.808 Y13.29
G0 X-33.943 Y13.022
G1 F720 X-33.196 Y12.646 E78.44788
G1 X-32.573 Y12.089 E78.48954
G1 X-32.115 Y11.39 E78.5312
G1 X-31.854 Y10.596 E78.57289
G1 X-31.807 Y9.761 E78.61461
G1 X-31.978 Y8.943 E78.65631
G1 X-32.354 Y8.196 E78.69806
G1 X-32.911 Y7.573 E78.73978
G1 X-33.61 Y7.115 E78.78152
G1 X-34.404 Y6.854 E78.82326
G1 X-35.239 Y6.807 E78.86504
G1 X-36.057 Y6.978 E78.90678
G1 X-36.803 Y7.354 E78.9485
G1 X-37.427 Y7.911 E78.99027
G1 X-37.885 Y8.61 E79.03199
G1 X-38.146 Y9.404 E79.0737
G1 X-38.193 Y10.239 E79.11543
G1 X-38.022 Y11.057 E79.15711
G1 X-37.646 Y11.804 E79.19881
G1 X-37.089 Y12.427 E79.24047
G1 X-36.39 Y12.885 E79.28212
G1 X-35.596 Y13.146 E79.32377
G1 X-34.761 Y13.193 E79.36545
G1 X-33.943 Y13.022 E79.40709
G0 F18000 X-33.808 Y13.29
G0 X-33.554 Y13.184
G0 X-33.185 Y13.029
G0 X-28.451 Y11.048
G0 X-28.082 Y10.894
G0 X-28.351 Y11.006
G0 X-28.351 Y11.006
G0 X-28.056 Y10.955
G1 F720 X-27.704 Y11.714 E79.44881
G1 X-27.169 Y12.355 E79.49043
G1 X-26.486 Y12.837 E79.5321
G1 X-25.7 Y13.124 E79.5738
G1 X-24.868 Y13.199 E79.61542
G1 X-24.045 Y13.056 E79.65705
G1 X-23.286 Y12.704 E79.69874
G1 X-22.645 Y12.169 E79.74036
G1 X-22.163 Y11.486 E79.78204
G1 X-21.876 Y10.7 E79.82377
G1 X-21.801 Y9.868 E79.86544
G1 X-21.944 Y9.045 E79.90712
G1 X-22.296 Y8.286 E79.94888
G1 X-22.831 Y7.645 E79.99057
G1 X-23.514 Y7.163 E80.03232
G1 X-24.3 Y6.876 E80.07411
G1 X-25.132 Y6.801 E80.11584
G1 X-25.955 Y6.944 E80.15756
G1 X-26.714 Y7.296 E80.19935
G1 X-27.355 Y7.831 E80.24104
G1 X-27.837 Y8.514 E80.28277
G1 X-28.124 Y9.3 E80.32454
G1 X-28.199 Y10.132 E80.36622
G1 X-28.056 Y10.955 E80.40789
G0 F18000 X-28.351 Y11.006
G0 X-28.34 Y10.969
G0 X-28.599 Y10.149
G0 X-28.516 Y9.213
G0 X-28.192 Y8.329
G0 X-27.376 Y7.394
G0 X-26.287 Y3.36
G0 X-26.183 Y2.974
G0 X-26.262 Y3.263
G0 X-26.262 Y3.263
G0 X-26.188 Y2.973
G1 F720 X-25.378 Y3.179 E80.44953
G1 X-24.541 Y3.169 E80.49125
G1 X-23.738 Y2.942 E80.53283
G1 X-23.018 Y2.515 E80.57455
G1 X-22.435 Y1.917 E80.61618
G1 X-22.027 Y1.188 E80.65784
G1 X-21.821 Y0.378 E80.69952
G1 X-21.831 Y-0.458 E80.74123
G1 X-22.058 Y-1.261 E80.78293
G1 X-22.485 Y-1.981 E80.82476
G1 X-23.083 Y-2.564 E80.86649
G1 X-23.812 Y-2.972 E80.90824
G1 X-24.622 Y-3.178 E80.95
G1 X-25.459 Y-3.168 E80.99181
G1 X-26.262 Y-2.941 E81.03348
G1 X-26.982 Y-2.514 E81.07526
G1 X-27.565 Y-1.916 E81.11692
G1 X-27.973 Y-1.187 E81.15858
G1 X-28.179 Y-0.377 E81.20024
G1 X-28.169 Y0.459 E81.2419
G1 X-27.942 Y1.263 E81.28357
G1 X-27.514 Y1.982 E81.32529
G1 X-26.917 Y2.565 E81.36688
G1 X-26.188 Y2.973 E81.40852
G0 F18000 X-26.262 Y3.263
G0 X-26.274 Y3.361
G0 X-26.337 Y3.346
G0 X-27.157 Y2.886
G0 X-27.83 Y2.23
G0 X-28.311 Y1.42
G0 X-28.565 Y0.516
G0 X-28.578 Y-0.424
G0 X-28.346 Y-1.336
G0 X-27.886 Y-2.155
G0 X-27.23 Y-2.83
G0 X-26.42 Y-3.31
G0 X-25.403 Y-3.58
G0 X-25.051 Y-6.394
G0 X-25.001 Y-6.791
G0 X-25.038 Y-6.501
G0 X-25.038 Y-6.501
G0 X-25 Y-6.797
G1 F720 X-24.172 Y-6.906 E81.45014
G1 X-23.399 Y-7.226 E81.49185
G1 X-22.736 Y-7.735 E81.53355
G1 X-22.227 Y-8.398 E81.57526
G1 X-21.907 Y-9.171 E81.61702
G1 X-21.798 Y-9.999 E81.65873
G1 X-21.907 Y-10.827 E81.70045
G1 X-22.227 Y-11.6 E81.74226
G1 X-22.736 Y-12.263 E81.78403
G1 X-23.399 Y-12.772 E81.8258
G1 X-24.172 Y-13.092 E81.8676
G1 X-25 Y-13.201 E81.90932
G1 X-25.828 Y-13.092 E81.95103
G1 X-26.601 Y-12.772 E81.9928
G1 X-27.264 Y-12.263 E82.03451
G1 X-27.773 Y-11.6 E82.0762
G1 X-28.093 Y-10.827 E82.11791
G1 X-28.202 Y-9.999 E82.15953
G1 X-28.093 Y-9.171 E82.20114
G1 X-27.773 Y-8.398 E82.24282
G1 X-27.264 Y-7.735 E82.28445
G1 X-26.601 Y-7.226 E82.32608
G1 X-25.828 Y-6.906 E82.36775
G1 X-25 Y-6.797 E82.40936
G0 F18000 X-25.038 Y-6.501
G0 X-25.042 Y-6.391
G0 X-24.069 Y-6.518
G0 X-23.198 Y-6.879
G0 X-22.453 Y-7.452
G0 X-21.88 Y-8.197
G0 X-21.519 Y-9.068
G0 X-21.397 Y-9.999
G0 X-21.519 Y-10.93
G0 X-21.88 Y-11.801
G0 X-22.453 Y-12.546
G0 X-23.198 Y-13.119
G0 X-24.069 Y-13.48
G0 X-24.735 Y-13.567
G0 X-24.613 Y-16.416
G0 X-24.596 Y-16.816
G0 X-24.609 Y-16.523
G0 X-24.609 Y-16.523
G0 X-24.607 Y-16.822
G1 F720 X-23.798 Y-17.031 E82.45101
G1 X-23.071 Y-17.443 E82.49268
G1 X-22.476 Y-18.03 E82.53438
G1 X-22.052 Y-18.75 E82.57609
G1 X-21.829 Y-19.556 E82.61784
G1 X-21.823 Y-20.392 E82.6596
G1 X-22.032 Y-21.201 E82.70135
G1 X-22.444 Y-21.928 E82.74311
G1 X-23.031 Y-22.523 E82.78488
G1 X-23.751 Y-22.947 E82.82663
G1 X-24.557 Y-23.17 E82.86842
G1 X-25.393 Y-23.176 E82.91018
G1 X-26.202 Y-22.967 E82.9519
G1 X-26.929 Y-22.555 E82.99361
G1 X-27.524 Y-21.968 E83.03531
G1 X-27.948 Y-21.248 E83.07698
G1 X-28.171 Y-20.442 E83.11866
G1 X-28.177 Y-19.606 E83.16032
G1 X-27.968 Y-18.797 E83.20195
G1 X-27.556 Y-18.07 E83.24357
G1 X-26.969 Y-17.475 E83.2852
G1 X-26.249 Y-17.051 E83.32682
G1 X-25.443 Y-16.828 E83.36848
G1 X-24.607 Y-16.822 E83.41014
G0 F18000 X-24.609 Y-16.523
G0 X-24.512 Y-16.555
G0 X-24.559 Y-16.424
G0 X-23.32 Y-16.962
G0 X-18.717 Y-18.538
G0 X-18.338 Y-18.668
G0 X-18.614 Y-18.575
G0 X-18.614 Y-18.575
G0 X-18.357 Y-18.728
G1 F720 X-17.928 Y-18.011 E83.45175
G1 X-17.328 Y-17.429 E83.49339
G1 X-16.597 Y-17.022 E83.53506
G1 X-15.787 Y-16.819 E83.57666
G1 X-14.952 Y-16.831 E83.61827
G1 X-14.147 Y-17.061 E83.66001
G1 X-13.43 Y-17.49 E83.70168
G1 X-12.848 Y-18.09 E83.74338
G1 X-12.441 Y-18.821 E83.78514
G1 X-12.239 Y-19.631 E83.82683
G1 X-12.251 Y-20.466 E83.86854
G1 X-12.48 Y-21.27 E83.91031
G1 X-12.91 Y-21.987 E83.95209
G1 X-13.51 Y-22.569 E83.99386
G1 X-14.24 Y-22.976 E84.03563
G1 X-15.051 Y-23.179 E84.0774
G1 X-15.886 Y-23.167 E84.11911
G1 X-16.69 Y-22.937 E84.16086
G1 X-17.407 Y-22.508 E84.20257
G1 X-17.989 Y-21.908 E84.24427
G1 X-18.396 Y-21.177 E84.28599
G1 X-18.599 Y-20.367 E84.32762
G1 X-18.587 Y-19.532 E84.36923
G1 X-18.357 Y-18.728 E84.41089
G0 F18000 X-18.614 Y-18.575
G0 X-18.395 Y-18.053
G0 X-18.241 Y-17.684
G0 X-16.41 Y-13.309
G0 X-16.256 Y-12.94
G0 X-16.372 Y-13.217
G0 X-16.372 Y-13.217
G0 X-16.223 Y-12.957
G1 F720 X-16.948 Y-12.54 E84.45263
G1 X-17.539 Y-11.95 E84.49429
G1 X-17.957 Y-11.226 E84.53599
G1 X-18.174 Y-10.418 E84.57769
G1 X-18.175 Y-9.583 E84.6193
G1 X-17.958 Y-8.776 E84.66093
G1 X-17.541 Y-8.051 E84.70259
G1 X-16.951 Y-7.46 E84.74418
G1 X-16.227 Y-7.042 E84.78582
G1 X-15.419 Y-6.825 E84.8275
G1 X-14.584 Y-6.824 E84.86911
G1 X-13.777 Y-7.041 E84.91076
G1 X-13.052 Y-7.458 E84.95247
G1 X-12.461 Y-8.048 E84.99413
G1 X-12.043 Y-8.772 E85.03586
G1 X-11.826 Y-9.58 E85.07764
G1 X-11.825 Y-10.415 E85.11934
G1 X-12.042 Y-11.222 E85.1611
G1 X-12.459 Y-11.947 E85.20289
G1 X-13.049 Y-12.538 E85.24463
G1 X-13.773 Y-12.956 E85.2864
G1 X-14.581 Y-13.173 E85.3282
G1 X-15.416 Y-13.174 E85.36991
G1 X-16.223 Y-12.957 E85.41164
G0 F18000 X-16.372 Y-13.217
G0 X-16.384 Y-13.308
G0 X-17.191 Y-12.858
G0 X-17.857 Y-12.194
G0 X-18.328 Y-11.38
G0 X-18.572 Y-10.471
G0 X-18.573 Y-9.53
G0 X-18.329 Y-8.623
G0 X-17.859 Y-7.808
G0 X-17.195 Y-7.142
G0 X-16.381 Y-6.671
G0 X-15.472 Y-6.427
G0 X-15.389 Y-6.427
G0 X-14.982 Y-3.606
G0 X-14.924 Y-3.21
G0 X-14.967 Y-3.497
G0 X-14.967 Y-3.497
G0 X-15.005 Y-3.201
G1 F720 X-15.833 Y-3.091 E85.45335
G1 X-16.605 Y-2.77 E85.49509
G1 X-17.268 Y-2.259 E85.53686
G1 X-17.775 Y-1.596 E85.57849
G1 X-18.094 Y-0.823 E85.62019
G1 X-18.202 Y0.005 E85.6618
G1 X-18.092 Y0.834 E85.70352
G1 X-17.771 Y1.605 E85.74516
G1 X-17.26 Y2.268 E85.7869
G1 X-16.597 Y2.775 E85.8285
G1 X-15.824 Y3.094 E85.87017
G1 X-14.995 Y3.202 E85.91183
G1 X-14.167 Y3.092 E85.95345
G1 X-13.395 Y2.771 E85.99512
G1 X-12.732 Y2.26 E86.03684
G1 X-12.225 Y1.597 E86.07845
G1 X-11.906 Y0.824 E86.12015
G1 X-11.798 Y-0.004 E86.1618
G1 X-11.908 Y-0.832 E86.20353
G1 X-12.229 Y-1.604 E86.24531
G1 X-12.74 Y-2.267 E86.28714
G1 X-13.403 Y-2.774 E86.32885
G1 X-14.176 Y-3.093 E86.37064
G1 X-15.005 Y-3.201 E86.4124
G0 F18000 X-14.967 Y-3.497
G0 X-14.969 Y-3.594
G0 X-14.073 Y-3.481
G0 X-13.204 Y-3.122
G0 X-12.456 Y-2.551
G0 X-11.882 Y-1.805
G0 X-11.52 Y-0.936
G0 X-11.397 Y-0.005
G0 X-11.518 Y0.927
G0 X-11.877 Y1.796
G0 X-12.448 Y2.544
G0 X-13.194 Y3.118
G0 X-14.063 Y3.48
G0 X-14.719 Y3.568
G0 X-14.62 Y6.409
G0 X-14.606 Y6.809
G0 X-14.617 Y6.521
G0 X-14.617 Y6.521
G0 X-14.685 Y6.813
G1 F720 X-15.521 Y6.841 E86.45418
G1 X-16.321 Y7.083 E86.49593
G1 X-17.031 Y7.525 E86.53769
G1 X-17.602 Y8.134 E86.57938
G1 X-17.997 Y8.872 E86.62116
G1 X-18.186 Y9.685 E86.66282
G1 X-18.159 Y10.521 E86.70455
G1 X-17.917 Y11.321 E86.74623
G1 X-17.475 Y12.031 E86.78793
G1 X-16.866 Y12.602 E86.82954
G1 X-16.128 Y12.997 E86.87126
G1 X-15.315 Y13.187 E86.91286
G1 X-14.479 Y13.159 E86.95454
G1 X-13.679 Y12.917 E86.9962
G1 X-12.969 Y12.475 E87.03788
G1 X-12.398 Y11.866 E87.07949
G1 X-12.003 Y11.128 E87.12123
G1 X-11.813 Y10.315 E87.16287
G1 X-11.841 Y9.479 E87.20461
G1 X-12.083 Y8.679 E87.24632
G1 X-12.525 Y7.969 E87.28807
G1 X-13.134 Y7.398 E87.32976
G1 X-13.872 Y7.003 E87.37156
G1 X-14.685 Y6.813 E87.41326
G0 F18000 X-14.617 Y6.521
G0 X-24.057 Y3.356
G0 X-24.484 Y3.565
G0 X-25.425 Y3.578
G0 X-26.337 Y3.346
G0 X-27.157 Y2.886
G0 X-27.801 Y2.101
G0 X-31.498 Y0.862
G0 X-31.877 Y0.735
G0 X-31.602 Y0.829
G0 X-31.602 Y0.829
G0 X-31.882 Y0.724
G1 F720 X-31.8 Y-0.107 E87.45492
G1 X-31.937 Y-0.932 E87.4967
G1 X-32.283 Y-1.693 E87.53847
G1 X-32.814 Y-2.338 E87.58022
G1 X-33.494 Y-2.824 E87.62199
G1 X-34.276 Y-3.117 E87.66372
G1 X-35.108 Y-3.199 E87.70548
G1 X-35.933 Y-3.062 E87.74725
G1 X-36.694 Y-2.716 E87.78898
G1 X-37.339 Y-2.185 E87.83067
G1 X-37.825 Y-1.505 E87.87235
G1 X-38.118 Y-0.723 E87.91399
G1 X-38.2 Y0.108 E87.9556
G1 X-38.063 Y0.933 E87.99732
G1 X-37.717 Y1.694 E88.039
G1 X-37.186 Y2.339 E88.08065
G1 X-36.506 Y2.825 E88.12231
G1 X-35.724 Y3.118 E88.16393
G1 X-34.892 Y3.2 E88.20559
G1 X-34.067 Y3.063 E88.24726
G1 X-33.306 Y2.717 E88.28892
G1 X-32.661 Y2.186 E88.33057
G1 X-32.175 Y1.506 E88.37224
G1 X-31.882 Y0.724 E88.41388
G0 F18000 X-31.602 Y0.829
G0 X-31.489 Y0.837
G0 X-31.491 Y0.814
G0 X-31.821 Y1.695
G0 X-32.367 Y2.459
G0 X-33.095 Y3.057
G0 X-33.951 Y3.447
G0 X-34.88 Y3.6
G0 X-35.814 Y3.509
G0 X-36.695 Y3.179
G0 X-37.459 Y2.633
G0 X-38.057 Y1.905
G0 X-38.447 Y1.049
G0 X-38.571 Y0.271
G0 X-41.393 Y0.046
G0 X-41.791 Y0.014
G0 X-41.502 Y0.038
G0 X-41.502 Y0.038
G0 X-41.798 Y0
G1 F720 X-41.907 Y-0.827 E88.4555
G1 X-42.227 Y-1.6 E88.49731
G1 X-42.736 Y-2.263 E88.53908
G1 X-43.399 Y-2.772 E88.58085
G1 X-44.172 Y-3.092 E88.62265
G1 X-45 Y-3.201 E88.66438
G1 X-45.828 Y-3.092 E88.70608
G1 X-46.601 Y-2.772 E88.74785
G1 X-47.264 Y-2.263 E88.78956
G1 X-47.773 Y-1.6 E88.83125
G1 X-48.093 Y-0.827 E88.87296
G1 X-48.202 Y0 E88.91454
G1 X-48.093 Y0.828 E88.9562
G1 X-47.773 Y1.601 E88.99792
G1 X-47.264 Y2.264 E89.03959
G1 X-46.601 Y2.773 E89.08125
G1 X-45.828 Y3.093 E89.12294
G1 X-45 Y3.202 E89.16456
G1 X-44.172 Y3.093 E89.20617
G1 X-43.399 Y2.773 E89.24787
G1 X-42.736 Y2.264 E89.28953
G1 X-42.227 Y1.601 E89.3312
G1 X-41.907 Y0.828 E89.37292
G1 X-41.798 Y0 E89.41458
G0 F18000 X-41.502 Y0.038
G0 X-41.618 Y0.423
G0 X-41.519 Y0.931
G0 X-41.88 Y1.802
G0 X-42.036 Y1.796
G0 X-43.527 Y6.704
G0 X-43.643 Y7.087
G0 X-43.56 Y6.811
G0 X-43.56 Y6.811
G0 X-43.715 Y7.067
G1 F720 X-44.518 Y6.835 E89.45632
G1 X-45.353 Y6.818 E89.49804
G1 X-46.165 Y7.018 E89.53981
G1 X-46.898 Y7.42 E89.58156
G1 X-47.501 Y8 E89.62334
G1 X-47.933 Y8.715 E89.66504
G1 X-48.165 Y9.518 E89.70676
G1 X-48.182 Y10.353 E89.74843
G1 X-47.982 Y11.165 E89.79014
G1 X-47.578 Y11.898 E89.83187
G1 X-47 Y12.501 E89.87351
G1 X-46.285 Y12.933 E89.91514
G1 X-45.482 Y13.165 E89.95679
G1 X-44.647 Y13.182 E89.99841
G1 X-43.835 Y12.982 E90.04008
G1 X-43.102 Y12.58 E90.08175
G1 X-42.499 Y12 E90.12345
G1 X-42.067 Y11.285 E90.1651
G1 X-41.835 Y10.482 E90.20679
G1 X-41.818 Y9.647 E90.24846
G1 X-42.018 Y8.835 E90.29019
G1 X-42.42 Y8.102 E90.33192
G1 X-43 Y7.499 E90.3737
G1 X-43.715 Y7.067 E90.41542
G0 F18000 X-43.56 Y6.811
G0 X-43.544 Y6.7
G0 X-43.554 Y6.699
G0 X-42.749 Y7.186
G0 X-42.097 Y7.865
G0 X-41.644 Y8.689
G0 X-41.419 Y9.602
G0 X-41.438 Y10.543
G0 X-41.699 Y11.446
G0 X-42.186 Y12.251
G0 X-42.865 Y12.903
G0 X-43.689 Y13.356
G0 X-44.437 Y13.529
G0 X-44.814 Y16.405
G0 X-44.865 Y16.802
G0 X-44.828 Y16.506
G0 X-44.828 Y16.506
G0 X-44.877 Y16.8
G1 F720 X-45.71 Y16.878 E90.45721
G1 X-46.493 Y17.168 E90.49891
G1 X-47.175 Y17.651 E90.54065
G1 X-47.71 Y18.294 E90.58241
G1 X-48.059 Y19.053 E90.62411
G1 X-48.2 Y19.877 E90.66582
G1 X-48.122 Y20.71 E90.70756
G1 X-47.832 Y21.493 E90.7492
G1 X-47.349 Y22.175 E90.79086
G1 X-46.706 Y22.71 E90.83256
G1 X-45.947 Y23.059 E90.87419
G1 X-45.123 Y23.2 E90.91585
G1 X-44.29 Y23.122 E90.95754
G1 X-43.507 Y22.832 E90.99915
G1 X-42.825 Y22.349 E91.0408
G1 X-42.29 Y21.706 E91.0825
G1 X-41.941 Y20.947 E91.12416
G1 X-41.8 Y20.123 E91.16586
G1 X-41.878 Y19.29 E91.2076
G1 X-42.168 Y18.507 E91.24928
G1 X-42.651 Y17.825 E91.291
G1 X-43.293 Y17.29 E91.33273
G1 X-44.053 Y16.941 E91.3745
G1 X-44.877 Y16.8 E91.41626
G1 F6600 E84.61626
G1 Z0.6
G0 F18000 X-44.828 Y16.506
G0 X-44.853 Y13.577
G0 X-45.543 Y13.562
G0 X-46.446 Y13.301
G0 X-47.251 Y12.814
G0 X-47.902 Y12.135
G0 X-48.356 Y11.311
G0 X-48.581 Y10.398
G0 X-48.562 Y9.457
G0 X-48.301 Y8.554
G0 X-47.814 Y7.749
G0 X-47.135 Y7.097
G0 X-46.311 Y6.644
G0 X-45.398 Y6.419
G0 X-44.919 Y6.426
G0 X-44.945 Y3.596
G0 X-44.069 Y3.481
G0 X-43.198 Y3.12
G0 X-42.453 Y2.547
G0 X-41.88 Y1.802
G0 X-41.519 Y0.931
G0 X-41.397 Y0
G0 X-41.519 Y-0.93
G0 X-41.88 Y-1.801
G0 X-42.453 Y-2.546
G0 X-43.198 Y-3.119
G0 X-44.069 Y-3.48
G0 X-45.01 Y-3.602
G0 X-45.036 Y-6.391
G0 X-45.039 Y-6.791
G0 X-45.038 Y-6.501
G0 X-45.038 Y-6.501
G0 X-45 Y-6.797
G1 Z0.3
G1 F6600 E91.51626
G1 F720 X-44.172 Y-6.906 E91.55788
G1 X-43.399 Y-7.226 E91.59959
G1 X-42.736 Y-7.735 E91.64128
G1 X-42.227 Y-8.398 E91.68299
G1 X-41.907 Y-9.171 E91.72476
G1 X-41.798 Y-9.999 E91.76647
G1 X-41.907 Y-10.827 E91.80819
G1 X-42.227 Y-11.6 E91.84999
G1 X-42.736 Y-12.263 E91.89176
G1 X-43.399 Y-12.772 E91.93353
G1 X-44.172 Y-13.092 E91.97534
G1 X-45 Y-13.201 E92.01706
G1 X-45.828 Y-13.092 E92.05877
G1 X-46.601 Y-12.772 E92.10053
G1 X-47.264 Y-12.263 E92.14224
G1 X-47.773 Y-11.6 E92.18394
G1 X-48.093 Y-10.827 E92.22565
G1 X-48.202 Y-9.999 E92.26727
G1 X-48.093 Y-9.171 E92.30888
G1 X-47.773 Y-8.398 E92.35055
G1 X-47.264 Y-7.735 E92.39218
G1 X-46.601 Y-7.226 E92.43382
G1 X-45.828 Y-6.906 E92.47549
G1 X-45 Y-6.797 E92.5171
G0 F18000 X-45.038 Y-6.501
G0 X-45.034 Y-6.39
G0 X-45 Y-6.396
G0 X-45.931 Y-6.518
G0 X-46.802 Y-6.879
G0 X-47.547 Y-7.452
G0 X-48.12 Y-8.197
G0 X-48.481 Y-9.068
G0 X-48.603 Y-9.999
G0 X-48.481 Y-10.93
G0 X-48.12 Y-11.801
G0 X-47.547 Y-12.546
G0 X-46.802 Y-13.119
G0 X-45.931 Y-13.48
G0 X-45.259 Y-13.568
G0 X-45.349 Y-16.406
G0 X-45.361 Y-16.806
G0 X-45.353 Y-16.518
G0 X-45.353 Y-16.518
G0 X-45.288 Y-16.81
G1 F720 X-44.454 Y-16.844 E92.55869
G1 X-43.655 Y-17.093 E92.60041
G1 X-42.95 Y-17.54 E92.64205
G1 X-42.383 Y-18.155 E92.68378
G1 X-41.995 Y-18.894 E92.72544
G1 X-41.811 Y-19.711 E92.76726
G1 X-41.845 Y-20.545 E92.80896
G1 X-42.094 Y-21.344 E92.85077
G1 X-42.541 Y-22.049 E92.89249
G1 X-43.156 Y-22.616 E92.93429
G1 X-43.895 Y-23.004 E92.976
G1 X-44.711 Y-23.188 E93.01779
G1 X-45.546 Y-23.154 E93.05953
G1 X-46.345 Y-22.905 E93.10132
G1 X-47.05 Y-22.458 E93.14298
G1 X-47.617 Y-21.843 E93.18471
G1 X-48.005 Y-21.104 E93.22633
G1 X-48.189 Y-20.287 E93.26808
G1 X-48.155 Y-19.453 E93.30967
G1 X-47.906 Y-18.654 E93.35136
G1 X-47.459 Y-17.949 E93.39294
G1 X-46.844 Y-17.382 E93.4346
G1 X-46.105 Y-16.994 E93.47617
G1 X-45.288 Y-16.81 E93.51789
G0 F18000 X-45.353 Y-16.518
G0 X-45.37 Y-16.511
G0 X-45.324 Y-16.41
G0 X-44.385 Y-16.448
G0 X-43.488 Y-16.729
G0 X-42.305 Y-17.662
G0 X-38.493 Y-19.094
G0 X-38.118 Y-19.234
G0 X-38.391 Y-19.133
G0 X-38.391 Y-19.133
G0 X-38.093 Y-19.171
G1 F720 X-37.773 Y-18.398 E93.55957
G1 X-37.264 Y-17.735 E93.6012
G1 X-36.601 Y-17.226 E93.64283
G1 X-35.828 Y-16.906 E93.6845
G1 X-35 Y-16.797 E93.72611
G1 X-34.172 Y-16.906 E93.76774
G1 X-33.399 Y-17.226 E93.80945
G1 X-32.736 Y-17.735 E93.85114
G1 X-32.227 Y-18.398 E93.89285
G1 X-31.907 Y-19.171 E93.93462
G1 X-31.798 Y-19.999 E93.97632
G1 X-31.907 Y-20.827 E94.01805
G1 X-32.227 Y-21.6 E94.05985
G1 X-32.736 Y-22.263 E94.10162
G1 X-33.399 Y-22.772 E94.14339
G1 X-34.172 Y-23.092 E94.1852
G1 X-35 Y-23.201 E94.22692
G1 X-35.828 Y-23.092 E94.26863
G1 X-36.601 Y-22.772 E94.31039
G1 X-37.264 Y-22.263 E94.3521
G1 X-37.773 Y-21.6 E94.39379
G1 X-38.093 Y-20.827 E94.43551
G1 X-38.202 Y-19.999 E94.47713
G1 X-38.093 Y-19.171 E94.51874
G0 F18000 X-38.391 Y-19.133
G0 X-38.299 Y-18.884
G0 X-38.163 Y-18.508
G0 X-36.297 Y-13.364
G0 X-36.161 Y-12.988
G0 X-36.262 Y-13.263
G0 X-36.262 Y-13.263
G0 X-36.122 Y-12.998
G1 F720 X-36.859 Y-12.605 E94.56043
G1 X-37.471 Y-12.035 E94.60216
G1 X-37.914 Y-11.327 E94.64381
G1 X-38.158 Y-10.527 E94.6855
G1 X-38.187 Y-9.692 E94.72714
G1 X-37.999 Y-8.877 E94.7688
G1 X-37.606 Y-8.14 E94.81041
G1 X-37.036 Y-7.528 E94.85206
G1 X-36.328 Y-7.085 E94.89366
G1 X-35.528 Y-6.841 E94.93532
G1 X-34.693 Y-6.812 E94.97696
G1 X-33.878 Y-7 E95.01865
G1 X-33.141 Y-7.393 E95.0603
G1 X-32.529 Y-7.963 E95.10202
G1 X-32.086 Y-8.671 E95.1437
G1 X-31.842 Y-9.471 E95.18546
G1 X-31.813 Y-10.306 E95.22719
G1 X-32.001 Y-11.121 E95.26898
G1 X-32.394 Y-11.858 E95.31072
G1 X-32.964 Y-12.47 E95.35251
G1 X-33.672 Y-12.913 E95.39425
G1 X-34.472 Y-13.157 E95.43604
G1 X-35.307 Y-13.186 E95.47777
G1 X-36.122 Y-12.998 E95.51954
G1 F6600 E88.71954
G1 Z0.6
G0 F18000 X-36.262 Y-13.263
G0 X-36.329 Y-13.293
G0 X-36.262 Y-13.374
G0 X-35.346 Y-13.586
G0 X-34.406 Y-13.553
G0 X-33.507 Y-13.278
G0 X-32.708 Y-12.779
G0 X-32.068 Y-12.091
G0 X-31.666 Y-11.179
G0 X-28.543 Y-9.763
G0 X-28.481 Y-9.068
G0 X-28.12 Y-8.197
G0 X-27.547 Y-7.452
G0 X-26.802 Y-6.879
G0 X-25.931 Y-6.518
G0 X-25 Y-6.396
G0 X-24.069 Y-6.518
G0 X-23.198 Y-6.879
G0 X-22.842 Y-7.179
G0 X-15.865 Y-4.015
G0 X-13.204 Y-3.122
G0 X-12.81 Y-2.63
G0 X-8.515 Y-0.683
G0 X-8.571 Y-0.481
G0 X-8.574 Y0.457
G0 X-8.334 Y1.366
G0 X-7.866 Y2.183
G0 X-7.204 Y2.851
G0 X-6.391 Y3.324
G0 X-5.482 Y3.571
G0 X-4.543 Y3.574
G0 X-3.634 Y3.334
G0 X-2.817 Y2.866
G0 X-2.149 Y2.204
G0 X-2.146 Y2.204
G0 X11.728 Y8.495
G0 X12.093 Y8.66
G0 X11.821 Y8.537
G0 X11.821 Y8.537
G0 X12.106 Y8.63
G1 Z0.3
G1 F6600 E95.61954
G1 F720 X11.85 Y9.426 E95.66126
G1 X11.808 Y10.26 E95.70292
G1 X11.984 Y11.077 E95.74461
G1 X12.365 Y11.821 E95.78632
G1 X12.926 Y12.441 E95.82803
G1 X13.629 Y12.893 E95.86973
G1 X14.425 Y13.149 E95.91144
G1 X15.259 Y13.191 E95.9531
G1 X16.076 Y13.015 E95.9948
G1 X16.82 Y12.634 E96.0365
G1 X17.44 Y12.073 E96.07822
G1 X17.892 Y11.37 E96.11991
G1 X18.148 Y10.574 E96.16163
G1 X18.19 Y9.74 E96.20329
G1 X18.014 Y8.923 E96.24499
G1 X17.633 Y8.179 E96.28669
G1 X17.072 Y7.559 E96.3284
G1 X16.369 Y7.107 E96.3701
G1 X15.574 Y6.851 E96.41177
G1 X14.739 Y6.809 E96.45348
G1 X13.922 Y6.985 E96.49517
G1 X13.178 Y7.366 E96.53688
G1 X12.558 Y7.927 E96.57859
G1 X12.106 Y8.63 E96.62029
G0 F18000 X11.821 Y8.537
G0 X11.819 Y8.53
G0 X11.455 Y9.355
G0 X11.408 Y10.293
G0 X11.606 Y11.212
G0 X12.035 Y12.048
G0 X12.667 Y12.747
G0 X12.766 Y12.743
G0 X13.645 Y16.655
G0 X13.732 Y17.045
G0 X13.67 Y16.764
G0 X13.67 Y16.764
G0 X13.815 Y17.026
G1 F720 X13.085 Y17.433 E96.66199
G1 X12.487 Y18.016 E96.70365
G1 X12.059 Y18.733 E96.74531
G1 X11.83 Y19.538 E96.78707
G1 X11.82 Y20.374 E96.82878
G1 X12.025 Y21.184 E96.87046
G1 X12.432 Y21.914 E96.91216
G1 X13.015 Y22.512 E96.95383
G1 X13.732 Y22.94 E96.99549
G1 X14.537 Y23.169 E97.03724
G1 X15.373 Y23.18 E97.07895
G1 X16.183 Y22.974 E97.12065
G1 X16.913 Y22.567 E97.16235
G1 X17.511 Y21.984 E97.20402
G1 X17.939 Y21.267 E97.24568
G1 X18.168 Y20.462 E97.28743
G1 X18.179 Y19.626 E97.32914
G1 X17.973 Y18.816 E97.37084
G1 X17.566 Y18.086 E97.41254
G1 X16.983 Y17.488 E97.4542
G1 X16.266 Y17.06 E97.49586
G1 X15.461 Y16.831 E97.53762
G1 X14.625 Y16.82 E97.57933
G1 X13.815 Y17.026 E97.62103
G0 F18000 X13.67 Y16.764
G0 X13.615 Y16.748
G0 X13.667 Y16.653
G0 X14.579 Y16.421
G0 X15.518 Y16.435
G0 X16.425 Y16.692
G0 X17.231 Y17.172
G0 X17.718 Y17.807
G0 X21.601 Y18.809
G0 X21.988 Y18.909
G0 X21.7 Y18.836
G0 X21.7 Y18.836
G0 X21.992 Y18.901
G1 F720 X21.81 Y19.715 E97.66264
G1 X21.845 Y20.552 E97.70444
G1 X22.095 Y21.349 E97.74611
G1 X22.543 Y22.054 E97.78778
G1 X23.159 Y22.62 E97.82952
G1 X23.9 Y23.007 E97.87122
G1 X24.716 Y23.189 E97.91294
G1 X25.551 Y23.154 E97.95463
G1 X26.348 Y22.904 E97.9963
G1 X27.053 Y22.456 E98.03798
G1 X27.619 Y21.84 E98.07971
G1 X28.006 Y21.099 E98.12142
G1 X28.188 Y20.284 E98.16308
G1 X28.153 Y19.448 E98.20483
G1 X27.903 Y18.651 E98.2465
G1 X27.455 Y17.946 E98.28817
G1 X26.839 Y17.38 E98.32991
G1 X26.098 Y16.993 E98.37161
G1 X25.283 Y16.811 E98.41328
G1 X24.447 Y16.846 E98.45502
G1 X23.65 Y17.096 E98.49669
G1 X22.945 Y17.544 E98.53837
G1 X22.379 Y18.16 E98.5801
G1 X21.992 Y18.901 E98.62181
G0 F18000 X21.7 Y18.836
G0 X21.599 Y18.824
G0 X21.615 Y18.763
G0 X22.051 Y17.93
G0 X22.687 Y17.237
G0 X23.481 Y16.732
G0 X24.379 Y16.451
G0 X25.318 Y16.411
G0 X26.236 Y16.616
G0 X27.069 Y17.052
G0 X27.762 Y17.688
G0 X28.267 Y18.482
G0 X28.548 Y19.38
G0 X28.557 Y19.623
G0 X31.394 Y19.949
G0 X31.791 Y19.995
G0 X31.501 Y19.962
G0 X31.501 Y19.962
G0 X31.797 Y20
G1 F720 X31.906 Y20.828 E98.66347
G1 X32.226 Y21.601 E98.70521
G1 X32.735 Y22.264 E98.74691
G1 X33.398 Y22.773 E98.78862
G1 X34.171 Y23.093 E98.83035
G1 X34.999 Y23.202 E98.87202
G1 X35.827 Y23.093 E98.91369
G1 X36.6 Y22.773 E98.95542
G1 X37.263 Y22.264 E98.99713
G1 X37.772 Y21.601 E99.03883
G1 X38.092 Y20.828 E99.08057
G1 X38.201 Y20 E99.12223
G1 X38.092 Y19.172 E99.1639
G1 X37.772 Y18.399 E99.20564
G1 X37.263 Y17.736 E99.24734
G1 X36.6 Y17.227 E99.28904
G1 X35.827 Y16.907 E99.33078
G1 X34.999 Y16.798 E99.37244
G1 X34.171 Y16.907 E99.41411
G1 X33.398 Y17.227 E99.45585
G1 X32.735 Y17.736 E99.49755
G1 X32.226 Y18.399 E99.53925
G1 X31.906 Y19.172 E99.58099
G1 X31.797 Y20 E99.62265
G0 F18000 X31.501 Y19.962
G0 X31.574 Y19.776
G0 X31.518 Y19.069
G0 X31.879 Y18.198
G0 X32.366 Y17.798
G0 X34.09 Y13.492
G0 X34.238 Y13.121
G0 X34.132 Y13.39
G0 X34.132 Y13.39
G0 X34.171 Y13.093
G1 F720 X34.999 Y13.202 E99.66432
G1 X35.827 Y13.093 E99.70598
G1 X36.6 Y12.773 E99.74772
G1 X37.263 Y12.264 E99.78942
G1 X37.772 Y11.601 E99.83112
G1 X38.092 Y10.828 E99.87286
G1 X38.201 Y10 E99.91453
G1 X38.092 Y9.172 E99.95619
G1 X37.772 Y8.399 E99.99793
G1 X37.263 Y7.736 E100.03963
G1 X36.6 Y7.227 E100.08133
G1 X35.827 Y6.907 E100.12307
G1 X34.999 Y6.798 E100.16474
G1 X34.171 Y6.907 E100.2064
G1 X33.398 Y7.227 E100.24814
G1 X32.735 Y7.736 E100.28984
G1 X32.226 Y8.399 E100.33155
G1 X31.906 Y9.172 E100.37328
G1 X31.797 Y10 E100.41495
G1 X31.906 Y10.828 E100.45662
G1 X32.226 Y11.601 E100.49835
G1 X32.735 Y12.264 E100.54006
G1 X33.398 Y12.773 E100.58176
G1 X34.171 Y13.093 E100.6235
G0 F18000 X34.132 Y13.39
G0 X34.143 Y13.385
G0 X34.999 Y13.603
G0 X35.93 Y13.481
G0 X36.801 Y13.12
G0 X37.546 Y12.547
G0 X37.835 Y12.018
G0 X41.464 Y10.675
G0 X41.839 Y10.536
G0 X41.559 Y10.641
G0 X41.559 Y10.641
G0 X41.845 Y10.552
G1 F720 X42.095 Y11.349 E100.66517
G1 X42.543 Y12.054 E100.70684
G1 X43.159 Y12.62 E100.74858
G1 X43.9 Y13.007 E100.79028
G1 X44.716 Y13.189 E100.83199
G1 X45.551 Y13.154 E100.87369
G1 X46.348 Y12.904 E100.91536
G1 X47.053 Y12.456 E100.95704
G1 X47.619 Y11.84 E100.99877
G1 X48.006 Y11.099 E101.04048
G1 X48.188 Y10.283 E101.08219
G1 X48.153 Y9.448 E101.12388
G1 X47.903 Y8.651 E101.16556
G1 X47.455 Y7.946 E101.20723
G1 X46.839 Y7.38 E101.24897
G1 X46.098 Y6.993 E101.29067
G1 X45.282 Y6.811 E101.33238
G1 X44.447 Y6.846 E101.37408
G1 X43.65 Y7.096 E101.41575
G1 X42.945 Y7.544 E101.45742
G1 X42.379 Y8.16 E101.49916
G1 X41.992 Y8.901 E101.54087
G1 X41.81 Y9.717 E101.58258
G1 X41.845 Y10.552 E101.62427
G0 F18000 X41.559 Y10.641
G0 X41.798 Y11.197
G0 X41.731 Y11.518
G0 X42.018 Y11.708
G0 X44.088 Y16.507
G0 X44.246 Y16.874
G0 X44.133 Y16.609
G0 X44.133 Y16.609
G0 X44.171 Y16.907
G1 F720 X43.398 Y17.227 E101.66601
G1 X42.735 Y17.736 E101.70771
G1 X42.226 Y18.399 E101.74941
G1 X41.906 Y19.172 E101.79115
G1 X41.797 Y20 E101.83282
G1 X41.906 Y20.828 E101.87448
G1 X42.226 Y21.601 E101.91622
G1 X42.735 Y22.264 E101.95792
G1 X43.398 Y22.773 E101.99962
G1 X44.171 Y23.093 E102.04136
G1 X44.999 Y23.202 E102.08303
G1 X45.827 Y23.093 E102.12469
G1 X46.6 Y22.773 E102.16643
G1 X47.263 Y22.264 E102.20813
G1 X47.772 Y21.601 E102.24983
G1 X48.092 Y20.828 E102.29157
G1 X48.201 Y20 E102.33324
G1 X48.092 Y19.172 E102.3749
G1 X47.772 Y18.399 E102.41664
G1 X47.263 Y17.736 E102.45834
G1 X46.6 Y17.227 E102.50005
G1 X45.827 Y16.907 E102.54178
G1 X44.999 Y16.798 E102.58345
G1 X44.171 Y16.907 E102.62512
G0 F18000 X44.133 Y16.609
G0 X35.343 Y13.778
G0 X34.068 Y13.481
G0 X33.425 Y13.161
G0 X28.277 Y11.503
G0 X27.896 Y11.38
G0 X28.173 Y11.47
G0 X28.173 Y11.47
G0 X27.919 Y11.313
G1 F720 X28.159 Y10.512 E102.66683
G1 X28.185 Y9.677 E102.70851
G1 X27.993 Y8.863 E102.75024
G1 X27.596 Y8.127 E102.79196
G1 X27.022 Y7.519 E102.83367
G1 X26.312 Y7.08 E102.87532
G1 X25.511 Y6.84 E102.91704
G1 X24.676 Y6.814 E102.95871
G1 X23.862 Y7.006 E103.00044
G1 X23.126 Y7.403 E103.04216
G1 X22.518 Y7.977 E103.08387
G1 X22.079 Y8.687 E103.12552
G1 X21.839 Y9.488 E103.16724
G1 X21.813 Y10.323 E103.20892
G1 X22.005 Y11.137 E103.25064
G1 X22.402 Y11.873 E103.29236
G1 X22.976 Y12.481 E103.33408
G1 X23.686 Y12.92 E103.37572
G1 X24.487 Y13.16 E103.41744
G1 X25.322 Y13.186 E103.45912
G1 X26.136 Y12.994 E103.50084
G1 X26.872 Y12.597 E103.54257
G1 X27.48 Y12.023 E103.58428
G1 X27.919 Y11.313 E103.62593
G0 F18000 X28.287 Y11.478
; TYPE:WALL-INNER
G1 F720 X28.557 Y10.577 E103.67285
G1 X28.586 Y9.636 E103.71982
G1 X28.37 Y8.72 E103.76677
G1 X27.923 Y7.891 E103.81376
G1 X27.277 Y7.206 E103.86074
G1 X26.477 Y6.712 E103.90765
G1 X25.576 Y6.442 E103.95457
G1 X24.635 Y6.413 E104.00154
G1 X23.719 Y6.629 E104.04849
G1 X22.89 Y7.076 E104.09548
G1 X22.205 Y7.722 E104.14246
G1 X21.711 Y8.522 E104.18937
G1 X21.441 Y9.423 E104.23629
G1 X21.412 Y10.364 E104.28326
G1 X21.628 Y11.28 E104.33021
G1 X22.075 Y12.109 E104.3772
G1 X22.721 Y12.794 E104.42418
G1 X23.521 Y13.288 E104.47108
G1 X24.422 Y13.558 E104.51801
G1 X25.363 Y13.587 E104.56498
G1 X26.279 Y13.371 E104.61193
G1 X27.108 Y12.924 E104.65892
G1 X27.793 Y12.278 E104.7059
G1 X28.287 Y11.478 E104.7528
G0 F18000 X31.516 Y10.933
G0 X31.516 Y10.933
G1 F720 X31.877 Y11.803 E104.7998
G1 X32.45 Y12.549 E104.84673
G1 X33.196 Y13.122 E104.89366
G1 X34.066 Y13.483 E104.94065
G1 X34.999 Y13.605 E104.98759
G1 X35.932 Y13.483 E105.03454
G1 X36.802 Y13.122 E105.08153
G1 X37.548 Y12.549 E105.12846
G1 X38.121 Y11.803 E105.17539
G1 X38.482 Y10.933 E105.22238
G1 X38.604 Y10 E105.26933
G1 X38.482 Y9.067 E105.31627
G1 X38.121 Y8.197 E105.36326
G1 X37.548 Y7.451 E105.41019
G1 X36.802 Y6.878 E105.45712
G1 X35.932 Y6.517 E105.50411
G1 X34.999 Y6.395 E105.55106
G1 X34.066 Y6.517 E105.598
G1 X33.196 Y6.878 E105.64499
G1 X32.45 Y7.451 E105.69192
G1 X31.877 Y8.197 E105.73885
G1 X31.516 Y9.067 E105.78585
G1 X31.394 Y10 E105.83279
G1 X31.516 Y10.933 E105.87974
G0 F18000 X34.066 Y16.517
G0 X34.066 Y16.517
G1 F720 X33.196 Y16.878 E105.92673
G1 X32.45 Y17.451 E105.97366
G1 X31.877 Y18.197 E106.02059
G1 X31.516 Y19.067 E106.06758
G1 X31.394 Y20 E106.11452
G1 X31.516 Y20.933 E106.16147
G1 X31.877 Y21.803 E106.20846
G1 X32.45 Y22.549 E106.25539
G1 X33.196 Y23.122 E106.30232
G1 X34.066 Y23.483 E106.34931
G1 X34.999 Y23.605 E106.39626
G1 X35.932 Y23.483 E106.4432
G1 X36.802 Y23.122 E106.49019
G1 X37.548 Y22.549 E106.53712
G1 X38.121 Y21.803 E106.58405
G1 X38.482 Y20.933 E106.63105
G1 X38.604 Y20 E106.67799
G1 X38.482 Y19.067 E106.72493
G1 X38.121 Y18.197 E106.77193
G1 X37.548 Y17.451 E106.81886
G1 X36.802 Y16.878 E106.86579
G1 X35.932 Y16.517 E106.91278
G1 X34.999 Y16.395 E106.95972
G1 X34.066 Y16.517 E107.00667
G0 F18000 X28.269 Y18.481
G0 X28.269 Y18.481
G1 F720 X27.764 Y17.687 E107.05361
G1 X27.071 Y17.05 E107.10057
G1 X26.237 Y16.614 E107.14752
G1 X25.318 Y16.409 E107.1945
G1 X24.378 Y16.449 E107.24144
G1 X23.48 Y16.73 E107.28838
G1 X22.686 Y17.235 E107.33533
G1 X22.049 Y17.928 E107.38229
G1 X21.613 Y18.762 E107.42924
G1 X21.409 Y19.678 E107.47606
G1 X21.448 Y20.621 E107.52315
G1 X21.729 Y21.519 E107.57009
G1 X22.234 Y22.313 E107.61704
G1 X22.927 Y22.95 E107.664
G1 X23.761 Y23.386 E107.71095
G1 X24.681 Y23.591 E107.75797
G1 X25.62 Y23.551 E107.80486
G1 X26.518 Y23.27 E107.85181
G1 X27.312 Y22.765 E107.89875
G1 X27.949 Y22.072 E107.94571
G1 X28.385 Y21.238 E107.99267
G1 X28.59 Y20.319 E108.03964
G1 X28.55 Y19.379 E108.08658
G1 X28.269 Y18.481 E108.13352
G0 F18000 X28.245 Y18.482
G0 X27.762 Y17.688
G0 X27.069 Y17.052
G0 X26.236 Y16.616
G0 X25.318 Y16.411
G0 X24.379 Y16.451
G0 X23.481 Y16.732
G0 X22.687 Y17.237
G0 X22.051 Y17.93
G0 X21.615 Y18.763
G0 X21.515 Y19.245
G0 X18.58 Y19.579
G0 X18.58 Y19.579
G1 F720 X18.348 Y18.667 E108.18047
G1 X17.889 Y17.845 E108.22744
G1 X17.233 Y17.171 E108.27437
G1 X16.426 Y16.689 E108.32126
G1 X15.52 Y16.432 E108.36825
G1 X14.578 Y16.419 E108.41525
G1 X13.666 Y16.651 E108.4622
G1 X12.844 Y17.11 E108.50917
G1 X12.17 Y17.766 E108.55609
G1 X11.688 Y18.573 E108.60299
G1 X11.431 Y19.48 E108.65002
G1 X11.419 Y20.421 E108.69697
G1 X11.65 Y21.333 E108.74391
G1 X12.109 Y22.155 E108.79088
G1 X12.765 Y22.829 E108.8378
G1 X13.572 Y23.311 E108.8847
G1 X14.478 Y23.568 E108.93168
G1 X15.42 Y23.581 E108.97868
G1 X16.332 Y23.349 E109.02563
G1 X17.154 Y22.89 E109.0726
G1 X17.828 Y22.234 E109.11952
G1 X18.31 Y21.427 E109.16642
G1 X18.567 Y20.521 E109.2134
G1 X18.58 Y19.579 E109.2604
G0 F18000 X18.543 Y19.485
G0 X18.346 Y18.668
G0 X17.893 Y17.787
G0 X16.211 Y13.395
G0 X16.211 Y13.395
G1 F720 X17.049 Y12.966 E109.30737
G1 X17.747 Y12.334 E109.35435
G1 X18.257 Y11.543 E109.4013
G1 X18.545 Y10.647 E109.44826
G1 X18.592 Y9.707 E109.49521
G1 X18.394 Y8.788 E109.54211
G1 X17.965 Y7.95 E109.58908
G1 X17.333 Y7.252 E109.63606
G1 X16.542 Y6.742 E109.68301
G1 X15.647 Y6.454 E109.72992
G1 X14.706 Y6.407 E109.77693
G1 X13.787 Y6.605 E109.82383
G1 X12.949 Y7.034 E109.8708
G1 X12.251 Y7.666 E109.91777
G1 X11.741 Y8.457 E109.96473
G1 X11.453 Y9.353 E110.01168
G1 X11.406 Y10.293 E110.05864
G1 X11.604 Y11.212 E110.10554
G1 X12.033 Y12.05 E110.15251
G1 X12.665 Y12.748 E110.19948
G1 X13.456 Y13.258 E110.24644
G1 X14.352 Y13.546 E110.29339
G1 X15.292 Y13.593 E110.34035
G1 X16.211 Y13.395 E110.38725
G0 F18000 X16.209 Y13.382
G0 X17.047 Y12.964
G0 X17.746 Y12.332
G0 X18.255 Y11.542
G0 X18.543 Y10.645
G0 X18.59 Y9.707
G0 X18.392 Y8.788
G0 X17.963 Y7.952
G0 X17.331 Y7.253
G0 X16.541 Y6.744
G0 X15.646 Y6.456
G0 X15.349 Y6.441
G0 X14.999 Y3.605
G0 X14.999 Y3.605
G1 F720 X15.932 Y3.483 E110.43419
G1 X16.802 Y3.122 E110.48118
G1 X17.548 Y2.549 E110.52811
G1 X18.121 Y1.803 E110.57504
G1 X18.482 Y0.933 E110.62204
G1 X18.604 Y0 E110.66898
G1 X18.482 Y-0.932 E110.71587
G1 X18.121 Y-1.802 E110.76291
G1 X17.548 Y-2.548 E110.80988
G1 X16.802 Y-3.121 E110.85684
G1 X15.932 Y-3.482 E110.90386
G1 X14.999 Y-3.604 E110.95081
G1 X14.066 Y-3.482 E110.99774
G1 X13.196 Y-3.121 E111.04472
G1 X12.45 Y-2.548 E111.09162
G1 X11.877 Y-1.801 E111.13855
G1 X11.516 Y-0.932 E111.18545
G1 X11.394 Y0 E111.23229
G1 X11.516 Y0.933 E111.27924
G1 X11.877 Y1.803 E111.32623
G1 X12.45 Y2.549 E111.37316
G1 X13.196 Y3.122 E111.42009
G1 X14.066 Y3.483 E111.46708
G1 X14.999 Y3.605 E111.51402
G0 F18000 X15.534 Y3.384
G0 X15.93 Y3.481
G0 X16.801 Y3.12
G0 X16.996 Y2.785
G0 X21.516 Y0.933
G0 X21.516 Y0.933
G1 F720 X21.877 Y1.803 E111.56102
G1 X22.45 Y2.549 E111.60795
G1 X23.196 Y3.122 E111.65488
G1 X24.066 Y3.483 E111.70187
G1 X24.999 Y3.605 E111.74881
G1 X25.932 Y3.483 E111.79576
G1 X26.802 Y3.122 E111.84275
G1 X27.548 Y2.549 E111.88968
G1 X28.121 Y1.803 E111.93661
G1 X28.482 Y0.933 E111.9836
G1 X28.604 Y0 E112.03055
G1 X28.482 Y-0.932 E112.07744
G1 X28.121 Y-1.802 E112.12448
G1 X27.548 Y-2.548 E112.17145
G1 X26.802 Y-3.121 E112.21841
G1 X25.932 Y-3.482 E112.26542
G1 X24.999 Y-3.604 E112.31237
G1 X24.066 Y-3.482 E112.35931
G1 X23.196 Y-3.121 E112.40628
G1 X22.45 Y-2.548 E112.45318
G1 X21.877 Y-1.802 E112.50007
G1 X21.516 Y-0.932 E112.54702
G1 X21.394 Y0 E112.59386
G1 X21.516 Y0.933 E112.64081
G0 F18000 X21.526 Y0.931
G0 X21.879 Y1.802
G0 X22.452 Y2.547
G0 X23.197 Y3.12
G0 X24.068 Y3.481
G0 X24.999 Y3.603
G0 X25.93 Y3.481
G0 X26.801 Y3.12
G0 X27.546 Y2.547
G0 X28.119 Y1.802
G0 X28.48 Y0.931
G0 X28.547 Y0.391
G0 X31.397 Y0.172
G0 X31.397 Y0.172
G1 F720 X31.566 Y1.099 E112.68782
G1 X31.967 Y1.949 E112.73471
G1 X32.575 Y2.668 E112.78168
G1 X33.348 Y3.205 E112.82864
G1 X34.233 Y3.523 E112.87556
G1 X35.171 Y3.602 E112.92252
G1 X36.098 Y3.433 E112.96953
G1 X36.948 Y3.032 E113.01642
G1 X37.667 Y2.425 E113.06337
G1 X38.204 Y1.651 E113.11036
G1 X38.522 Y0.766 E113.15728
G1 X38.601 Y-0.171 E113.20419
G1 X38.432 Y-1.098 E113.25125
G1 X38.031 Y-1.948 E113.29819
G1 X37.424 Y-2.667 E113.34517
G1 X36.65 Y-3.204 E113.3922
G1 X35.765 Y-3.522 E113.43913
G1 X34.827 Y-3.601 E113.4861
G1 X33.9 Y-3.432 E113.5331
G1 X33.05 Y-3.031 E113.57997
G1 X32.331 Y-2.424 E113.62688
G1 X31.794 Y-1.65 E113.67384
G1 X31.476 Y-0.765 E113.72071
G1 X31.397 Y0.172 E113.76757
G0 F18000 X31.399 Y0.171
G0 X31.568 Y1.098
G0 X31.969 Y1.948
G0 X32.577 Y2.665
G0 X33.349 Y3.203
G0 X34.234 Y3.521
G0 X35.17 Y3.599
G0 X36.097 Y3.431
G0 X36.947 Y3.03
G0 X37.664 Y2.424
G0 X38.202 Y1.65
G0 X38.52 Y0.765
G0 X38.58 Y0.048
G0 X41.394 Y0
G0 X41.394 Y0
G1 F720 X41.516 Y0.933 E113.81451
G1 X41.877 Y1.803 E113.86151
G1 X42.45 Y2.549 E113.90844
G1 X43.196 Y3.122 E113.95537
G1 X44.066 Y3.483 E114.00236
G1 X44.999 Y3.605 E114.0493
G1 X45.932 Y3.483 E114.09625
G1 X46.802 Y3.122 E114.14324
G1 X47.548 Y2.549 E114.19017
G1 X48.121 Y1.803 E114.2371
G1 X48.482 Y0.933 E114.28409
G1 X48.604 Y0 E114.33104
G1 X48.482 Y-0.932 E114.37793
G1 X48.121 Y-1.802 E114.42497
G1 X47.548 Y-2.548 E114.47194
G1 X46.802 Y-3.121 E114.5189
G1 X45.932 Y-3.482 E114.56591
G1 X44.999 Y-3.604 E114.61286
G1 X44.066 Y-3.482 E114.6598
G1 X43.196 Y-3.121 E114.70677
G1 X42.45 Y-2.548 E114.75367
G1 X41.877 Y-1.802 E114.80056
G1 X41.516 Y-0.932 E114.84751
G1 X41.394 Y0 E114.89435
G0 F18000 X41.476 Y0.268
G0 X41.518 Y0.931
G0 X41.801 Y1.315
G0 X43.48 Y6.73
G0 X43.48 Y6.73
G1 F720 X42.686 Y7.235 E114.9413
G1 X42.049 Y7.928 E114.98826
G1 X41.613 Y8.762 E115.03521
G1 X41.408 Y9.682 E115.08224
G1 X41.448 Y10.623 E115.12923
G1 X41.729 Y11.519 E115.17607
G1 X42.234 Y12.313 E115.22302
G1 X42.927 Y12.95 E115.26998
G1 X43.761 Y13.386 E115.31693
G1 X44.681 Y13.591 E115.36396
G1 X45.62 Y13.551 E115.41085
G1 X46.518 Y13.27 E115.45779
G1 X47.312 Y12.765 E115.50474
G1 X47.949 Y12.072 E115.5517
G1 X48.385 Y11.238 E115.59865
G1 X48.59 Y10.318 E115.64567
G1 X48.55 Y9.379 E115.69256
G1 X48.269 Y8.481 E115.73951
G1 X47.764 Y7.687 E115.78645
G1 X47.071 Y7.05 E115.83341
G1 X46.237 Y6.614 E115.88036
G1 X45.317 Y6.409 E115.92739
G1 X44.378 Y6.449 E115.97428
G1 X43.48 Y6.73 E116.02122
G0 F18000 X43.481 Y6.747
G0 X42.687 Y7.237
G0 X42.051 Y7.93
G0 X41.615 Y8.764
G0 X41.41 Y9.682
G0 X41.451 Y10.622
G0 X41.49 Y10.752
G0 X41.731 Y11.518
G0 X42.236 Y12.312
G0 X42.929 Y12.948
G0 X43.763 Y13.384
G0 X44.55 Y13.547
G0 X44.999 Y16.395
G0 X44.999 Y16.395
G1 F720 X44.066 Y16.517 E116.06817
G1 X43.196 Y16.878 E116.11516
G1 X42.45 Y17.451 E116.16209
G1 X41.877 Y18.197 E116.20902
G1 X41.516 Y19.067 E116.25601
G1 X41.394 Y20 E116.30295
G1 X41.516 Y20.933 E116.3499
G1 X41.877 Y21.803 E116.39689
G1 X42.45 Y22.549 E116.44382
G1 X43.196 Y23.122 E116.49075
G1 X44.066 Y23.483 E116.53774
G1 X44.999 Y23.605 E116.58469
G1 X45.932 Y23.483 E116.63163
G1 X46.802 Y23.122 E116.67862
G1 X47.548 Y22.549 E116.72555
G1 X48.121 Y21.803 E116.77248
G1 X48.482 Y20.933 E116.81948
G1 X48.604 Y20 E116.86642
G1 X48.482 Y19.067 E116.91336
G1 X48.121 Y18.197 E116.96036
G1 X47.548 Y17.451 E117.00729
G1 X46.802 Y16.878 E117.05422
G1 X45.932 Y16.517 E117.10121
G1 X44.999 Y16.395 E117.14815
G0 F18000 X45.043 Y16.456
G0 X45.93 Y16.519
G0 X46.801 Y16.88
G0 X47.546 Y17.453
G0 X48.119 Y18.198
G0 X48.48 Y19.069
G0 X48.602 Y20
G0 X48.399 Y21.07
G0 X54.611 Y29.61
G0 X54.611 Y29.61
G1 F720 X54.572 Y29.904 E117.16295
G1 X54.49 Y30.097 E117.17341
G1 X54.346 Y30.286 E117.18527
G1 X54.159 Y30.428 E117.19698
G1 X53.965 Y30.511 E117.20751
G1 X53.673 Y30.55 E117.2222
G1 X-53.669 Y30.55 E122.57752
G1 X-53.959 Y30.512 E122.59216
G1 X-54.154 Y30.431 E122.60274
G1 X-54.345 Y30.287 E122.61471
G1 X-54.489 Y30.097 E122.62664
G1 X-54.569 Y29.912 E122.63671
G1 X-54.61 Y29.523 E122.65623
G1 X-54.61 Y-29.608 E125.60629
G1 X-54.572 Y-29.898 E125.62093
G1 X-54.491 Y-30.093 E125.63149
G1 X-54.347 Y-30.284 E125.64343
G1 X-54.158 Y-30.427 E125.65525
G1 X-53.964 Y-30.51 E125.66575
G1 X-53.672 Y-30.549 E125.6804
G1 X53.67 Y-30.549 E131.03567
G1 X53.96 Y-30.511 E131.05025
G1 X54.155 Y-30.43 E131.06077
G1 X54.345 Y-30.286 E131.07263
G1 X54.49 Y-30.096 E131.08452
G1 X54.572 Y-29.903 E131.09493
G1 X54.611 Y-29.609 E131.10968
G1 X54.611 Y29.61 E134.06408
G0 F18000 X47.966 Y1.955
G0 X48.48 Y0.931
G0 X48.602 Y0
G0 X48.48 Y-0.93
G0 X48.119 Y-1.801
G0 X47.546 Y-2.546
G0 X46.801 Y-3.119
G0 X46.752 Y-3.1
G0 X45.932 Y-6.516
G0 X45.932 Y-6.516
G1 F720 X46.802 Y-6.877 E134.11109
G1 X47.548 Y-7.45 E134.15805
G1 X48.121 Y-8.196 E134.20502
G1 X48.482 Y-9.066 E134.25206
G1 X48.604 Y-9.999 E134.29905
G1 X48.482 Y-10.932 E134.34604
G1 X48.121 Y-11.802 E134.39308
G1 X47.548 Y-12.548 E134.44005
G1 X46.802 Y-13.121 E134.48701
G1 X45.932 Y-13.482 E134.53402
G1 X44.999 Y-13.604 E134.58097
G1 X44.066 Y-13.482 E134.62791
G1 X43.196 Y-13.121 E134.67489
G1 X42.45 Y-12.548 E134.72178
G1 X41.877 Y-11.802 E134.76867
G1 X41.516 Y-10.932 E134.81562
G1 X41.394 Y-9.999 E134.86252
G1 X41.517 Y-9.063 E134.90957
G1 X41.877 Y-8.196 E134.95635
G1 X42.45 Y-7.45 E135.00324
G1 X43.196 Y-6.877 E135.05014
G1 X44.066 Y-6.516 E135.09712
G1 X44.999 Y-6.394 E135.14406
G1 X45.932 Y-6.516 E135.19101
G0 F18000 X45.649 Y-6.599
G0 X44.999 Y-6.396
G0 X44.068 Y-6.518
G0 X43.197 Y-6.879
G0 X42.452 Y-7.452
G0 X42.487 Y-7.534
G0 X38.381 Y-8.75
G0 X38.381 Y-8.75
G1 F720 X38.589 Y-9.667 E135.23797
G1 X38.553 Y-10.608 E135.285
G1 X38.274 Y-11.507 E135.33201
G1 X37.771 Y-12.303 E135.37902
G1 X37.08 Y-12.942 E135.42601
G1 X36.248 Y-13.381 E135.47297
G1 X35.331 Y-13.589 E135.51989
G1 X34.39 Y-13.553 E135.56687
G1 X33.491 Y-13.274 E135.61382
G1 X32.695 Y-12.771 E135.66077
G1 X32.056 Y-12.08 E135.70769
G1 X31.617 Y-11.248 E135.75458
G1 X31.409 Y-10.331 E135.80144
G1 X31.445 Y-9.392 E135.84827
G1 X31.724 Y-8.49 E135.89533
G1 X32.227 Y-7.695 E135.94222
G1 X32.918 Y-7.056 E135.98914
G1 X33.75 Y-6.617 E136.03605
G1 X34.667 Y-6.409 E136.08295
G1 X35.608 Y-6.445 E136.12993
G1 X36.507 Y-6.724 E136.17691
G1 X37.304 Y-7.227 E136.22396
G1 X37.942 Y-7.918 E136.27091
G1 X38.381 Y-8.75 E136.31789
G0 F18000 X38.377 Y-8.749
G0 X38.378 Y-8.751
G0 X37.94 Y-7.919
G0 X37.302 Y-7.229
G0 X36.506 Y-6.727
G0 X35.607 Y-6.447
G0 X34.668 Y-6.411
G0 X33.751 Y-6.62
G0 X32.919 Y-7.058
G0 X32.229 Y-7.697
G0 X31.727 Y-8.492
G0 X31.472 Y-9.349
G0 X28.582 Y-9.601
G0 X28.582 Y-9.601
G1 F720 X28.563 Y-10.542 E136.3649
G1 X28.301 Y-11.446 E136.4119
G1 X27.814 Y-12.251 E136.45888
G1 X27.136 Y-12.904 E136.50588
G1 X26.31 Y-13.357 E136.5529
G1 X25.397 Y-13.582 E136.59983
G1 X24.456 Y-13.563 E136.64678
G1 X23.552 Y-13.301 E136.69373
G1 X22.747 Y-12.814 E136.74064
G1 X22.094 Y-12.136 E136.78757
G1 X21.641 Y-11.31 E136.83452
G1 X21.416 Y-10.397 E136.88139
G1 X21.435 Y-9.456 E136.92829
G1 X21.697 Y-8.552 E136.9752
G1 X22.185 Y-7.747 E137.02212
G1 X22.863 Y-7.094 E137.06905
G1 X23.688 Y-6.641 E137.11598
G1 X24.601 Y-6.416 E137.16289
G1 X25.542 Y-6.435 E137.20984
G1 X26.446 Y-6.697 E137.25681
G1 X27.251 Y-7.184 E137.30378
G1 X27.904 Y-7.862 E137.35078
G1 X28.357 Y-8.688 E137.39782
G1 X28.582 Y-9.601 E137.44478
G0 F18000 X28.58 Y-9.6
G0 X28.58 Y-9.601
G0 X28.355 Y-8.689
G0 X27.902 Y-7.864
G0 X27.249 Y-7.186
G0 X26.445 Y-6.699
G0 X25.542 Y-6.437
G0 X24.601 Y-6.418
G0 X23.689 Y-6.643
G0 X22.865 Y-7.096
G0 X22.186 Y-7.748
G0 X21.699 Y-8.553
G0 X21.437 Y-9.456
G0 X21.425 Y-9.885
G0 X18.604 Y-9.999
G0 X18.604 Y-9.999
G1 F720 X18.482 Y-10.932 E137.49177
G1 X18.121 Y-11.802 E137.53881
G1 X17.548 Y-12.548 E137.58578
G1 X16.802 Y-13.121 E137.63274
G1 X15.932 Y-13.482 E137.67976
G1 X14.999 Y-13.604 E137.72671
G1 X14.066 Y-13.482 E137.77364
G1 X13.196 Y-13.121 E137.82062
G1 X12.45 Y-12.548 E137.86752
G1 X11.877 Y-11.802 E137.91441
G1 X11.516 Y-10.932 E137.96135
G1 X11.394 Y-9.999 E138.00825
G1 X11.516 Y-9.066 E138.05514
G1 X11.877 Y-8.196 E138.10209
G1 X12.45 Y-7.45 E138.14898
G1 X13.196 Y-6.877 E138.19588
G1 X14.066 Y-6.516 E138.24285
G1 X14.999 Y-6.394 E138.28979
G1 X15.932 Y-6.516 E138.33674
G1 X16.802 Y-6.877 E138.38375
G1 X17.548 Y-7.45 E138.43071
G1 X18.121 Y-8.196 E138.47768
G1 X18.482 Y-9.066 E138.52472
G1 X18.604 Y-9.999 E138.57171
G0 F18000 X18.601 Y-9.998
G0 X18.602 Y-9.999
G0 X18.48 Y-9.068
G0 X18.119 Y-8.197
G0 X17.546 Y-7.452
G0 X16.801 Y-6.879
G0 X15.93 Y-6.518
G0 X14.999 Y-6.396
G0 X14.068 Y-6.518
G0 X13.197 Y-6.879
G0 X12.452 Y-7.452
G0 X11.879 Y-8.197
G0 X11.518 Y-9.068
G0 X11.417 Y-9.814
G0 X8.595 Y-9.742
G0 X8.595 Y-9.742
G1 F720 X8.539 Y-10.682 E138.61874
G1 X8.241 Y-11.575 E138.66576
G1 X7.723 Y-12.36 E138.71272
G1 X7.02 Y-12.984 E138.75965
G1 X6.178 Y-13.406 E138.80666
G1 X5.256 Y-13.595 E138.85363
G1 X4.316 Y-13.539 E138.9006
G1 X3.423 Y-13.241 E138.94755
G1 X2.638 Y-12.723 E138.99445
G1 X2.014 Y-12.019 E139.04135
G1 X1.592 Y-11.178 E139.08824
G1 X1.403 Y-10.256 E139.13515
G1 X1.459 Y-9.316 E139.18208
G1 X1.757 Y-8.423 E139.229
G1 X2.275 Y-7.638 E139.27588
G1 X2.979 Y-7.014 E139.32278
G1 X3.82 Y-6.592 E139.3697
G1 X4.742 Y-6.403 E139.41665
G1 X5.682 Y-6.459 E139.46363
G1 X6.575 Y-6.757 E139.51061
G1 X7.36 Y-7.275 E139.55756
G1 X7.985 Y-7.979 E139.60457
G1 X8.406 Y-8.82 E139.65153
G1 X8.595 Y-9.742 E139.69854
G0 F18000 X8.559 Y-9.637
G0 X8.404 Y-8.821
G0 X8.005 Y-7.987
G0 X6.434 Y-3.306
G0 X6.434 Y-3.306
G1 F720 X5.529 Y-3.565 E139.74552
G1 X4.588 Y-3.58 E139.79247
G1 X3.676 Y-3.352 E139.83936
G1 X2.853 Y-2.895 E139.8863
G1 X2.176 Y-2.241 E139.93322
G1 X1.692 Y-1.434 E139.98013
G1 X1.433 Y-0.529 E140.02704
G1 X1.418 Y0.411 E140.0739
G1 X1.646 Y1.323 E140.1208
G1 X2.103 Y2.146 E140.16776
G1 X2.757 Y2.823 E140.21472
G1 X3.564 Y3.307 E140.26167
G1 X4.469 Y3.566 E140.30863
G1 X5.41 Y3.581 E140.35559
G1 X6.322 Y3.353 E140.40249
G1 X7.145 Y2.896 E140.44945
G1 X7.822 Y2.242 E140.49641
G1 X8.306 Y1.435 E140.54336
G1 X8.564 Y0.53 E140.59031
G1 X8.581 Y-0.41 E140.63722
G1 X8.353 Y-1.322 E140.68416
G1 X7.895 Y-2.145 E140.7312
G1 X7.241 Y-2.822 E140.77819
G1 X6.434 Y-3.306 E140.82517
G0 F18000 X6.433 Y-3.304
G0 X6.433 Y-3.304
G0 X7.24 Y-2.82
G0 X7.893 Y-2.144
G0 X8.351 Y-1.321
G0 X8.579 Y-0.409
G0 X8.562 Y0.529
G0 X8.304 Y1.434
G0 X7.82 Y2.241
G0 X7.143 Y2.894
G0 X6.321 Y3.351
G0 X5.421 Y3.562
G0 X5.005 Y6.395
G0 X5.005 Y6.395
G1 F720 X4.073 Y6.516 E140.87206
G1 X3.201 Y6.874 E140.91908
G1 X2.453 Y7.447 E140.96609
G1 X1.88 Y8.193 E141.01302
G1 X1.519 Y9.06 E141.05988
G1 X1.394 Y9.994 E141.10689
G1 X1.515 Y10.926 E141.15378
G1 X1.873 Y11.798 E141.20081
G1 X2.445 Y12.545 E141.24774
G1 X3.192 Y13.12 E141.29478
G1 X4.061 Y13.48 E141.3417
G1 X4.993 Y13.605 E141.38862
G1 X5.926 Y13.484 E141.43555
G1 X6.797 Y13.126 E141.48254
G1 X7.544 Y12.554 E141.52947
G1 X8.119 Y11.807 E141.57651
G1 X8.479 Y10.938 E141.62343
G1 X8.604 Y10.006 E141.67035
G1 X8.483 Y9.074 E141.71723
G1 X8.125 Y8.202 E141.76426
G1 X7.553 Y7.455 E141.8112
G1 X6.806 Y6.88 E141.85823
G1 X5.937 Y6.52 E141.90516
G1 X5.005 Y6.395 E141.95207
G0 F18000 X5.004 Y6.398
G0 X5.936 Y6.521
G0 X6.805 Y6.882
G0 X7.551 Y7.456
G0 X8.123 Y8.204
G0 X8.481 Y9.074
G0 X8.602 Y10.006
G0 X8.478 Y10.937
G0 X8.117 Y11.806
G0 X7.543 Y12.552
G0 X6.795 Y13.124
G0 X5.926 Y13.482
G0 X5.314 Y13.562
G0 X5.438 Y16.421
G0 X5.438 Y16.421
G1 F720 X4.496 Y16.43 E141.99907
G1 X3.59 Y16.682 E142.04599
G1 X2.865 Y17.109 E142.08797
G1 X2.71 Y17.23 E142.09778
G1 X2.12 Y17.831 E142.13979
G1 X1.656 Y18.649 E142.18671
G1 X1.42 Y19.561 E142.23371
G1 X1.429 Y20.503 E142.28071
G1 X1.681 Y21.409 E142.32763
G1 X2.158 Y22.22 E142.37457
G1 X2.83 Y22.879 E142.42152
G1 X3.648 Y23.343 E142.46844
G1 X4.56 Y23.579 E142.51544
G1 X5.502 Y23.57 E142.56244
G1 X6.408 Y23.318 E142.60936
G1 X7.219 Y22.841 E142.6563
G1 X7.878 Y22.169 E142.70325
G1 X8.342 Y21.351 E142.75017
G1 X8.578 Y20.439 E142.79717
G1 X8.569 Y19.497 E142.84417
G1 X8.317 Y18.591 E142.89109
G1 X7.84 Y17.78 E142.93803
G1 X7.168 Y17.121 E142.98498
G1 X6.35 Y16.657 E143.0319
G1 X5.438 Y16.421 E143.0789
G0 F18000 X4.92 Y16.571
G0 X4.498 Y16.431
G0 X3.591 Y16.684
G0 X3.249 Y17.057
G0 X-1.721 Y18.504
G0 X-1.721 Y18.504
G1 F720 X-2.219 Y17.706 E143.12586
G1 X-2.908 Y17.064 E143.17288
G1 X-3.739 Y16.622 E143.21988
G1 X-4.656 Y16.412 E143.26686
G1 X-5.597 Y16.444 E143.31388
G1 X-6.496 Y16.721 E143.36086
G1 X-7.294 Y17.219 E143.40784
G1 X-7.936 Y17.908 E143.45485
G1 X-8.377 Y18.74 E143.50186
G1 X-8.588 Y19.656 E143.54876
G1 X-8.556 Y20.597 E143.59573
G1 X-8.279 Y21.496 E143.64265
G1 X-7.781 Y22.294 E143.68955
G1 X-7.092 Y22.936 E143.7365
G1 X-6.261 Y23.378 E143.78342
G1 X-5.344 Y23.588 E143.8303
G1 X-4.403 Y23.556 E143.87723
G1 X-3.504 Y23.279 E143.92411
G1 X-2.706 Y22.781 E143.971
G1 X-2.064 Y22.092 E144.01795
G1 X-1.622 Y21.261 E144.06488
G1 X-1.412 Y20.344 E144.1118
G1 X-1.444 Y19.403 E144.15878
G1 X-1.721 Y18.504 E144.20573
G0 F18000 X-3.551 Y13.301
G0 X-3.551 Y13.301
G1 F720 X-2.746 Y12.813 E144.25265
G1 X-2.094 Y12.134 E144.29958
G1 X-1.641 Y11.31 E144.34647
G1 X-1.416 Y10.395 E144.39346
G1 X-1.437 Y9.454 E144.44042
G1 X-1.699 Y8.551 E144.48735
G1 X-2.187 Y7.746 E144.53434
G1 X-2.866 Y7.094 E144.58134
G1 X-3.69 Y6.641 E144.62829
G1 X-4.605 Y6.416 E144.67535
G1 X-5.546 Y6.437 E144.72236
G1 X-6.449 Y6.699 E144.76932
G1 X-7.254 Y7.187 E144.81632
G1 X-7.906 Y7.866 E144.86332
G1 X-8.359 Y8.69 E144.91026
G1 X-8.584 Y9.605 E144.95728
G1 X-8.563 Y10.546 E145.00424
G1 X-8.301 Y11.449 E145.05113
G1 X-7.813 Y12.254 E145.09807
G1 X-7.134 Y12.906 E145.145
G1 X-6.31 Y13.359 E145.19187
G1 X-5.395 Y13.584 E145.23883
G1 X-4.454 Y13.563 E145.28574
G1 X-3.551 Y13.301 E145.3326
G0 F18000 X-3.552 Y13.28
G0 X-2.747 Y12.812
G0 X-2.096 Y12.133
G0 X-1.643 Y11.309
G0 X-1.419 Y10.394
G0 X-1.439 Y9.455
G0 X-1.701 Y8.552
G0 X-2.188 Y7.747
G0 X-2.867 Y7.096
G0 X-3.691 Y6.643
G0 X-4.242 Y6.516
G0 X-4.542 Y3.576
G0 X-4.542 Y3.576
G1 F720 X-3.632 Y3.336 E145.3795
G1 X-2.815 Y2.867 E145.42646
G1 X-2.147 Y2.205 E145.47334
G1 X-1.674 Y1.391 E145.52029
G1 X-1.427 Y0.483 E145.56722
G1 X-1.424 Y-0.457 E145.61412
G1 X-1.664 Y-1.367 E145.66113
G1 X-2.133 Y-2.184 E145.7082
G1 X-2.795 Y-2.852 E145.75519
G1 X-3.609 Y-3.325 E145.80223
G1 X-4.517 Y-3.572 E145.84923
G1 X-5.458 Y-3.575 E145.89623
G1 X-6.368 Y-3.335 E145.94322
G1 X-7.185 Y-2.866 E145.99024
G1 X-7.853 Y-2.204 E146.03716
G1 X-8.326 Y-1.39 E146.08411
G1 X-8.573 Y-0.482 E146.13102
G1 X-8.576 Y0.458 E146.17787
G1 X-8.336 Y1.368 E146.22481
G1 X-7.867 Y2.185 E146.27178
G1 X-7.205 Y2.853 E146.31866
G1 X-6.391 Y3.326 E146.36559
G1 X-5.483 Y3.573 E146.41249
G1 X-4.542 Y3.576 E146.45939
G0 F18000 X-4.542 Y3.57
G0 X-3.634 Y3.334
G0 X-2.817 Y2.866
G0 X-2.149 Y2.204
G0 X-1.676 Y1.391
G0 X-1.429 Y0.482
G0 X-1.426 Y-0.456
G0 X-1.666 Y-1.365
G0 X-2.134 Y-2.182
G0 X-2.796 Y-2.85
G0 X-3.609 Y-3.323
G0 X-4.518 Y-3.57
G0 X-4.749 Y-3.571
G0 X-4.832 Y-6.397
G0 X-4.832 Y-6.397
G1 F720 X-3.905 Y-6.564 E146.50634
G1 X-3.053 Y-6.965 E146.55329
G1 X-2.334 Y-7.572 E146.60023
G1 X-1.797 Y-8.344 E146.64716
G1 X-1.478 Y-9.23 E146.69417
G1 X-1.398 Y-10.167 E146.74113
G1 X-1.565 Y-11.094 E146.78819
G1 X-1.966 Y-11.946 E146.83523
G1 X-2.573 Y-12.665 E146.88225
G1 X-3.345 Y-13.202 E146.92923
G1 X-4.231 Y-13.521 E146.97628
G1 X-5.168 Y-13.601 E147.02325
G1 X-6.095 Y-13.434 E147.07028
G1 X-6.947 Y-13.033 E147.11728
G1 X-7.666 Y-12.426 E147.16423
G1 X-8.203 Y-11.654 E147.21114
G1 X-8.522 Y-10.768 E147.25809
G1 X-8.602 Y-9.831 E147.30496
G1 X-8.435 Y-8.904 E147.3519
G1 X-8.034 Y-8.052 E147.39881
G1 X-7.427 Y-7.333 E147.44568
G1 X-6.655 Y-6.796 E147.49253
G1 X-5.769 Y-6.477 E147.53945
G1 X-4.832 Y-6.397 E147.58631
G0 F18000 X-4.831 Y-6.398
G0 X-3.906 Y-6.567
G0 X-3.055 Y-6.966
G0 X-2.336 Y-7.573
G0 X-1.8 Y-8.346
G0 X-1.48 Y-9.231
G0 X-1.401 Y-10.167
G0 X-1.568 Y-11.093
G0 X-1.967 Y-11.944
G0 X-2.574 Y-12.663
G0 X-3.347 Y-13.199
G0 X-4.232 Y-13.519
G0 X-5.163 Y-13.597
G0 X-5.293 Y-16.406
G0 X-5.293 Y-16.406
G1 F720 X-4.353 Y-16.453 E147.63322
G1 X-3.457 Y-16.741 E147.68014
G1 X-2.666 Y-17.251 E147.72708
G1 X-2.034 Y-17.949 E147.77406
G1 X-1.605 Y-18.787 E147.82105
G1 X-1.407 Y-19.706 E147.86799
G1 X-1.454 Y-20.646 E147.915
G1 X-1.742 Y-21.542 E147.96201
G1 X-2.252 Y-22.333 E148.00904
G1 X-2.95 Y-22.965 E148.05609
G1 X-3.786 Y-23.394 E148.10303
G1 X-4.707 Y-23.592 E148.15009
G1 X-5.647 Y-23.545 E148.19709
G1 X-6.543 Y-23.257 E148.24408
G1 X-7.334 Y-22.747 E148.29105
G1 X-7.965 Y-22.049 E148.33799
G1 X-8.395 Y-21.212 E148.38491
G1 X-8.593 Y-20.292 E148.43183
G1 X-8.546 Y-19.352 E148.47873
G1 X-8.258 Y-18.456 E148.52562
G1 X-7.748 Y-17.665 E148.57251
G1 X-7.05 Y-17.033 E148.61941
G1 X-6.212 Y-16.604 E148.66631
G1 X-5.293 Y-16.406 E148.71315
G0 F18000 X-4.894 Y-16.561
G0 X-4.355 Y-16.455
G0 X-3.458 Y-16.743
G0 X-2.668 Y-17.252
G0 X-2.642 Y-17.441
G0 X1.516 Y-19.066
G0 X1.516 Y-19.066
G1 F720 X1.877 Y-18.196 E148.7601
G1 X2.45 Y-17.45 E148.80699
G1 X3.196 Y-16.877 E148.85389
G1 X4.066 Y-16.516 E148.90086
G1 X4.999 Y-16.394 E148.9478
G1 X5.932 Y-16.516 E148.99475
G1 X6.802 Y-16.877 E149.04176
G1 X7.548 Y-17.45 E149.08872
G1 X8.121 Y-18.196 E149.13569
G1 X8.482 Y-19.066 E149.18273
G1 X8.604 Y-19.999 E149.22973
G1 X8.482 Y-20.932 E149.27672
G1 X8.121 Y-21.802 E149.32376
G1 X7.608 Y-22.47 E149.36582
G1 X7.47 Y-22.608 E149.37559
G1 X6.802 Y-23.121 E149.41764
G1 X5.932 Y-23.482 E149.46465
G1 X4.999 Y-23.604 E149.5116
G1 X4.066 Y-23.482 E149.55854
G1 X3.196 Y-23.121 E149.60551
G1 X2.45 Y-22.548 E149.65241
G1 X1.877 Y-21.802 E149.6993
G1 X1.516 Y-20.932 E149.74625
G1 X1.394 Y-19.999 E149.79315
G1 X1.516 Y-19.066 E149.84004
G0 F18000 X1.526 Y-19.066
G0 X1.879 Y-18.197
G0 X2.452 Y-17.452
G0 X3.197 Y-16.879
G0 X4.068 Y-16.518
G0 X4.999 Y-16.396
G0 X5.93 Y-16.518
G0 X6.801 Y-16.879
G0 X7.546 Y-17.452
G0 X8.119 Y-18.197
G0 X8.48 Y-19.068
G0 X8.526 Y-19.439
G0 X11.417 Y-19.594
G0 X11.417 Y-19.594
G1 F720 X11.644 Y-18.681 E149.88693
G1 X12.099 Y-17.858 E149.9338
G1 X12.752 Y-17.18 E149.98073
G1 X13.558 Y-16.694 E150.02766
G1 X14.463 Y-16.434 E150.07462
G1 X15.404 Y-16.417 E150.12157
G1 X16.317 Y-16.644 E150.16852
G1 X17.14 Y-17.099 E150.21546
G1 X17.818 Y-17.752 E150.26246
G1 X18.304 Y-18.558 E150.30946
G1 X18.564 Y-19.462 E150.35644
G1 X18.581 Y-20.404 E150.40349
G1 X18.354 Y-21.317 E150.45048
G1 X17.899 Y-22.14 E150.49744
G1 X17.246 Y-22.818 E150.54444
G1 X16.44 Y-23.304 E150.59142
G1 X15.536 Y-23.564 E150.63836
G1 X14.595 Y-23.581 E150.68532
G1 X13.681 Y-23.354 E150.73229
G1 X12.858 Y-22.899 E150.77918
G1 X12.18 Y-22.246 E150.82611
G1 X11.694 Y-21.44 E150.87302
G1 X11.434 Y-20.536 E150.9199
G1 X11.417 Y-19.594 E150.96686
G0 F18000 X11.42 Y-19.593
G0 X11.646 Y-18.681
G0 X12.101 Y-17.859
G0 X12.753 Y-17.182
G0 X13.56 Y-16.696
G0 X14.464 Y-16.436
G0 X15.403 Y-16.419
G0 X16.317 Y-16.646
G0 X17.139 Y-17.101
G0 X17.816 Y-17.753
G0 X18.302 Y-18.56
G0 X18.562 Y-19.463
G0 X18.57 Y-19.883
G0 X21.394 Y-19.999
G0 X21.394 Y-19.999
G1 F720 X21.516 Y-19.066 E151.01375
G1 X21.877 Y-18.196 E151.0607
G1 X22.45 Y-17.45 E151.10759
G1 X23.196 Y-16.877 E151.15449
G1 X24.066 Y-16.516 E151.20146
G1 X24.999 Y-16.394 E151.2484
G1 X25.932 Y-16.516 E151.29535
G1 X26.802 Y-16.877 E151.34236
G1 X27.548 Y-17.45 E151.38932
G1 X28.121 Y-18.196 E151.43629
G1 X28.482 Y-19.066 E151.48333
G1 X28.604 Y-19.999 E151.53032
G1 X28.482 Y-20.932 E151.57732
G1 X28.121 Y-21.802 E151.62436
G1 X27.548 Y-22.548 E151.67133
G1 X26.802 Y-23.121 E151.71829
G1 X25.932 Y-23.482 E151.7653
G1 X24.999 Y-23.604 E151.81225
G1 X24.066 Y-23.482 E151.85919
G1 X23.196 Y-23.121 E151.90616
G1 X22.45 Y-22.548 E151.95306
G1 X21.877 Y-21.802 E151.99995
G1 X21.517 Y-20.933 E152.04683
G1 X21.394 Y-19.999 E152.09378
G0 F18000 X21.396 Y-19.999
G0 X21.518 Y-19.068
G0 X21.879 Y-18.197
G0 X22.452 Y-17.452
G0 X23.197 Y-16.879
G0 X24.068 Y-16.518
G0 X24.999 Y-16.396
G0 X25.93 Y-16.518
G0 X26.801 Y-16.879
G0 X27.546 Y-17.452
G0 X28.119 Y-18.197
G0 X28.48 Y-19.068
G0 X28.602 Y-19.999
G0 X28.602 Y-19.999
G0 X31.394 Y-19.999
G0 X31.394 Y-19.999
G1 F720 X31.516 Y-19.066 E152.14068
G1 X31.877 Y-18.196 E152.18762
G1 X32.45 Y-17.45 E152.23451
G1 X33.196 Y-16.877 E152.28141
G1 X34.066 Y-16.516 E152.32839
G1 X34.999 Y-16.394 E152.37532
G1 X35.932 Y-16.516 E152.42227
G1 X36.802 Y-16.877 E152.46928
G1 X37.548 Y-17.45 E152.51625
G1 X38.121 Y-18.196 E152.56321
G1 X38.482 Y-19.066 E152.61025
G1 X38.604 Y-19.999 E152.65725
G1 X38.482 Y-20.932 E152.70424
G1 X38.121 Y-21.802 E152.75128
G1 X37.548 Y-22.548 E152.79825
G1 X36.802 Y-23.121 E152.84521
G1 X35.932 Y-23.482 E152.89222
G1 X34.999 Y-23.604 E152.93917
G1 X34.066 Y-23.482 E152.98611
G1 X33.196 Y-23.121 E153.03308
G1 X32.45 Y-22.548 E153.07998
G1 X31.877 Y-21.802 E153.12687
G1 X31.516 Y-20.932 E153.17382
G1 X31.394 Y-19.999 E153.22071
G0 F18000 X31.396 Y-19.999
G0 X31.396 Y-19.999
G0 X31.518 Y-20.93
G0 X31.879 Y-21.801
G0 X32.452 Y-22.546
G0 X33.197 Y-23.119
G0 X34.068 Y-23.48
G0 X34.999 Y-23.602
G0 X35.93 Y-23.48
G0 X36.801 Y-23.119
G0 X37.546 Y-22.546
G0 X38.119 Y-21.801
G0 X38.48 Y-20.93
G0 X38.602 Y-19.999
G0 X41.394 Y-19.999
G0 X41.394 Y-19.999
G1 F720 X41.517 Y-19.063 E153.26776
G1 X41.877 Y-18.196 E153.31455
G1 X42.45 Y-17.45 E153.36144
G1 X43.196 Y-16.877 E153.40834
G1 X44.066 Y-16.516 E153.45531
G1 X44.999 Y-16.394 E153.50225
G1 X45.932 Y-16.516 E153.5492
G1 X46.802 Y-16.877 E153.59621
G1 X47.548 Y-17.45 E153.64317
G1 X48.121 Y-18.196 E153.69014
G1 X48.482 Y-19.066 E153.73718
G1 X48.604 Y-19.999 E153.78418
G1 X48.482 Y-20.932 E153.83117
G1 X48.121 Y-21.802 E153.87821
G1 X47.548 Y-22.548 E153.92518
G1 X46.802 Y-23.121 E153.97214
G1 X45.932 Y-23.482 E154.01915
G1 X44.999 Y-23.604 E154.0661
G1 X44.066 Y-23.482 E154.11304
G1 X43.196 Y-23.121 E154.16001
G1 X42.45 Y-22.548 E154.20691
G1 X41.877 Y-21.802 E154.2538
G1 X41.516 Y-20.932 E154.30075
G1 X41.394 Y-19.999 E154.34764
G1 F6600 E147.54764
G1 Z0.6
G0 F18000 X38.525 Y-19.48
G0 X38.48 Y-19.068
G0 X38.119 Y-18.197
G0 X37.546 Y-17.452
G0 X36.801 Y-16.879
G0 X35.93 Y-16.518
G0 X34.999 Y-16.396
G0 X34.068 Y-16.518
G0 X33.197 Y-16.879
G0 X32.452 Y-17.452
G0 X31.843 Y-18.275
G0 X27.4 Y-17.473
G0 X26.801 Y-16.879
G0 X25.93 Y-16.518
G0 X24.999 Y-16.396
G0 X24.068 Y-16.518
G0 X23.634 Y-16.793
G0 X5.224 Y-13.471
G0 X5.256 Y-13.592
G0 X4.318 Y-13.537
G0 X3.991 Y-13.249
G0 X-2.162 Y-12.138
G0 X-2.574 Y-12.663
G0 X-3.347 Y-13.199
G0 X-4.232 Y-13.519
G0 X-5.168 Y-13.598
G0 X-6.094 Y-13.431
G0 X-6.945 Y-13.032
G0 X-7.664 Y-12.425
G0 X-8.2 Y-11.652
G0 X-8.404 Y-11.012
G0 X-11.425 Y-10.468
G0 X-11.425 Y-10.468
G1 Z0.3
G1 F6600 E154.44764
G1 F720 X-11.669 Y-11.376 E154.49461
G1 X-12.138 Y-12.192 E154.54163
G1 X-12.803 Y-12.858 E154.58866
G1 X-13.618 Y-13.329 E154.63569
G1 X-14.528 Y-13.573 E154.68275
G1 X-15.469 Y-13.574 E154.72975
G1 X-16.377 Y-13.33 E154.77669
G1 X-17.193 Y-12.861 E154.82367
G1 X-17.859 Y-12.196 E154.87062
G1 X-18.33 Y-11.381 E154.91757
G1 X-18.574 Y-10.471 E154.96453
G1 X-18.575 Y-9.53 E155.01143
G1 X-18.331 Y-8.622 E155.05828
G1 X-17.862 Y-7.806 E155.10517
G1 X-17.197 Y-7.14 E155.15205
G1 X-16.382 Y-6.669 E155.19894
G1 X-15.472 Y-6.425 E155.24589
G1 X-14.531 Y-6.424 E155.29278
G1 X-13.623 Y-6.668 E155.33966
G1 X-12.807 Y-7.137 E155.38659
G1 X-12.141 Y-7.802 E155.43355
G1 X-11.67 Y-8.617 E155.48053
G1 X-11.426 Y-9.527 E155.52757
G1 X-11.425 Y-10.468 E155.57456
G0 F18000 X-11.473 Y-10.586
G0 X-11.671 Y-11.375
G0 X-12.093 Y-12.092
G0 X-13.987 Y-16.691
G0 X-13.987 Y-16.691
G1 F720 X-13.179 Y-17.174 E155.62151
G1 X-12.524 Y-17.849 E155.66844
G1 X-12.066 Y-18.673 E155.71549
G1 X-11.838 Y-19.585 E155.76243
G1 X-11.852 Y-20.525 E155.80938
G1 X-12.11 Y-21.43 E155.85639
G1 X-12.594 Y-22.238 E155.90345
G1 X-13.269 Y-22.893 E155.95044
G1 X-14.091 Y-23.351 E155.99746
G1 X-15.004 Y-23.58 E156.04448
G1 X-15.945 Y-23.566 E156.09148
G1 X-16.85 Y-23.307 E156.13848
G1 X-17.658 Y-22.824 E156.18546
G1 X-18.313 Y-22.149 E156.23238
G1 X-18.771 Y-21.326 E156.27935
G1 X-19 Y-20.414 E156.32623
G1 X-18.986 Y-19.473 E156.37313
G1 X-18.727 Y-18.568 E156.42003
G1 X-18.244 Y-17.76 E156.46693
G1 X-17.569 Y-17.105 E156.51378
G1 X-16.746 Y-16.647 E156.5607
G1 X-15.834 Y-16.418 E156.60755
G1 X-14.893 Y-16.432 E156.65446
G1 X-13.987 Y-16.691 E156.70143
G0 F18000 X-14.183 Y-16.738
G0 X-14.893 Y-16.435
G0 X-15.834 Y-16.42
G0 X-16.745 Y-16.649
G0 X-17.568 Y-17.107
G0 X-18.029 Y-17.689
G0 X-21.681 Y-18.593
G0 X-21.681 Y-18.593
G1 F720 X-21.43 Y-19.5 E156.74842
G1 X-21.422 Y-20.441 E156.79542
G1 X-21.658 Y-21.352 E156.84243
G1 X-22.122 Y-22.171 E156.88946
G1 X-22.783 Y-22.841 E156.93649
G1 X-23.594 Y-23.318 E156.98349
G1 X-24.501 Y-23.569 E157.03051
G1 X-25.442 Y-23.577 E157.07751
G1 X-26.353 Y-23.341 E157.12449
G1 X-27.172 Y-22.877 E157.17147
G1 X-27.842 Y-22.216 E157.21843
G1 X-28.319 Y-21.405 E157.26535
G1 X-28.57 Y-20.498 E157.31227
G1 X-28.578 Y-19.557 E157.35917
G1 X-28.342 Y-18.646 E157.40606
G1 X-27.878 Y-17.827 E157.45295
G1 X-27.217 Y-17.157 E157.49984
G1 X-26.406 Y-16.68 E157.54671
G1 X-25.499 Y-16.429 E157.5936
G1 X-24.558 Y-16.421 E157.6405
G1 X-23.647 Y-16.657 E157.68741
G1 X-22.828 Y-17.121 E157.73435
G1 X-22.158 Y-17.782 E157.78131
G1 X-21.681 Y-18.593 E157.82827
G0 F18000 X-24.067 Y-13.482
G0 X-24.067 Y-13.482
G1 F720 X-25 Y-13.604 E157.87527
G1 X-25.933 Y-13.482 E157.92225
G1 X-26.803 Y-13.121 E157.96927
G1 X-27.549 Y-12.548 E158.01621
G1 X-28.122 Y-11.802 E158.06313
G1 X-28.483 Y-10.932 E158.1101
G1 X-28.605 Y-9.999 E158.157
G1 X-28.483 Y-9.066 E158.20389
G1 X-28.122 Y-8.196 E158.25082
G1 X-27.549 Y-7.45 E158.29768
G1 X-26.803 Y-6.877 E158.34454
G1 X-25.933 Y-6.516 E158.39146
G1 X-25 Y-6.394 E158.43835
G1 X-24.067 Y-6.516 E158.48525
G1 X-23.197 Y-6.877 E158.53222
G1 X-22.451 Y-7.45 E158.57914
G1 X-21.878 Y-8.196 E158.62608
G1 X-21.517 Y-9.066 E158.6731
G1 X-21.395 Y-9.999 E158.72008
G1 X-21.517 Y-10.932 E158.76708
G1 X-21.878 Y-11.802 E158.81414
G1 X-22.451 Y-12.548 E158.86114
G1 X-23.197 Y-13.121 E158.90814
G1 X-24.067 Y-13.482 E158.9552
G0 F18000 X-24.066 Y-13.48
G0 X-24.069 Y-13.48
G0 X-23.198 Y-13.119
G0 X-22.453 Y-12.546
G0 X-21.88 Y-11.801
G0 X-21.519 Y-10.93
G0 X-21.397 Y-9.999
G0 X-21.519 Y-9.068
G0 X-21.88 Y-8.197
G0 X-22.453 Y-7.452
G0 X-23.198 Y-6.879
G0 X-24.069 Y-6.518
G0 X-24.426 Y-6.471
G0 X-24.575 Y-3.579
G0 X-24.575 Y-3.579
G1 F720 X-25.517 Y-3.567 E159.00225
G1 X-26.421 Y-3.312 E159.04914
G1 X-27.232 Y-2.831 E159.0962
G1 X-27.888 Y-2.157 E159.14313
G1 X-28.348 Y-1.336 E159.19006
G1 X-28.58 Y-0.424 E159.23697
G1 X-28.568 Y0.517 E159.28387
G1 X-28.313 Y1.422 E159.33077
G1 X-27.831 Y2.232 E159.37777
G1 X-27.158 Y2.888 E159.42462
G1 X-26.337 Y3.348 E159.47152
G1 X-25.425 Y3.58 E159.51843
G1 X-24.483 Y3.568 E159.56538
G1 X-23.579 Y3.313 E159.61219
G1 X-22.768 Y2.832 E159.65919
G1 X-22.112 Y2.158 E159.70608
G1 X-21.652 Y1.337 E159.753
G1 X-21.42 Y0.425 E159.79994
G1 X-21.432 Y-0.516 E159.84689
G1 X-21.687 Y-1.42 E159.89381
G1 X-22.168 Y-2.231 E159.94092
G1 X-22.842 Y-2.887 E159.98792
G1 X-23.663 Y-3.347 E160.03494
G1 X-24.575 Y-3.579 E160.08195
G0 F18000 X-24.574 Y-3.574
G0 X-23.663 Y-3.345
G0 X-22.844 Y-2.885
G0 X-22.169 Y-2.229
G0 X-21.689 Y-1.419
G0 X-21.435 Y-0.515
G0 X-21.422 Y0.425
G0 X-21.654 Y1.337
G0 X-22.114 Y2.156
G0 X-22.77 Y2.831
G0 X-23.58 Y3.311
G0 X-24.484 Y3.565
G0 X-24.985 Y3.573
G0 X-25.149 Y6.398
G0 X-25.149 Y6.398
G1 F720 X-26.075 Y6.559 E160.12889
G1 X-26.93 Y6.955 E160.17594
G1 X-27.652 Y7.558 E160.22291
G1 X-28.194 Y8.327 E160.26988
G1 X-28.518 Y9.212 E160.31691
G1 X-28.602 Y10.149 E160.36385
G1 X-28.441 Y11.075 E160.41073
G1 X-28.045 Y11.93 E160.45772
G1 X-27.442 Y12.652 E160.50462
G1 X-26.673 Y13.194 E160.55152
G1 X-25.788 Y13.518 E160.59849
G1 X-24.851 Y13.602 E160.64538
G1 X-23.925 Y13.441 E160.69222
G1 X-23.07 Y13.045 E160.73918
G1 X-22.348 Y12.442 E160.78607
G1 X-21.806 Y11.673 E160.83298
G1 X-21.482 Y10.788 E160.87998
G1 X-21.398 Y9.851 E160.92691
G1 X-21.559 Y8.925 E160.97381
G1 X-21.955 Y8.07 E161.02084
G1 X-22.558 Y7.348 E161.06781
G1 X-23.327 Y6.806 E161.11479
G1 X-24.212 Y6.482 E161.16185
G1 X-25.149 Y6.398 E161.20884
G0 F18000 X-25.147 Y6.399
G0 X-24.213 Y6.484
G0 X-23.329 Y6.808
G0 X-22.56 Y7.349
G0 X-21.956 Y8.072
G0 X-21.561 Y8.926
G0 X-21.401 Y9.851
G0 X-21.484 Y10.787
G0 X-21.808 Y11.671
G0 X-22.349 Y12.44
G0 X-23.072 Y13.044
G0 X-23.926 Y13.439
G0 X-24.92 Y13.61
G0 X-24.834 Y16.398
G0 X-24.834 Y16.398
G1 F720 X-25.771 Y16.478 E161.2558
G1 X-26.657 Y16.798 E161.30285
G1 X-27.429 Y17.336 E161.34983
G1 X-28.035 Y18.055 E161.39678
G1 X-28.436 Y18.907 E161.44378
G1 X-28.602 Y19.834 E161.49077
G1 X-28.521 Y20.772 E161.53774
G1 X-28.202 Y21.657 E161.58465
G1 X-27.664 Y22.429 E161.63157
G1 X-26.944 Y23.036 E161.67852
G1 X-26.093 Y23.436 E161.72538
G1 X-25.166 Y23.602 E161.77232
G1 X-24.229 Y23.522 E161.81919
G1 X-23.343 Y23.202 E161.86614
G1 X-22.571 Y22.664 E161.91304
G1 X-21.964 Y21.944 E161.95999
G1 X-21.564 Y21.093 E162.00688
G1 X-21.398 Y20.166 E162.05386
G1 X-21.478 Y19.229 E162.10078
G1 X-21.798 Y18.343 E162.14779
G1 X-22.336 Y17.571 E162.19477
G1 X-23.056 Y16.964 E162.24179
G1 X-23.907 Y16.564 E162.28875
G1 X-24.834 Y16.398 E162.33578
G0 F18000 X-25.376 Y16.593
G0 X-25.77 Y16.48
G0 X-26.656 Y16.8
G0 X-26.88 Y17.133
G0 X-31.591 Y18.826
G0 X-31.591 Y18.826
G1 F720 X-32.011 Y17.983 E162.38279
G1 X-32.635 Y17.279 E162.42976
G1 X-33.42 Y16.76 E162.47675
G1 X-34.312 Y16.461 E162.52373
G1 X-35.251 Y16.403 E162.57072
G1 X-36.174 Y16.591 E162.61776
G1 X-37.017 Y17.011 E162.66479
G1 X-37.721 Y17.635 E162.71176
G1 X-38.24 Y18.42 E162.75874
G1 X-38.539 Y19.312 E162.80569
G1 X-38.597 Y20.251 E162.85263
G1 X-38.408 Y21.174 E162.89963
G1 X-37.989 Y22.016 E162.94653
G1 X-37.365 Y22.721 E162.99346
G1 X-36.58 Y23.24 E163.04037
G1 X-35.688 Y23.539 E163.08726
G1 X-34.749 Y23.597 E163.13415
G1 X-33.826 Y23.409 E163.18109
G1 X-32.983 Y22.989 E163.22804
G1 X-32.279 Y22.365 E163.27493
G1 X-31.76 Y21.58 E163.32185
G1 X-31.461 Y20.688 E163.36877
G1 X-31.403 Y19.749 E163.41571
G1 X-31.591 Y18.826 E163.46271
G0 F18000 X-33.81 Y13.403
G0 X-33.81 Y13.403
G1 F720 X-32.969 Y12.979 E163.50965
G1 X-32.267 Y12.352 E163.55658
G1 X-31.752 Y11.565 E163.60347
G1 X-31.457 Y10.671 E163.65042
G1 X-31.405 Y9.731 E163.69739
G1 X-31.597 Y8.81 E163.74434
G1 X-32.021 Y7.969 E163.79135
G1 X-32.648 Y7.267 E163.83834
G1 X-33.435 Y6.752 E163.8853
G1 X-34.329 Y6.457 E163.93232
G1 X-35.269 Y6.405 E163.97934
G1 X-36.19 Y6.597 E164.02632
G1 X-37.03 Y7.021 E164.07331
G1 X-37.733 Y7.648 E164.12034
G1 X-38.248 Y8.435 E164.16729
G1 X-38.543 Y9.329 E164.21428
G1 X-38.595 Y10.269 E164.26125
G1 X-38.403 Y11.19 E164.30818
G1 X-37.979 Y12.031 E164.35514
G1 X-37.352 Y12.733 E164.40207
G1 X-36.565 Y13.248 E164.44895
G1 X-35.671 Y13.543 E164.49587
G1 X-34.731 Y13.595 E164.54279
G1 X-33.81 Y13.403 E164.58967
G0 F18000 X-33.811 Y13.389
G0 X-32.971 Y12.977
G0 X-32.269 Y12.35
G0 X-31.754 Y11.563
G0 X-31.46 Y10.67
G0 X-31.407 Y9.732
G0 X-31.599 Y8.811
G0 X-32.023 Y7.971
G0 X-32.65 Y7.269
G0 X-33.437 Y6.754
G0 X-34.33 Y6.46
G0 X-34.568 Y6.447
G0 X-34.879 Y3.603
G0 X-34.879 Y3.603
G1 F720 X-33.95 Y3.449 E164.63661
G1 X-33.093 Y3.06 E164.68351
G1 X-32.366 Y2.461 E164.73047
G1 X-31.819 Y1.696 E164.77736
G1 X-31.489 Y0.815 E164.82428
G1 X-31.397 Y-0.12 E164.87115
G1 X-31.551 Y-1.049 E164.91819
G1 X-31.94 Y-1.906 E164.96521
G1 X-32.539 Y-2.633 E165.01227
G1 X-33.304 Y-3.18 E165.05926
G1 X-34.185 Y-3.51 E165.10626
G1 X-35.121 Y-3.602 E165.15324
G1 X-36.05 Y-3.448 E165.20026
G1 X-36.907 Y-3.059 E165.24724
G1 X-37.634 Y-2.46 E165.29424
G1 X-38.181 Y-1.695 E165.34115
G1 X-38.511 Y-0.814 E165.38805
G1 X-38.603 Y0.121 E165.43488
G1 X-38.449 Y1.05 E165.48185
G1 X-38.06 Y1.907 E165.52879
G1 X-37.461 Y2.634 E165.57575
G1 X-36.696 Y3.181 E165.62263
G1 X-35.815 Y3.511 E165.66952
G1 X-34.879 Y3.603 E165.71639
G0 F18000 X-34.878 Y3.598
G0 X-33.951 Y3.447
G0 X-33.095 Y3.057
G0 X-32.367 Y2.459
G0 X-31.821 Y1.695
G0 X-31.491 Y0.814
G0 X-31.4 Y-0.119
G0 X-31.553 Y-1.048
G0 X-31.943 Y-1.904
G0 X-32.541 Y-2.632
G0 X-33.305 Y-3.178
G0 X-34.186 Y-3.508
G0 X-34.717 Y-3.56
G0 X-34.654 Y-6.411
G0 X-34.654 Y-6.411
G1 F720 X-33.737 Y-6.622 E165.7633
G1 X-32.907 Y-7.064 E165.81019
G1 X-32.218 Y-7.706 E165.85717
G1 X-31.719 Y-8.504 E165.90415
G1 X-31.444 Y-9.404 E165.95113
G1 X-31.412 Y-10.345 E165.99815
G1 X-31.623 Y-11.262 E166.04516
G1 X-32.065 Y-12.092 E166.09214
G1 X-32.707 Y-12.781 E166.13919
G1 X-33.505 Y-13.28 E166.18622
G1 X-34.405 Y-13.555 E166.23323
G1 X-35.346 Y-13.587 E166.28025
G1 X-36.263 Y-13.376 E166.32724
G1 X-37.093 Y-12.934 E166.37417
G1 X-37.782 Y-12.292 E166.42116
G1 X-38.281 Y-11.494 E166.4681
G1 X-38.556 Y-10.594 E166.51502
G1 X-38.588 Y-9.653 E166.56194
G1 X-38.377 Y-8.736 E166.60883
G1 X-37.935 Y-7.906 E166.65567
G1 X-37.293 Y-7.217 E166.70259
G1 X-36.495 Y-6.718 E166.74947
G1 X-35.595 Y-6.443 E166.79636
G1 X-34.654 Y-6.411 E166.84328
G0 F18000 X-34.653 Y-6.413
G0 X-33.738 Y-6.624
G0 X-32.908 Y-7.067
G0 X-32.22 Y-7.707
G0 X-31.721 Y-8.506
G0 X-31.446 Y-9.405
G0 X-31.413 Y-10.345
G0 X-31.625 Y-11.261
G0 X-32.068 Y-12.091
G0 X-32.708 Y-12.779
G0 X-33.507 Y-13.278
G0 X-34.406 Y-13.553
G0 X-34.901 Y-13.57
G0 X-35 Y-16.394
G0 X-35 Y-16.394
G1 F720 X-34.067 Y-16.516 E166.89018
G1 X-33.197 Y-16.877 E166.93715
G1 X-32.451 Y-17.45 E166.98407
G1 X-31.878 Y-18.196 E167.03101
G1 X-31.517 Y-19.066 E167.07803
G1 X-31.395 Y-19.999 E167.12502
G1 X-31.517 Y-20.932 E167.17202
G1 X-31.878 Y-21.802 E167.21907
G1 X-32.451 Y-22.548 E167.26607
G1 X-33.197 Y-23.121 E167.31307
G1 X-34.067 Y-23.482 E167.36013
G1 X-35 Y-23.604 E167.40713
G1 X-35.933 Y-23.482 E167.45412
G1 X-36.803 Y-23.121 E167.50114
G1 X-37.549 Y-22.548 E167.54808
G1 X-38.122 Y-21.802 E167.595
G1 X-38.483 Y-20.932 E167.64196
G1 X-38.605 Y-19.999 E167.68886
G1 X-38.483 Y-19.066 E167.73575
G1 X-38.122 Y-18.196 E167.78268
G1 X-37.549 Y-17.45 E167.82954
G1 X-36.803 Y-16.877 E167.8764
G1 X-35.933 Y-16.516 E167.92333
G1 X-35 Y-16.394 E167.97022
G0 F18000 X-35.704 Y-16.644
G0 X-35.931 Y-16.518
G0 X-36.802 Y-16.879
G0 X-36.767 Y-17.023
G0 X-41.616 Y-18.755
G0 X-41.616 Y-18.755
G1 F720 X-41.409 Y-19.675 E168.0173
G1 X-41.448 Y-20.614 E168.06424
G1 X-41.728 Y-21.513 E168.11128
G1 X-42.231 Y-22.308 E168.15828
G1 X-42.923 Y-22.946 E168.20531
G1 X-43.756 Y-23.383 E168.25231
G1 X-44.674 Y-23.59 E168.29932
G1 X-45.615 Y-23.551 E168.34635
G1 X-46.514 Y-23.271 E168.39336
G1 X-47.309 Y-22.768 E168.44031
G1 X-47.947 Y-22.076 E168.48727
G1 X-48.384 Y-21.243 E168.53417
G1 X-48.591 Y-20.323 E168.58118
G1 X-48.552 Y-19.384 E168.62802
G1 X-48.272 Y-18.485 E168.67493
G1 X-47.769 Y-17.69 E168.7218
G1 X-47.077 Y-17.052 E168.76869
G1 X-46.244 Y-16.615 E168.81555
G1 X-45.324 Y-16.408 E168.86254
G1 X-44.385 Y-16.447 E168.90938
G1 X-43.486 Y-16.727 E168.95632
G1 X-42.691 Y-17.23 E169.00324
G1 X-42.053 Y-17.922 E169.0502
G1 X-41.616 Y-18.755 E169.09715
G0 F18000 X-44.067 Y-13.482
G0 X-44.067 Y-13.482
G1 F720 X-45 Y-13.604 E169.14415
G1 X-45.933 Y-13.482 E169.19114
G1 X-46.803 Y-13.121 E169.23816
G1 X-47.549 Y-12.548 E169.2851
G1 X-48.122 Y-11.802 E169.33202
G1 X-48.483 Y-10.932 E169.37898
G1 X-48.605 Y-9.999 E169.42588
G1 X-48.483 Y-9.066 E169.47277
G1 X-48.122 Y-8.196 E169.5197
G1 X-47.549 Y-7.45 E169.56656
G1 X-46.803 Y-6.877 E169.61342
G1 X-45.933 Y-6.516 E169.66035
G1 X-45 Y-6.394 E169.70723
G1 X-44.067 Y-6.516 E169.75414
G1 X-43.197 Y-6.877 E169.8011
G1 X-42.451 Y-7.45 E169.84802
G1 X-41.878 Y-8.196 E169.89496
G1 X-41.517 Y-9.066 E169.94198
G1 X-41.395 Y-9.999 E169.98897
G1 X-41.517 Y-10.932 E170.03597
G1 X-41.878 Y-11.802 E170.08303
G1 X-42.451 Y-12.548 E170.13002
G1 X-43.197 Y-13.121 E170.17702
G1 X-44.067 Y-13.482 E170.22408
G0 F18000 X-44.066 Y-13.481
G0 X-44.069 Y-13.48
G0 X-43.198 Y-13.119
G0 X-42.453 Y-12.546
G0 X-41.88 Y-11.801
G0 X-41.519 Y-10.93
G0 X-41.397 Y-9.999
G0 X-41.519 Y-9.068
G0 X-41.88 Y-8.197
G0 X-42.453 Y-7.452
G0 X-43.198 Y-6.879
G0 X-44.069 Y-6.518
G0 X-44.732 Y-6.432
G0 X-45 Y-3.604
G0 X-45 Y-3.604
G1 F720 X-45.933 Y-3.482 E170.27107
G1 X-46.803 Y-3.121 E170.31809
G1 X-47.549 Y-2.548 E170.36503
G1 X-48.122 Y-1.802 E170.41195
G1 X-48.483 Y-0.932 E170.45891
G1 X-48.605 Y0 E170.50577
G1 X-48.483 Y0.933 E170.5527
G1 X-48.122 Y1.803 E170.59968
G1 X-47.549 Y2.549 E170.64658
G1 X-46.803 Y3.122 E170.69347
G1 X-45.933 Y3.483 E170.74041
G1 X-45 Y3.605 E170.78731
G1 X-44.067 Y3.483 E170.8342
G1 X-43.197 Y3.122 E170.88115
G1 X-42.451 Y2.549 E170.92804
G1 X-41.878 Y1.803 E170.97494
G1 X-41.517 Y0.933 E171.02191
G1 X-41.395 Y0 E171.06885
G1 X-41.517 Y-0.932 E171.11575
G1 X-41.878 Y-1.802 E171.16281
G1 X-42.451 Y-2.548 E171.20981
G1 X-43.197 Y-3.121 E171.25681
G1 X-44.067 Y-3.482 E171.30387
G1 X-45 Y-3.604 E171.35087
G0 F18000 X-44.999 Y-3.601
G0 X-44.069 Y-3.48
G0 X-43.198 Y-3.119
G0 X-42.453 Y-2.546
G0 X-41.88 Y-1.801
G0 X-41.519 Y-0.93
G0 X-41.397 Y0
G0 X-41.519 Y0.931
G0 X-41.88 Y1.802
G0 X-42.453 Y2.547
G0 X-43.198 Y3.12
G0 X-44.069 Y3.481
G0 X-45 Y3.603
G0 X-45.284 Y3.565
G0 X-45.398 Y6.417
G0 X-45.398 Y6.417
G1 F720 X-46.312 Y6.642 E171.39788
G1 X-47.137 Y7.095 E171.44488
G1 X-47.816 Y7.748 E171.49191
G1 X-48.302 Y8.553 E171.53885
G1 X-48.564 Y9.457 E171.58582
G1 X-48.583 Y10.398 E171.63278
G1 X-48.358 Y11.312 E171.67973
G1 X-47.903 Y12.137 E171.72671
G1 X-47.252 Y12.816 E171.7736
G1 X-46.447 Y13.302 E171.82047
G1 X-45.543 Y13.564 E171.86738
G1 X-44.602 Y13.583 E171.91429
G1 X-43.688 Y13.358 E171.9612
G1 X-42.863 Y12.905 E172.00811
G1 X-42.184 Y12.252 E172.05508
G1 X-41.698 Y11.447 E172.10196
G1 X-41.436 Y10.543 E172.14891
G1 X-41.417 Y9.602 E172.19586
G1 X-41.642 Y8.688 E172.24283
G1 X-42.095 Y7.863 E172.28981
G1 X-42.748 Y7.184 E172.33685
G1 X-43.553 Y6.698 E172.3838
G1 X-44.457 Y6.436 E172.43081
G1 X-45.398 Y6.417 E172.47781
G0 F18000 X-45.397 Y6.416
G0 X-44.457 Y6.438
G0 X-43.554 Y6.699
G0 X-42.749 Y7.186
G0 X-42.097 Y7.865
G0 X-41.644 Y8.689
G0 X-41.419 Y9.602
G0 X-41.438 Y10.543
G0 X-41.699 Y11.446
G0 X-42.186 Y12.251
G0 X-42.865 Y12.903
G0 X-43.689 Y13.356
G0 X-44.602 Y13.581
G0 X-45.012 Y13.573
G0 X-44.862 Y16.397
G0 X-44.862 Y16.397
G1 F720 X-45.799 Y16.485 E172.52482
G1 X-46.681 Y16.811 E172.57178
G1 X-47.449 Y17.355 E172.61877
G1 X-48.051 Y18.079 E172.66578
G1 X-48.444 Y18.934 E172.71275
G1 X-48.603 Y19.862 E172.75973
G1 X-48.515 Y20.799 E172.80668
G1 X-48.189 Y21.681 E172.85357
G1 X-47.645 Y22.449 E172.9005
G1 X-46.921 Y23.051 E172.94743
G1 X-46.066 Y23.444 E172.99433
G1 X-45.138 Y23.603 E173.04126
G1 X-44.201 Y23.515 E173.08816
G1 X-43.319 Y23.189 E173.13503
G1 X-42.551 Y22.645 E173.18194
G1 X-41.949 Y21.921 E173.22888
G1 X-41.556 Y21.066 E173.27581
G1 X-41.397 Y20.138 E173.32277
G1 X-41.485 Y19.201 E173.36973
G1 X-41.811 Y18.319 E173.41666
G1 X-42.355 Y17.551 E173.46364
G1 X-43.078 Y16.949 E173.51062
G1 X-43.934 Y16.556 E173.55766
G1 X-44.862 Y16.397 E173.60468
G1 F6600 E166.80468
G1 Z0.6
G0 F18000 X-37.219 Y17.26
G0 X-37.015 Y17.014
G0 X-36.173 Y16.593
G0 X-35.251 Y16.406
G0 X-34.313 Y16.463
G0 X-33.421 Y16.762
G0 X-32.636 Y17.28
G0 X-32.239 Y17.822
G0 X-28.131 Y18.287
G0 X-28.034 Y18.057
G0 X-27.517 Y17.441
G0 X-27.427 Y17.338
G0 X-26.656 Y16.8
G0 X-25.77 Y16.48
G0 X-24.834 Y16.401
G0 X-23.909 Y16.567
G0 X-23.057 Y16.966
G0 X-22.338 Y17.573
G0 X-21.8 Y18.344
G0 X-21.57 Y19.028
G0 X-18.55 Y19.371
G0 X-18.55 Y19.371
G1 Z0.3
G1 F6600 E173.70468
G1 F720 X-18.592 Y20.311 E173.75163
G1 X-18.389 Y21.231 E173.79862
G1 X-17.955 Y22.066 E173.84554
G1 X-17.319 Y22.76 E173.89247
G1 X-16.526 Y23.266 E173.93936
G1 X-15.629 Y23.55 E173.98626
G1 X-14.689 Y23.592 E174.03315
G1 X-13.769 Y23.389 E174.0801
G1 X-12.934 Y22.955 E174.12701
G1 X-12.24 Y22.319 E174.17394
G1 X-11.734 Y21.526 E174.22084
G1 X-11.45 Y20.629 E174.26777
G1 X-11.408 Y19.689 E174.31471
G1 X-11.611 Y18.769 E174.36172
G1 X-12.045 Y17.934 E174.40869
G1 X-12.681 Y17.24 E174.45569
G1 X-13.474 Y16.734 E174.50267
G1 X-14.371 Y16.45 E174.54965
G1 X-15.311 Y16.408 E174.59665
G1 X-16.231 Y16.611 E174.6437
