; Generated with MatterSlice 1.0
; filamentDiameter = 1.75
; extrusionWidth = 0.5
; firstLayerExtrusionWidth = 0.4
; layerThickness = 0.25
; firstLayerThickness = 0.3
; automatic settings before start_gcode
G21 ; set units to millimeters
M107 ; fan off
T0 ; set the active extruder to 0
; settings from start_gcode
M104 S190
M190 S60
M109 S190
G28
; automatic settings after start_gcode
T0 ; set the active extruder to 0
G90 ; use absolute coordinates
G92 E0 ; reset the expected extruder position
M82 ; use absolute distance for extrusion
; Layer count: 36
; LAYER:0
M107
G0 F18000 X53.99 Y-34.745 Z0.3
; TYPE:SKIRT
G1 Z0.3
G1 F6600 E0
G1 F720 X54.967 Y-34.609 E0.04921
G1 X55.709 Y-34.348 E0.08843
G1 X56.307 Y-34.047 E0.12181
G1 X56.845 Y-33.678 E0.15433
G1 X57.32 Y-33.264 E0.18573
G1 X57.762 Y-32.76 E0.21914
G1 X58.133 Y-32.205 E0.2524
G1 X58.43 Y-31.604 E0.2858
G1 X58.683 Y-30.857 E0.3251
G1 X58.811 Y-29.885 E0.37397
G1 X58.811 Y29.886 E3.3559
G1 X58.683 Y30.858 E3.40482
G1 X58.43 Y31.605 E3.44416
G1 X58.133 Y32.206 E3.47761
G1 X57.762 Y32.761 E3.51091
G1 X57.311 Y33.275 E3.54503
G1 X56.786 Y33.727 E3.57959
G1 X56.225 Y34.096 E3.61309
G1 X55.588 Y34.402 E3.64835
G1 X54.84 Y34.633 E3.68741
G1 X53.946 Y34.75 E3.73239
G1 X-53.989 Y34.746 E9.11729
G1 X-54.966 Y34.61 E9.16655
G1 X-55.708 Y34.349 E9.20584
G1 X-56.306 Y34.048 E9.23928
G1 X-56.839 Y33.683 E9.27155
G1 X-57.321 Y33.265 E9.30342
G1 X-57.765 Y32.755 E9.33719
G1 X-58.132 Y32.206 E9.37016
G1 X-58.429 Y31.605 E9.40363
G1 X-58.682 Y30.858 E9.44299
G1 X-58.81 Y29.886 E9.49191
G1 X-58.81 Y-29.885 E12.4739
G1 X-58.682 Y-30.857 E12.52285
G1 X-58.429 Y-31.604 E12.56223
G1 X-58.132 Y-32.205 E12.5957
G1 X-57.757 Y-32.766 E12.62938
G1 X-57.287 Y-33.296 E12.66473
G1 X-56.777 Y-33.731 E12.69816
G1 X-56.224 Y-34.095 E12.73118
G1 X-55.587 Y-34.401 E12.76641
G1 X-54.839 Y-34.632 E12.80544
G1 X-53.945 Y-34.749 E12.85038
G1 X53.99 Y-34.745 E18.23522
G0 F18000 X53.962 Y-34.345
G1 F720 X54.872 Y-34.218 E18.28106
G1 X55.552 Y-33.979 E18.317
G1 X56.104 Y-33.702 E18.34779
G1 X56.6 Y-33.362 E18.37776
G1 X57.036 Y-32.98 E18.40665
G1 X57.444 Y-32.516 E18.43744
G1 X57.786 Y-32.004 E18.46812
G1 X58.06 Y-31.451 E18.49886
G1 X58.292 Y-30.766 E18.5349
G1 X58.411 Y-29.858 E18.58053
G1 X58.411 Y29.859 E21.55978
G1 X58.292 Y30.767 E21.60547
G1 X58.06 Y31.452 E21.64155
G1 X57.786 Y32.005 E21.67234
G1 X57.444 Y32.517 E21.70306
G1 X57.028 Y32.99 E21.73448
G1 X56.544 Y33.407 E21.76635
G1 X56.028 Y33.747 E21.79718
G1 X55.442 Y34.029 E21.82963
G1 X54.754 Y34.241 E21.86555
G1 X53.92 Y34.35 E21.90751
G1 X-53.961 Y34.346 E27.28971
G1 X-54.871 Y34.219 E27.3356
G1 X-55.551 Y33.98 E27.37161
G1 X-56.103 Y33.703 E27.40247
G1 X-56.594 Y33.366 E27.43222
G1 X-57.037 Y32.981 E27.46154
G1 X-57.446 Y32.512 E27.49262
G1 X-57.785 Y32.005 E27.52307
G1 X-58.059 Y31.452 E27.55388
G1 X-58.291 Y30.767 E27.58998
G1 X-58.41 Y29.859 E27.63568
G1 X-58.41 Y-29.858 E30.61497
G1 X-58.291 Y-30.766 E30.6607
G1 X-58.059 Y-31.451 E30.69681
G1 X-57.785 Y-32.004 E30.72763
G1 X-57.439 Y-32.522 E30.75872
G1 X-57.006 Y-33.01 E30.79127
G1 X-56.536 Y-33.411 E30.82209
G1 X-56.027 Y-33.746 E30.85247
G1 X-55.441 Y-34.028 E30.8849
G1 X-54.753 Y-34.24 E30.92078
G1 X-53.919 Y-34.349 E30.9627
G1 X53.962 Y-34.345 E36.34485
G0 F18000 X53.726 Y-30.945
; TYPE:WALL-OUTER
G1 F720 X54.064 Y-30.898 E36.36187
G1 X54.218 Y-30.844 E36.37
G1 X54.373 Y-30.766 E36.37863
G1 X54.633 Y-30.564 E36.39503
G1 X54.743 Y-30.439 E36.4033
G1 X54.836 Y-30.3 E36.4116
G1 X54.913 Y-30.144 E36.42024
G1 X54.964 Y-29.992 E36.42819
G1 X55.011 Y-29.638 E36.44595
G1 X55.011 Y29.639 E39.40324
G1 X54.964 Y29.993 E39.42106
G1 X54.913 Y30.145 E39.42906
G1 X54.836 Y30.301 E39.43774
G1 X54.743 Y30.44 E39.44608
G1 X54.635 Y30.563 E39.45425
G1 X54.487 Y30.691 E39.46401
G1 X54.349 Y30.782 E39.47226
G1 X54.198 Y30.854 E39.4806
G1 X54.026 Y30.907 E39.48958
G1 X53.7 Y30.95 E39.50599
G1 X-53.725 Y30.946 E44.86544
G1 X-54.063 Y30.899 E44.88252
G1 X-54.217 Y30.845 E44.89071
G1 X-54.372 Y30.767 E44.89941
G1 X-54.629 Y30.569 E44.91563
G1 X-54.742 Y30.44 E44.92422
G1 X-54.835 Y30.301 E44.93259
G1 X-54.912 Y30.145 E44.9413
G1 X-54.963 Y29.993 E44.94931
G1 X-55.01 Y29.639 E44.96713
G1 X-55.01 Y-29.638 E47.92447
G1 X-54.963 Y-29.992 E47.94233
G1 X-54.912 Y-30.144 E47.95036
G1 X-54.835 Y-30.3 E47.95907
G1 X-54.745 Y-30.435 E47.96718
G1 X-54.617 Y-30.579 E47.97679
G1 X-54.49 Y-30.687 E47.9851
G1 X-54.348 Y-30.781 E47.99359
G1 X-54.197 Y-30.853 E48.00191
G1 X-54.025 Y-30.906 E48.01086
G1 X-53.699 Y-30.949 E48.02722
G1 X53.726 Y-30.945 E53.38662
G0 F18000 X53.7 Y-30.545
; TYPE:WALL-INNER
G1 F720 X53.97 Y-30.507 E53.40022
G1 X54.169 Y-30.421 E53.41101
G1 X54.347 Y-30.284 E53.42219
G1 X54.49 Y-30.096 E53.43394
G1 X54.572 Y-29.903 E53.44435
G1 X54.611 Y-29.609 E53.4591
G1 X54.611 Y29.61 E56.4135
G1 X54.572 Y29.904 E56.42829
G1 X54.49 Y30.097 E56.43875
G1 X54.349 Y30.281 E56.45032
G1 X54.154 Y30.431 E56.46259
G1 X53.944 Y30.514 E56.47386
G1 X53.671 Y30.55 E56.4876
G1 X-53.699 Y30.546 E61.84431
G1 X-53.969 Y30.508 E61.85796
G1 X-54.168 Y30.422 E61.86882
G1 X-54.347 Y30.285 E61.88011
G1 X-54.489 Y30.097 E61.89189
G1 X-54.571 Y29.904 E61.90237
G1 X-54.61 Y29.61 E61.91718
G1 X-54.61 Y-29.609 E64.87162
G1 X-54.571 Y-29.903 E64.88646
G1 X-54.489 Y-30.096 E64.89695
G1 X-54.339 Y-30.29 E64.90919
G1 X-54.153 Y-30.43 E64.9208
G1 X-53.943 Y-30.513 E64.93204
G1 X-53.67 Y-30.549 E64.94573
G1 X53.7 Y-30.545 E70.30239
G0 F18000 X53.718 Y-30.4
; TYPE:FILL
G1 F720 X-53.731 Y-30.399 E75.66305
G0 F18000 X-54.378 Y-29.999
G1 F720 X54.378 Y-30 E81.08886
G0 F18000 X54.471 Y-29.6
G1 F720 X-54.47 Y-29.599 E86.52394
G0 F18000 X-54.47 Y-29.199
G1 F720 X54.471 Y-29.2 E91.95898
G0 F18000 X54.471 Y-28.8
G1 F720 X-54.47 Y-28.799 E97.39407
G0 F18000 X-54.47 Y-28.399
G1 F720 X54.471 Y-28.4 E102.82911
G0 F18000 X54.471 Y-28
G1 F720 X-54.47 Y-27.999 E108.2642
G0 F18000 X-54.47 Y-27.599
G1 F720 X54.471 Y-27.6 E113.69924
G0 F18000 X54.471 Y-27.2
G1 F720 X-54.47 Y-27.199 E119.13433
G0 F18000 X-54.47 Y-26.799
G1 F720 X54.471 Y-26.8 E124.56936
G0 F18000 X54.471 Y-26.4
G1 F720 X-54.47 Y-26.399 E130.00445
G0 F18000 X-54.47 Y-25.999
G1 F720 X54.471 Y-26 E135.43949
G0 F18000 X54.471 Y-25.6
G1 F720 X-54.47 Y-25.599 E140.87458
G0 F18000 X-54.47 Y-25.199
G1 F720 X54.471 Y-25.2 E146.30962
G0 F18000 X54.471 Y-24.8
G1 F720 X-54.47 Y-24.799 E151.74471
G0 F18000 X-54.47 Y-24.399
G1 F720 X54.471 Y-24.4 E157.17975
G0 F18000 X54.471 Y-24
G1 F720 X-54.47 Y-23.999 E162.61483
G0 F18000 X-54.47 Y-23.599
G1 F720 X54.471 Y-23.6 E168.04987
G0 F18000 X54.471 Y-23.2
G1 F720 X-54.47 Y-23.199 E173.48496
G0 F18000 X-54.47 Y-22.799
G1 F720 X54.471 Y-22.8 E178.92
G0 F18000 X54.471 Y-22.4
G1 F720 X-54.47 Y-22.399 E184.35509
G0 F18000 X-54.47 Y-21.999
G1 F720 X54.471 Y-22 E189.79013
G0 F18000 X54.471 Y-21.6
G1 F720 X-54.47 Y-21.599 E195.22522
G0 F18000 X-54.47 Y-21.199
G1 F720 X54.471 Y-21.2 E200.66025
G0 F18000 X54.471 Y-20.8
G1 F720 X-54.47 Y-20.799 E206.09534
G0 F18000 X-54.47 Y-20.399
G1 F720 X54.471 Y-20.4 E211.53038
G0 F18000 X54.471 Y-20
G1 F720 X-54.47 Y-19.999 E216.96547
G0 F18000 X-54.47 Y-19.599
G1 F720 X54.471 Y-19.6 E222.40051
G0 F18000 X54.471 Y-19.2
G1 F720 X-54.47 Y-19.199 E227.8356
G0 F18000 X-54.47 Y-18.799
G1 F720 X54.471 Y-18.8 E233.27064
G0 F18000 X54.471 Y-18.4
G1 F720 X-54.47 Y-18.399 E238.70572
G0 F18000 X-54.47 Y-17.999
G1 F720 X54.471 Y-18 E244.14076
G0 F18000 X54.471 Y-17.6
G1 F720 X-54.47 Y-17.599 E249.57585
G0 F18000 X-54.47 Y-17.199
G1 F720 X54.471 Y-17.2 E255.01089
G0 F18000 X54.471 Y-16.8
G1 F720 X-54.47 Y-16.799 E260.44598
G0 F18000 X-54.47 Y-16.399
G1 F720 X54.471 Y-16.4 E265.88102
G0 F18000 X54.471 Y-16
G1 F720 X-54.47 Y-15.999 E271.31611
G0 F18000 X-54.47 Y-15.599
G1 F720 X54.471 Y-15.6 E276.75115
G0 F18000 X54.471 Y-15.2
G1 F720 X-54.47 Y-15.199 E282.18623
G0 F18000 X-54.47 Y-14.799
G1 F720 X54.471 Y-14.8 E287.62127
G0 F18000 X54.471 Y-14.4
G1 F720 X-54.47 Y-14.399 E293.05636
G0 F18000 X-54.47 Y-13.999
G1 F720 X54.471 Y-14 E298.4914
G0 F18000 X54.471 Y-13.6
G1 F720 X-54.47 Y-13.599 E303.92649
G0 F18000 X-54.47 Y-13.199
G1 F720 X54.471 Y-13.2 E309.36153
G0 F18000 X54.471 Y-12.8
G1 F720 X-54.47 Y-12.799 E314.79662
G0 F18000 X-54.47 Y-12.399
G1 F720 X54.471 Y-12.4 E320.23165
G0 F18000 X54.471 Y-12
G1 F720 X-54.47 Y-11.999 E325.66674
G0 F18000 X-54.47 Y-11.599
G1 F720 X54.471 Y-11.6 E331.10178
G0 F18000 X54.471 Y-11.2
G1 F720 X-54.47 Y-11.199 E336.53687
G0 F18000 X-54.47 Y-10.799
G1 F720 X54.471 Y-10.8 E341.97191
G0 F18000 X54.471 Y-10.4
G1 F720 X-54.47 Y-10.399 E347.407
G0 F18000 X-54.47 Y-9.999
G1 F720 X54.471 Y-10 E352.84204
G0 F18000 X54.471 Y-9.6
G1 F720 X-54.47 Y-9.599 E358.27712
G0 F18000 X-54.47 Y-9.199
G1 F720 X54.471 Y-9.2 E363.71216
G0 F18000 X54.471 Y-8.8
G1 F720 X-54.47 Y-8.799 E369.14725
G0 F18000 X-54.47 Y-8.399
G1 F720 X54.471 Y-8.4 E374.58229
G0 F18000 X54.471 Y-8
G1 F720 X-54.47 Y-7.999 E380.01738
G0 F18000 X-54.47 Y-7.599
G1 F720 X54.471 Y-7.6 E385.45242
G0 F18000 X54.471 Y-7.2
G1 F720 X-54.47 Y-7.199 E390.88751
G0 F18000 X-54.47 Y-6.799
G1 F720 X54.471 Y-6.8 E396.32254
G0 F18000 X54.471 Y-6.4
G1 F720 X-54.47 Y-6.399 E401.75763
G0 F18000 X-54.47 Y-5.999
G1 F720 X54.471 Y-6 E407.19267
G0 F18000 X54.471 Y-5.6
G1 F720 X-54.47 Y-5.599 E412.62776
G0 F18000 X-54.47 Y-5.199
G1 F720 X54.471 Y-5.2 E418.0628
G0 F18000 X54.471 Y-4.8
G1 F720 X-54.47 Y-4.799 E423.49789
G0 F18000 X-54.47 Y-4.399
G1 F720 X54.471 Y-4.4 E428.93293
G0 F18000 X54.471 Y-4
G1 F720 X-54.47 Y-3.999 E434.36801
G0 F18000 X-54.47 Y-3.599
G1 F720 X54.471 Y-3.6 E439.80305
G0 F18000 X54.471 Y-3.2
G1 F720 X-54.47 Y-3.199 E445.23814
G0 F18000 X-54.47 Y-2.799
G1 F720 X54.471 Y-2.8 E450.67318
G0 F18000 X54.471 Y-2.4
G1 F720 X-54.47 Y-2.399 E456.10827
G0 F18000 X-54.47 Y-1.999
G1 F720 X54.471 Y-2 E461.54331
G0 F18000 X54.471 Y-1.6
G1 F720 X-54.47 Y-1.599 E466.9784
G0 F18000 X-54.47 Y-1.199
G1 F720 X54.471 Y-1.2 E472.41344
G0 F18000 X54.471 Y-0.8
G1 F720 X-54.47 Y-0.799 E477.84852
G0 F18000 X-54.47 Y-0.399
G1 F720 X54.471 Y-0.4 E483.28356
G0 F18000 X54.471 Y0
G1 F720 X-54.47 Y0 E488.71865
G0 F18000 X-54.47 Y0.4
G1 F720 X54.471 Y0.399 E494.15369
G0 F18000 X54.471 Y0.799
G1 F720 X-54.47 Y0.8 E499.58878
G0 F18000 X-54.47 Y1.2
G1 F720 X54.471 Y1.199 E505.02382
G0 F18000 X54.471 Y1.599
G1 F720 X-54.47 Y1.6 E510.45891
G0 F18000 X-54.47 Y2
G1 F720 X54.471 Y1.999 E515.89394
G0 F18000 X54.471 Y2.399
G1 F720 X-54.47 Y2.4 E521.32903
G0 F18000 X-54.47 Y2.8
G1 F720 X54.471 Y2.799 E526.76407
G0 F18000 X54.471 Y3.199
G1 F720 X-54.47 Y3.2 E532.19916
G0 F18000 X-54.47 Y3.6
G1 F720 X54.471 Y3.599 E537.6342
G0 F18000 X54.471 Y3.999
G1 F720 X-54.47 Y4 E543.06929
G0 F18000 X-54.47 Y4.4
G1 F720 X54.471 Y4.399 E548.50433
G0 F18000 X54.471 Y4.799
G1 F720 X-54.47 Y4.8 E553.93941
G0 F18000 X-54.47 Y5.2
G1 F720 X54.471 Y5.199 E559.37445
G0 F18000 X54.471 Y5.599
G1 F720 X-54.47 Y5.6 E564.80954
G0 F18000 X-54.47 Y6
G1 F720 X54.471 Y5.999 E570.24458
G0 F18000 X54.471 Y6.399
G1 F720 X-54.47 Y6.4 E575.67967
G0 F18000 X-54.47 Y6.8
G1 F720 X54.471 Y6.799 E581.11471
G0 F18000 X54.471 Y7.199
G1 F720 X-54.47 Y7.2 E586.5498
G0 F18000 X-54.47 Y7.6
G1 F720 X54.471 Y7.599 E591.98483
G0 F18000 X54.471 Y7.999
G1 F720 X-54.47 Y8 E597.41992
G0 F18000 X-54.47 Y8.4
G1 F720 X54.471 Y8.399 E602.85496
G0 F18000 X54.471 Y8.799
G1 F720 X-54.47 Y8.8 E608.29005
G0 F18000 X-54.47 Y9.2
G1 F720 X54.471 Y9.199 E613.72509
G0 F18000 X54.471 Y9.599
G1 F720 X-54.47 Y9.6 E619.16018
G0 F18000 X-54.47 Y10
G1 F720 X54.471 Y9.999 E624.59522
G0 F18000 X54.471 Y10.399
G1 F720 X-54.47 Y10.4 E630.03031
G0 F18000 X-54.47 Y10.8
G1 F720 X54.471 Y10.799 E635.46534
G0 F18000 X54.471 Y11.199
G1 F720 X-54.47 Y11.2 E640.90043
G0 F18000 X-54.47 Y11.6
G1 F720 X54.471 Y11.599 E646.33547
G0 F18000 X54.471 Y11.999
G1 F720 X-54.47 Y12 E651.77056
G0 F18000 X-54.47 Y12.4
G1 F720 X54.471 Y12.399 E657.2056
G0 F18000 X54.471 Y12.799
G1 F720 X-54.47 Y12.8 E662.64069
G0 F18000 X-54.47 Y13.2
G1 F720 X54.471 Y13.199 E668.07573
G0 F18000 X54.471 Y13.599
G1 F720 X-54.47 Y13.6 E673.51081
G0 F18000 X-54.47 Y14
G1 F720 X54.471 Y13.999 E678.94585
G0 F18000 X54.471 Y14.399
G1 F720 X-54.47 Y14.4 E684.38094
G0 F18000 X-54.47 Y14.8
G1 F720 X54.471 Y14.799 E689.81598
G0 F18000 X54.471 Y15.199
G1 F720 X-54.47 Y15.2 E695.25107
G0 F18000 X-54.47 Y15.6
G1 F720 X54.471 Y15.599 E700.68611
G0 F18000 X54.471 Y15.999
G1 F720 X-54.47 Y16 E706.1212
G0 F18000 X-54.47 Y16.4
G1 F720 X54.471 Y16.399 E711.55623
G0 F18000 X54.471 Y16.799
G1 F720 X-54.47 Y16.8 E716.99132
G0 F18000 X-54.47 Y17.2
G1 F720 X54.471 Y17.199 E722.42636
G0 F18000 X54.471 Y17.599
G1 F720 X-54.47 Y17.6 E727.86145
G0 F18000 X-54.47 Y18
G1 F720 X54.471 Y17.999 E733.29649
G0 F18000 X54.471 Y18.399
G1 F720 X-54.47 Y18.4 E738.73158
G0 F18000 X-54.47 Y18.8
G1 F720 X54.471 Y18.799 E744.16662
G0 F18000 X54.471 Y19.199
G1 F720 X-54.47 Y19.2 E749.6017
G0 F18000 X-54.47 Y19.6
G1 F720 X54.471 Y19.599 E755.03674
G0 F18000 X54.471 Y19.999
G1 F720 X-54.47 Y20 E760.47183
G0 F18000 X-54.47 Y20.4
G1 F720 X54.471 Y20.399 E765.90687
G0 F18000 X54.471 Y20.799
G1 F720 X-54.47 Y20.8 E771.34196
G0 F18000 X-54.47 Y21.2
G1 F720 X54.471 Y21.199 E776.777
G0 F18000 X54.471 Y21.599
G1 F720 X-54.47 Y21.6 E782.21209
G0 F18000 X-54.47 Y22
G1 F720 X54.471 Y21.999 E787.64712
G0 F18000 X54.471 Y22.399
G1 F720 X-54.47 Y22.4 E793.08221
G0 F18000 X-54.47 Y22.8
G1 F720 X54.471 Y22.799 E798.51725
G0 F18000 X54.471 Y23.199
G1 F720 X-54.47 Y23.2 E803.95234
G0 F18000 X-54.47 Y23.6
G1 F720 X54.471 Y23.599 E809.38738
G0 F18000 X54.471 Y23.999
G1 F720 X-54.47 Y24 E814.82247
G0 F18000 X-54.47 Y24.4
G1 F720 X54.471 Y24.399 E820.25751
G0 F18000 X54.471 Y24.799
G1 F720 X-54.47 Y24.8 E825.6926
G0 F18000 X-54.47 Y25.2
G1 F720 X54.471 Y25.199 E831.12763
G0 F18000 X54.471 Y25.599
G1 F720 X-54.47 Y25.6 E836.56272
G0 F18000 X-54.47 Y26
G1 F720 X54.471 Y25.999 E841.99776
G0 F18000 X54.471 Y26.399
G1 F720 X-54.47 Y26.4 E847.43285
G0 F18000 X-54.47 Y26.8
G1 F720 X54.471 Y26.799 E852.86789
G0 F18000 X54.471 Y27.199
G1 F720 X-54.47 Y27.2 E858.30298
G0 F18000 X-54.47 Y27.6
G1 F720 X54.471 Y27.599 E863.73802
G0 F18000 X54.471 Y27.999
G1 F720 X-54.47 Y28 E869.1731
G0 F18000 X-54.47 Y28.4
G1 F720 X54.471 Y28.399 E874.60814
G0 F18000 X54.471 Y28.799
G1 F720 X-54.47 Y28.8 E880.04323
G0 F18000 X-54.47 Y29.2
G1 F720 X54.471 Y29.199 E885.47827
G0 F18000 X54.471 Y29.599
G1 F720 X-54.47 Y29.6 E890.91336
G0 F18000 X-54.377 Y30
G1 F720 X54.379 Y29.999 E896.33917
G0 F18000 X53.738 Y30.399
G1 F720 X-53.724 Y30.4 E901.70047
; LAYER:1
G0 F18000 X-53.653 Y30.4 Z0.55
; TYPE:WALL-INNER
G1 F2400 X-53.952 Y30.355 E901.71623
G1 X-54.106 Y30.283 E901.72512
G1 X-54.24 Y30.18 E901.73394
G1 X-54.359 Y30.023 E901.74421
G1 X-54.424 Y29.87 E901.75287
G1 X-54.46 Y29.598 E901.76713
G1 X-54.46 Y-29.597 E904.84344
G1 X-54.424 Y-29.869 E904.85774
G1 X-54.359 Y-30.022 E904.86641
G1 X-54.219 Y-30.195 E904.87798
G1 X-54.068 Y-30.304 E904.88765
G1 X-53.926 Y-30.364 E904.89563
G1 X-53.658 Y-30.399 E904.90963
G1 X53.653 Y-30.399 E910.48642
G1 X53.953 Y-30.354 E910.50218
G1 X54.107 Y-30.282 E910.51099
G1 X54.24 Y-30.179 E910.5197
G1 X54.36 Y-30.022 E910.52993
G1 X54.425 Y-29.869 E910.53852
G1 X54.461 Y-29.597 E910.55273
G1 X54.461 Y29.598 E913.62898
G1 X54.425 Y29.87 E913.64324
G1 X54.36 Y30.023 E913.65188
G1 X54.249 Y30.169 E913.66141
G1 X54.069 Y30.305 E913.67313
G1 X53.927 Y30.365 E913.68115
G1 X53.659 Y30.4 E913.69519
G1 X-53.653 Y30.4 E919.27208
G0 F18000 X-53.693 Y30.9
; TYPE:WALL-OUTER
G1 F2100 X-54.076 Y30.843 E919.29226
G1 X-54.216 Y30.791 E919.30007
G1 X-54.362 Y30.713 E919.30872
G1 X-54.594 Y30.534 E919.32399
G1 X-54.698 Y30.415 E919.33223
G1 X-54.793 Y30.273 E919.34114
G1 X-54.864 Y30.129 E919.34951
G1 X-54.914 Y29.981 E919.35764
G1 X-54.96 Y29.632 E919.37595
G1 X-54.96 Y-29.631 E922.45578
G1 X-54.914 Y-29.98 E922.47412
G1 X-54.864 Y-30.128 E922.48227
G1 X-54.793 Y-30.272 E922.49064
G1 X-54.704 Y-30.405 E922.49897
G1 X-54.565 Y-30.557 E922.50968
G1 X-54.306 Y-30.745 E922.5263
G1 X-54.039 Y-30.853 E922.54124
G1 X-53.692 Y-30.899 E922.55939
G1 X53.694 Y-30.899 E928.14007
G1 X54.077 Y-30.842 E928.16019
G1 X54.217 Y-30.79 E928.16793
G1 X54.363 Y-30.712 E928.17651
G1 X54.594 Y-30.533 E928.19167
G1 X54.702 Y-30.409 E928.20017
G1 X54.794 Y-30.272 E928.2087
G1 X54.865 Y-30.128 E928.217
G1 X54.915 Y-29.98 E928.22507
G1 X54.961 Y-29.631 E928.24331
G1 X54.961 Y29.632 E931.3231
G1 X54.915 Y29.981 E931.34139
G1 X54.865 Y30.129 E931.34951
G1 X54.794 Y30.273 E931.35785
G1 X54.702 Y30.41 E931.36643
G1 X54.595 Y30.532 E931.37486
G1 X54.439 Y30.663 E931.38545
G1 X54.307 Y30.746 E931.39355
G1 X54.04 Y30.854 E931.40852
G1 X53.693 Y30.9 E931.42671
G1 X-53.693 Y30.9 E937.00745
G0 F18000 X-53.499 Y30.209
; TYPE:FILL
G1 F2400 X-53.5 Y-30.208 E940.14726
G0 F18000 X-53 Y-30.208
G1 F2400 X-52.999 Y30.209 E943.28702
G0 F18000 X-52.499 Y30.209
G1 F2400 X-52.5 Y-30.208 E946.42683
G0 F18000 X-52 Y-30.208
G1 F2400 X-51.999 Y30.209 E949.56658
G0 F18000 X-51.499 Y30.209
G1 F2400 X-51.5 Y-30.208 E952.70639
G0 F18000 X-51 Y-30.208
G1 F2400 X-50.999 Y30.209 E955.84615
G0 F18000 X-50.499 Y30.209
G1 F2400 X-50.5 Y-30.208 E958.98596
G0 F18000 X-50 Y-30.208
G1 F2400 X-49.999 Y30.209 E962.12571
G0 F18000 X-49.499 Y30.209
G1 F2400 X-49.5 Y-30.208 E965.26552
G0 F18000 X-49 Y-30.208
G1 F2400 X-48.999 Y30.209 E968.40528
G0 F18000 X-48.499 Y30.209
G1 F2400 X-48.5 Y-30.208 E971.54509
G0 F18000 X-48 Y-30.208
G1 F2400 X-47.999 Y30.209 E974.68484
G0 F18000 X-47.499 Y30.209
G1 F2400 X-47.5 Y-30.208 E977.82465
G0 F18000 X-47 Y-30.208
G1 F2400 X-46.999 Y30.209 E980.96441
G0 F18000 X-46.499 Y30.209
G1 F2400 X-46.5 Y-30.208 E984.10422
G0 F18000 X-46 Y-30.208
G1 F2400 X-45.999 Y30.209 E987.24398
G0 F18000 X-45.499 Y30.209
G1 F2400 X-45.5 Y-30.208 E990.38378
G0 F18000 X-45 Y-30.208
G1 F2400 X-44.999 Y30.209 E993.52354
G0 F18000 X-44.499 Y30.209
G1 F2400 X-44.5 Y-30.208 E996.66335
G0 F18000 X-44 Y-30.208
G1 F2400 X-43.999 Y30.209 E999.80311
G0 F18000 X-43.499 Y30.209
G1 F2400 X-43.5 Y-30.208 E1002.94291
G0 F18000 X-43 Y-30.208
G1 F2400 X-42.999 Y30.209 E1006.08267
G0 F18000 X-42.499 Y30.209
G1 F2400 X-42.5 Y-30.208 E1009.22248
G0 F18000 X-42 Y-30.208
G1 F2400 X-41.999 Y30.209 E1012.36224
G0 F18000 X-41.499 Y30.209
G1 F2400 X-41.5 Y-30.208 E1015.50205
G0 F18000 X-41 Y-30.208
G1 F2400 X-40.999 Y30.209 E1018.6418
G0 F18000 X-40.499 Y30.209
G1 F2400 X-40.5 Y-30.208 E1021.78161
G0 F18000 X-40 Y-30.208
G1 F2400 X-39.999 Y30.209 E1024.92137
G0 F18000 X-39.499 Y30.209
G1 F2400 X-39.5 Y-30.208 E1028.06118
G0 F18000 X-39 Y-30.208
G1 F2400 X-38.999 Y30.209 E1031.20093
G0 F18000 X-38.499 Y30.209
G1 F2400 X-38.5 Y-30.208 E1034.34074
G0 F18000 X-38 Y-30.208
G1 F2400 X-37.999 Y30.209 E1037.4805
G0 F18000 X-37.499 Y30.209
G1 F2400 X-37.5 Y-30.208 E1040.62031
G0 F18000 X-37 Y-30.208
G1 F2400 X-36.999 Y30.209 E1043.76006
G0 F18000 X-36.499 Y30.209
G1 F2400 X-36.5 Y-30.208 E1046.89987
G0 F18000 X-36 Y-30.208
G1 F2400 X-35.999 Y30.209 E1050.03963
G0 F18000 X-35.499 Y30.209
G1 F2400 X-35.5 Y-30.208 E1053.17944
G0 F18000 X-35 Y-30.208
G1 F2400 X-34.999 Y30.209 E1056.3192
G0 F18000 X-34.499 Y30.209
G1 F2400 X-34.5 Y-30.208 E1059.459
G0 F18000 X-34 Y-30.208
G1 F2400 X-33.999 Y30.209 E1062.59876
G0 F18000 X-33.499 Y30.209
G1 F2400 X-33.5 Y-30.208 E1065.73857
G0 F18000 X-33 Y-30.208
G1 F2400 X-32.999 Y30.209 E1068.87833
G0 F18000 X-32.499 Y30.209
G1 F2400 X-32.5 Y-30.208 E1072.01813
G0 F18000 X-32 Y-30.208
G1 F2400 X-31.999 Y30.209 E1075.15789
G0 F18000 X-31.499 Y30.209
G1 F2400 X-31.5 Y-30.208 E1078.2977
G0 F18000 X-31 Y-30.208
G1 F2400 X-30.999 Y30.209 E1081.43746
G0 F18000 X-30.499 Y30.209
G1 F2400 X-30.5 Y-30.208 E1084.57727
G0 F18000 X-30 Y-30.208
G1 F2400 X-29.999 Y30.209 E1087.71702
G0 F18000 X-29.499 Y30.209
G1 F2400 X-29.5 Y-30.208 E1090.85683
G0 F18000 X-29 Y-30.208
G1 F2400 X-28.999 Y30.209 E1093.99659
G0 F18000 X-28.499 Y30.209
G1 F2400 X-28.5 Y-30.208 E1097.1364
G0 F18000 X-28 Y-30.208
G1 F2400 X-27.999 Y30.209 E1100.27615
G0 F18000 X-27.499 Y30.209
G1 F2400 X-27.5 Y-30.208 E1103.41596
G0 F18000 X-27 Y-30.208
G1 F2400 X-26.999 Y30.209 E1106.55572
G0 F18000 X-26.499 Y30.209
G1 F2400 X-26.5 Y-30.208 E1109.69553
G0 F18000 X-26 Y-30.208
G1 F2400 X-25.999 Y30.209 E1112.83528
G0 F18000 X-25.499 Y30.209
G1 F2400 X-25.5 Y-30.208 E1115.97509
G0 F18000 X-25 Y-30.208
G1 F2400 X-24.999 Y30.209 E1119.11485
G0 F18000 X-24.499 Y30.209
G1 F2400 X-24.5 Y-30.208 E1122.25466
G0 F18000 X-24 Y-30.208
G1 F2400 X-23.999 Y30.209 E1125.39442
G0 F18000 X-23.499 Y30.209
G1 F2400 X-23.5 Y-30.208 E1128.53422
G0 F18000 X-23 Y-30.208
G1 F2400 X-22.999 Y30.209 E1131.67398
G0 F18000 X-22.499 Y30.209
G1 F2400 X-22.5 Y-30.208 E1134.81379
G0 F18000 X-22 Y-30.208
G1 F2400 X-21.999 Y30.209 E1137.95355
G0 F18000 X-21.499 Y30.209
G1 F2400 X-21.5 Y-30.208 E1141.09336
G0 F18000 X-21 Y-30.208
G1 F2400 X-20.999 Y30.209 E1144.23311
G0 F18000 X-20.499 Y30.209
G1 F2400 X-20.5 Y-30.208 E1147.37292
G0 F18000 X-20 Y-30.208
G1 F2400 X-19.999 Y30.209 E1150.51268
G0 F18000 X-19.499 Y30.209
G1 F2400 X-19.5 Y-30.208 E1153.65249
G0 F18000 X-19 Y-30.208
G1 F2400 X-18.999 Y30.209 E1156.79224
G0 F18000 X-18.499 Y30.209
G1 F2400 X-18.5 Y-30.208 E1159.93205
G0 F18000 X-18 Y-30.208
G1 F2400 X-17.999 Y30.209 E1163.07181
G0 F18000 X-17.499 Y30.209
G1 F2400 X-17.5 Y-30.208 E1166.21162
G0 F18000 X-17 Y-30.208
G1 F2400 X-16.999 Y30.209 E1169.35137
G0 F18000 X-16.499 Y30.209
G1 F2400 X-16.5 Y-30.208 E1172.49118
G0 F18000 X-16 Y-30.208
G1 F2400 X-15.999 Y30.209 E1175.63094
G0 F18000 X-15.499 Y30.209
G1 F2400 X-15.5 Y-30.208 E1178.77075
G0 F18000 X-15 Y-30.208
G1 F2400 X-14.999 Y30.209 E1181.9105
G0 F18000 X-14.499 Y30.209
G1 F2400 X-14.5 Y-30.209 E1185.05037
G0 F18000 X-14 Y-30.209
G1 F2400 X-13.999 Y30.209 E1188.19017
G0 F18000 X-13.499 Y30.209
G1 F2400 X-13.5 Y-30.209 E1191.33003
G0 F18000 X-13 Y-30.209
G1 F2400 X-12.999 Y30.209 E1194.46984
G0 F18000 X-12.499 Y30.209
G1 F2400 X-12.5 Y-30.209 E1197.6097
G0 F18000 X-12 Y-30.209
G1 F2400 X-11.999 Y30.209 E1200.74951
G0 F18000 X-11.499 Y30.209
G1 F2400 X-11.5 Y-30.209 E1203.88937
G0 F18000 X-11 Y-30.209
G1 F2400 X-10.999 Y30.209 E1207.02918
G0 F18000 X-10.499 Y30.209
G1 F2400 X-10.5 Y-30.209 E1210.16904
G0 F18000 X-10 Y-30.209
G1 F2400 X-9.999 Y30.209 E1213.30885
G0 F18000 X-9.499 Y30.209
G1 F2400 X-9.5 Y-30.209 E1216.44871
G0 F18000 X-9 Y-30.209
G1 F2400 X-8.999 Y30.209 E1219.58852
G0 F18000 X-8.499 Y30.209
G1 F2400 X-8.5 Y-30.209 E1222.72838
G0 F18000 X-8 Y-30.209
G1 F2400 X-7.999 Y30.209 E1225.86819
G0 F18000 X-7.499 Y30.209
G1 F2400 X-7.5 Y-30.209 E1229.00805
G0 F18000 X-7 Y-30.209
G1 F2400 X-6.999 Y30.209 E1232.14786
G0 F18000 X-6.499 Y30.209
G1 F2400 X-6.5 Y-30.209 E1235.28772
G0 F18000 X-6 Y-30.209
G1 F2400 X-5.999 Y30.209 E1238.42753
G0 F18000 X-5.499 Y30.209
G1 F2400 X-5.5 Y-30.209 E1241.56739
G0 F18000 X-5 Y-30.209
G1 F2400 X-4.999 Y30.209 E1244.7072
G0 F18000 X-4.499 Y30.209
G1 F2400 X-4.5 Y-30.209 E1247.84706
G0 F18000 X-4 Y-30.209
G1 F2400 X-3.999 Y30.209 E1250.98687
G0 F18000 X-3.499 Y30.209
G1 F2400 X-3.5 Y-30.209 E1254.12673
G0 F18000 X-3 Y-30.209
G1 F2400 X-2.999 Y30.209 E1257.26654
G0 F18000 X-2.499 Y30.209
G1 F2400 X-2.5 Y-30.209 E1260.4064
G0 F18000 X-2 Y-30.209
G1 F2400 X-1.999 Y30.209 E1263.54621
G0 F18000 X-1.499 Y30.209
G1 F2400 X-1.5 Y-30.209 E1266.68607
G0 F18000 X-1 Y-30.209
G1 F2400 X-0.999 Y30.209 E1269.82588
G0 F18000 X-0.499 Y30.209
G1 F2400 X-0.5 Y-30.209 E1272.96574
G0 F18000 X0 Y-30.208
G1 F2400 X0 Y30.209 E1276.10549
G0 F18000 X0.5 Y30.21
G1 F2400 X0.499 Y-30.208 E1279.24535
G0 F18000 X0.999 Y-30.208
G1 F2400 X1 Y30.21 E1282.38516
G0 F18000 X1.5 Y30.21
G1 F2400 X1.499 Y-30.208 E1285.52502
G0 F18000 X1.999 Y-30.208
G1 F2400 X2 Y30.21 E1288.66483
G0 F18000 X2.5 Y30.21
G1 F2400 X2.499 Y-30.208 E1291.80469
G0 F18000 X2.999 Y-30.208
G1 F2400 X3 Y30.21 E1294.9445
G0 F18000 X3.5 Y30.21
G1 F2400 X3.499 Y-30.208 E1298.08436
G0 F18000 X3.999 Y-30.208
G1 F2400 X4 Y30.21 E1301.22417
G0 F18000 X4.5 Y30.21
G1 F2400 X4.499 Y-30.208 E1304.36403
G0 F18000 X4.999 Y-30.208
G1 F2400 X5 Y30.21 E1307.50384
G0 F18000 X5.5 Y30.21
G1 F2400 X5.499 Y-30.208 E1310.6437
G0 F18000 X5.999 Y-30.208
G1 F2400 X6 Y30.21 E1313.78351
G0 F18000 X6.5 Y30.21
G1 F2400 X6.499 Y-30.208 E1316.92337
G0 F18000 X6.999 Y-30.208
G1 F2400 X7 Y30.21 E1320.06318
G0 F18000 X7.5 Y30.21
G1 F2400 X7.499 Y-30.208 E1323.20304
G0 F18000 X7.999 Y-30.208
G1 F2400 X8 Y30.21 E1326.34285
G0 F18000 X8.5 Y30.21
G1 F2400 X8.499 Y-30.208 E1329.48271
G0 F18000 X8.999 Y-30.208
G1 F2400 X9 Y30.21 E1332.62252
G0 F18000 X9.5 Y30.21
G1 F2400 X9.499 Y-30.208 E1335.76238
G0 F18000 X9.999 Y-30.208
G1 F2400 X10 Y30.21 E1338.90219
G0 F18000 X10.5 Y30.21
G1 F2400 X10.499 Y-30.208 E1342.04205
G0 F18000 X10.999 Y-30.208
G1 F2400 X11 Y30.21 E1345.18186
G0 F18000 X11.5 Y30.21
G1 F2400 X11.499 Y-30.208 E1348.32172
G0 F18000 X11.999 Y-30.208
G1 F2400 X12 Y30.21 E1351.46153
G0 F18000 X12.5 Y30.21
G1 F2400 X12.499 Y-30.208 E1354.60139
G0 F18000 X12.999 Y-30.208
G1 F2400 X13 Y30.21 E1357.7412
G0 F18000 X13.5 Y30.21
G1 F2400 X13.499 Y-30.208 E1360.88106
G0 F18000 X13.999 Y-30.208
G1 F2400 X14 Y30.21 E1364.02087
G0 F18000 X14.5 Y30.21
G1 F2400 X14.499 Y-30.208 E1367.16073
G0 F18000 X14.999 Y-30.208
G1 F2400 X15 Y30.209 E1370.30048
G0 F18000 X15.5 Y30.209
G1 F2400 X15.499 Y-30.208 E1373.44029
G0 F18000 X15.999 Y-30.208
G1 F2400 X16 Y30.209 E1376.58005
G0 F18000 X16.5 Y30.209
G1 F2400 X16.499 Y-30.208 E1379.71986
G0 F18000 X16.999 Y-30.208
G1 F2400 X17 Y30.209 E1382.85961
G0 F18000 X17.5 Y30.209
G1 F2400 X17.499 Y-30.208 E1385.99942
G0 F18000 X17.999 Y-30.208
G1 F2400 X18 Y30.209 E1389.13918
G0 F18000 X18.5 Y30.209
G1 F2400 X18.499 Y-30.208 E1392.27899
G0 F18000 X18.999 Y-30.208
G1 F2400 X19 Y30.209 E1395.41874
G0 F18000 X19.5 Y30.209
G1 F2400 X19.499 Y-30.208 E1398.55855
G0 F18000 X19.999 Y-30.208
G1 F2400 X20 Y30.209 E1401.69831
G0 F18000 X20.5 Y30.209
G1 F2400 X20.499 Y-30.208 E1404.83812
G0 F18000 X20.999 Y-30.208
G1 F2400 X21 Y30.209 E1407.97788
G0 F18000 X21.5 Y30.209
G1 F2400 X21.499 Y-30.208 E1411.11768
G0 F18000 X21.999 Y-30.208
G1 F2400 X22 Y30.209 E1414.25744
G0 F18000 X22.5 Y30.209
G1 F2400 X22.499 Y-30.208 E1417.39725
G0 F18000 X22.999 Y-30.208
G1 F2400 X23 Y30.209 E1420.53701
G0 F18000 X23.5 Y30.209
G1 F2400 X23.499 Y-30.208 E1423.67682
G0 F18000 X23.999 Y-30.208
G1 F2400 X24 Y30.209 E1426.81657
G0 F18000 X24.5 Y30.209
G1 F2400 X24.499 Y-30.208 E1429.95638
G0 F18000 X24.999 Y-30.208
G1 F2400 X25 Y30.209 E1433.09614
G0 F18000 X25.5 Y30.209
G1 F2400 X25.499 Y-30.208 E1436.23595
G0 F18000 X25.999 Y-30.208
G1 F2400 X26 Y30.209 E1439.3757
G0 F18000 X26.5 Y30.209
G1 F2400 X26.499 Y-30.208 E1442.51551
G0 F18000 X26.999 Y-30.208
G1 F2400 X27 Y30.209 E1445.65527
G0 F18000 X27.5 Y30.209
G1 F2400 X27.499 Y-30.208 E1448.79508
G0 F18000 X27.999 Y-30.208
G1 F2400 X28 Y30.209 E1451.93483
G0 F18000 X28.5 Y30.209
G1 F2400 X28.499 Y-30.208 E1455.07464
G0 F18000 X28.999 Y-30.208
G1 F2400 X29 Y30.209 E1458.2144
G0 F18000 X29.5 Y30.209
G1 F2400 X29.499 Y-30.208 E1461.35421
G0 F18000 X29.999 Y-30.208
G1 F2400 X30 Y30.209 E1464.49396
G0 F18000 X30.5 Y30.209
G1 F2400 X30.499 Y-30.208 E1467.63377
G0 F18000 X30.999 Y-30.208
G1 F2400 X31 Y30.209 E1470.77353
G0 F18000 X31.5 Y30.209
G1 F2400 X31.499 Y-30.208 E1473.91334
G0 F18000 X31.999 Y-30.208
G1 F2400 X32 Y30.209 E1477.0531
G0 F18000 X32.5 Y30.209
G1 F2400 X32.499 Y-30.208 E1480.1929
G0 F18000 X32.999 Y-30.208
G1 F2400 X33 Y30.209 E1483.33266
G0 F18000 X33.5 Y30.209
G1 F2400 X33.499 Y-30.208 E1486.47247
G0 F18000 X33.999 Y-30.208
G1 F2400 X34 Y30.209 E1489.61223
G0 F18000 X34.5 Y30.209
G1 F2400 X34.499 Y-30.208 E1492.75204
G0 F18000 X34.999 Y-30.208
G1 F2400 X35 Y30.209 E1495.89179
G0 F18000 X35.5 Y30.209
G1 F2400 X35.499 Y-30.208 E1499.0316
G0 F18000 X35.999 Y-30.208
G1 F2400 X36 Y30.209 E1502.17136
G0 F18000 X36.5 Y30.209
G1 F2400 X36.499 Y-30.208 E1505.31117
G0 F18000 X36.999 Y-30.208
G1 F2400 X37 Y30.209 E1508.45092
G0 F18000 X37.5 Y30.209
G1 F2400 X37.499 Y-30.208 E1511.59073
G0 F18000 X37.999 Y-30.208
G1 F2400 X38 Y30.209 E1514.73049
G0 F18000 X38.5 Y30.209
G1 F2400 X38.499 Y-30.208 E1517.8703
G0 F18000 X38.999 Y-30.208
G1 F2400 X39 Y30.209 E1521.01005
G0 F18000 X39.5 Y30.209
G1 F2400 X39.499 Y-30.208 E1524.14986
G0 F18000 X39.999 Y-30.208
G1 F2400 X40 Y30.209 E1527.28962
G0 F18000 X40.5 Y30.209
G1 F2400 X40.499 Y-30.208 E1530.42943
G0 F18000 X40.999 Y-30.208
G1 F2400 X41 Y30.209 E1533.56918
G0 F18000 X41.5 Y30.209
G1 F2400 X41.499 Y-30.208 E1536.70899
G0 F18000 X41.999 Y-30.208
G1 F2400 X42 Y30.209 E1539.84875
G0 F18000 X42.5 Y30.209
G1 F2400 X42.499 Y-30.208 E1542.98856
G0 F18000 X42.999 Y-30.208
G1 F2400 X43 Y30.209 E1546.12832
G0 F18000 X43.5 Y30.209
G1 F2400 X43.499 Y-30.208 E1549.26812
G0 F18000 X43.999 Y-30.208
G1 F2400 X44 Y30.209 E1552.40788
G0 F18000 X44.5 Y30.209
G1 F2400 X44.499 Y-30.208 E1555.54769
G0 F18000 X44.999 Y-30.208
G1 F2400 X45 Y30.209 E1558.68745
G0 F18000 X45.5 Y30.209
G1 F2400 X45.499 Y-30.208 E1561.82726
G0 F18000 X45.999 Y-30.208
G1 F2400 X46 Y30.209 E1564.96701
G0 F18000 X46.5 Y30.209
G1 F2400 X46.499 Y-30.208 E1568.10682
G0 F18000 X46.999 Y-30.208
G1 F2400 X47 Y30.209 E1571.24658
G0 F18000 X47.5 Y30.209
G1 F2400 X47.499 Y-30.208 E1574.38639
G0 F18000 X47.999 Y-30.208
G1 F2400 X48 Y30.209 E1577.52614
G0 F18000 X48.5 Y30.209
G1 F2400 X48.499 Y-30.208 E1580.66595
G0 F18000 X48.999 Y-30.208
G1 F2400 X49 Y30.209 E1583.80571
G0 F18000 X49.5 Y30.209
G1 F2400 X49.499 Y-30.208 E1586.94552
G0 F18000 X49.999 Y-30.208
G1 F2400 X50 Y30.209 E1590.08527
G0 F18000 X50.5 Y30.209
G1 F2400 X50.499 Y-30.208 E1593.22508
G0 F18000 X50.999 Y-30.208
G1 F2400 X51 Y30.209 E1596.36484
G0 F18000 X51.5 Y30.209
G1 F2400 X51.499 Y-30.208 E1599.50465
G0 F18000 X51.999 Y-30.208
G1 F2400 X52 Y30.209 E1602.64441
G0 F18000 X52.5 Y30.209
G1 F2400 X52.499 Y-30.208 E1605.78421
G0 F18000 X52.999 Y-30.208
G1 F2400 X53 Y30.209 E1608.92397
G0 F18000 X53.5 Y30.209
G1 F2400 X53.499 Y-30.208 E1612.06378
G0 F18000 X53.999 Y-30.122
G1 F2400 X54 Y30.117 E1615.19429
G0 F18000 X-53.999 Y30.122
G0 X-53.999 Y30.122
G1 F2400 X-54 Y-30.118 E1618.3249
; LAYER:2
M106 S153
G0 F18000 X-54.054 Y-30.31 Z0.8
; TYPE:WALL-INNER
G1 F2400 X-53.928 Y-30.363 E1618.33197
G1 X-53.658 Y-30.399 E1618.34608
G1 X53.659 Y-30.399 E1623.92318
G1 X53.918 Y-30.365 E1623.93675
G1 X54.112 Y-30.277 E1623.9478
G1 X54.281 Y-30.128 E1623.95948
G1 X54.402 Y-29.937 E1623.97118
G1 X54.425 Y-29.869 E1623.97486
G1 X54.461 Y-29.597 E1623.98907
G1 X54.461 Y29.598 E1627.06532
G1 X54.425 Y29.87 E1627.07958
G1 X54.36 Y30.023 E1627.08822
G1 X54.247 Y30.171 E1627.0979
G1 X54.055 Y30.311 E1627.11025
G1 X53.929 Y30.364 E1627.11735
G1 X53.659 Y30.4 E1627.13151
G1 X-53.658 Y30.4 E1632.70866
G1 X-53.917 Y30.366 E1632.72229
G1 X-54.111 Y30.278 E1632.7334
G1 X-54.28 Y30.129 E1632.74515
G1 X-54.401 Y29.938 E1632.75693
G1 X-54.424 Y29.87 E1632.76068
G1 X-54.46 Y29.598 E1632.77494
G1 X-54.46 Y-29.597 E1635.85125
G1 X-54.424 Y-29.869 E1635.86555
G1 X-54.368 Y-30.005 E1635.87322
G1 X-54.263 Y-30.146 E1635.88237
G1 X-54.054 Y-30.31 E1635.89617
G0 F18000 X-54.286 Y-30.755
; TYPE:WALL-OUTER
G1 F2100 X-54.039 Y-30.853 E1635.90995
G1 X-53.692 Y-30.899 E1635.92809
G1 X53.693 Y-30.899 E1641.50873
G1 X54.039 Y-30.854 E1641.52685
G1 X54.238 Y-30.779 E1641.53789
G1 X54.379 Y-30.701 E1641.54624
G1 X54.511 Y-30.604 E1641.55472
G1 X54.667 Y-30.448 E1641.56615
G1 X54.795 Y-30.27 E1641.5775
G1 X54.865 Y-30.128 E1641.58568
G1 X54.915 Y-29.98 E1641.59375
G1 X54.961 Y-29.631 E1641.61199
G1 X54.961 Y29.632 E1644.69178
G1 X54.915 Y29.981 E1644.71007
G1 X54.865 Y30.129 E1644.71819
G1 X54.794 Y30.273 E1644.72653
G1 X54.702 Y30.41 E1644.73511
G1 X54.596 Y30.531 E1644.74347
G1 X54.423 Y30.673 E1644.7551
G1 X54.287 Y30.756 E1644.76338
G1 X54.04 Y30.854 E1644.77719
G1 X53.693 Y30.9 E1644.79538
G1 X-53.692 Y30.9 E1650.37607
G1 X-54.038 Y30.855 E1650.39425
G1 X-54.237 Y30.78 E1650.40535
G1 X-54.378 Y30.702 E1650.41377
G1 X-54.51 Y30.605 E1650.42233
G1 X-54.666 Y30.449 E1650.43383
G1 X-54.794 Y30.271 E1650.44525
G1 X-54.864 Y30.129 E1650.45351
G1 X-54.914 Y29.981 E1650.46164
G1 X-54.96 Y29.632 E1650.47994
G1 X-54.96 Y-29.631 E1653.55978
G1 X-54.914 Y-29.98 E1653.57812
G1 X-54.864 Y-30.128 E1653.58627
G1 X-54.795 Y-30.267 E1653.59436
G1 X-54.63 Y-30.49 E1653.60878
G1 X-54.419 Y-30.674 E1653.62333
G1 X-54.286 Y-30.755 E1653.6314
G0 F18000 X-54.134 Y-29.999
; TYPE:FILL
G1 F2400 X54.137 Y-30 E1659.25808
G0 F18000 X54.271 Y-29.5
G1 F2400 X-54.27 Y-29.499 E1664.89885
G0 F18000 X-54.27 Y-28.999
G1 F2400 X54.271 Y-29 E1670.53956
G0 F18000 X54.271 Y-28.5
G1 F2400 X-54.27 Y-28.499 E1676.18032
G0 F18000 X-54.27 Y-27.999
G1 F2400 X54.271 Y-28 E1681.82103
G0 F18000 X54.271 Y-27.5
G1 F2400 X-54.27 Y-27.499 E1687.46179
G0 F18000 X-54.27 Y-26.999
G1 F2400 X54.271 Y-27 E1693.10251
G0 F18000 X54.271 Y-26.5
G1 F2400 X-54.27 Y-26.499 E1698.74327
G0 F18000 X-54.27 Y-25.999
G1 F2400 X54.271 Y-26 E1704.38398
G0 F18000 X54.271 Y-25.5
G1 F2400 X-54.27 Y-25.499 E1710.02474
G0 F18000 X-54.27 Y-24.999
G1 F2400 X54.271 Y-25 E1715.66545
G0 F18000 X54.271 Y-24.5
G1 F2400 X-54.27 Y-24.499 E1721.30622
G0 F18000 X-54.27 Y-23.999
G1 F2400 X54.271 Y-24 E1726.94693
G0 F18000 X54.271 Y-23.5
G1 F2400 X-54.27 Y-23.499 E1732.58769
G0 F18000 X-54.27 Y-22.999
G1 F2400 X54.271 Y-23 E1738.2284
G0 F18000 X54.271 Y-22.5
G1 F2400 X-54.27 Y-22.499 E1743.86916
G0 F18000 X-54.27 Y-21.999
G1 F2400 X54.271 Y-22 E1749.50988
G0 F18000 X54.271 Y-21.5
G1 F2400 X-54.27 Y-21.499 E1755.15064
G0 F18000 X-54.27 Y-20.999
G1 F2400 X54.271 Y-21 E1760.79135
G0 F18000 X54.271 Y-20.5
G1 F2400 X-54.27 Y-20.499 E1766.43211
G0 F18000 X-54.27 Y-19.999
G1 F2400 X54.271 Y-20 E1772.07282
G0 F18000 X54.271 Y-19.5
G1 F2400 X-54.27 Y-19.499 E1777.71359
G0 F18000 X-54.27 Y-18.999
G1 F2400 X54.271 Y-19 E1783.3543
G0 F18000 X54.271 Y-18.5
G1 F2400 X-54.27 Y-18.499 E1788.99506
G0 F18000 X-54.27 Y-17.999
G1 F2400 X54.271 Y-18 E1794.63577
G0 F18000 X54.271 Y-17.5
G1 F2400 X-54.27 Y-17.499 E1800.27653
G0 F18000 X-54.27 Y-16.999
G1 F2400 X54.271 Y-17 E1805.91725
G0 F18000 X54.271 Y-16.5
G1 F2400 X-54.27 Y-16.499 E1811.55801
G0 F18000 X-54.27 Y-15.999
G1 F2400 X54.271 Y-16 E1817.19872
G0 F18000 X54.271 Y-15.5
G1 F2400 X-54.27 Y-15.499 E1822.83948
G0 F18000 X-54.27 Y-14.999
G1 F2400 X54.271 Y-15 E1828.48019
G0 F18000 X54.271 Y-14.5
G1 F2400 X-54.27 Y-14.499 E1834.12096
G0 F18000 X-54.27 Y-13.999
G1 F2400 X54.271 Y-14 E1839.76167
G0 F18000 X54.271 Y-13.5
G1 F2400 X-54.27 Y-13.499 E1845.40243
G0 F18000 X-54.27 Y-12.999
G1 F2400 X54.271 Y-13 E1851.04314
G0 F18000 X54.271 Y-12.5
G1 F2400 X-54.27 Y-12.499 E1856.6839
G0 F18000 X-54.27 Y-11.999
G1 F2400 X54.271 Y-12 E1862.32462
G0 F18000 X54.271 Y-11.5
G1 F2400 X-54.27 Y-11.499 E1867.96538
G0 F18000 X-54.27 Y-10.999
G1 F2400 X54.271 Y-11 E1873.60609
G0 F18000 X54.271 Y-10.5
G1 F2400 X-54.27 Y-10.499 E1879.24685
G0 F18000 X-54.27 Y-9.999
G1 F2400 X54.271 Y-10 E1884.88756
G0 F18000 X54.271 Y-9.5
G1 F2400 X-54.27 Y-9.499 E1890.52833
G0 F18000 X-54.27 Y-8.999
G1 F2400 X54.271 Y-9 E1896.16904
G0 F18000 X54.271 Y-8.5
G1 F2400 X-54.27 Y-8.499 E1901.8098
G0 F18000 X-54.27 Y-7.999
G1 F2400 X54.271 Y-8 E1907.45051
G0 F18000 X54.271 Y-7.5
G1 F2400 X-54.27 Y-7.499 E1913.09128
G0 F18000 X-54.27 Y-6.999
G1 F2400 X54.271 Y-7 E1918.73199
G0 F18000 X54.271 Y-6.5
G1 F2400 X-54.27 Y-6.499 E1924.37275
G0 F18000 X-54.27 Y-5.999
G1 F2400 X54.271 Y-6 E1930.01346
G0 F18000 X54.271 Y-5.5
G1 F2400 X-54.27 Y-5.499 E1935.65422
G0 F18000 X-54.27 Y-4.999
G1 F2400 X54.271 Y-5 E1941.29493
G0 F18000 X54.271 Y-4.5
G1 F2400 X-54.27 Y-4.499 E1946.9357
G0 F18000 X-54.27 Y-3.999
G1 F2400 X54.271 Y-4 E1952.57641
G0 F18000 X54.271 Y-3.5
G1 F2400 X-54.27 Y-3.499 E1958.21717
G0 F18000 X-54.27 Y-2.999
G1 F2400 X54.271 Y-3 E1963.85788
G0 F18000 X54.271 Y-2.5
G1 F2400 X-54.27 Y-2.499 E1969.49865
G0 F18000 X-54.27 Y-1.999
G1 F2400 X54.271 Y-2 E1975.13936
G0 F18000 X54.271 Y-1.5
G1 F2400 X-54.27 Y-1.499 E1980.78012
G0 F18000 X-54.27 Y-0.999
G1 F2400 X54.271 Y-1 E1986.42083
G0 F18000 X54.271 Y-0.5
G1 F2400 X-54.27 Y-0.499 E1992.06159
G0 F18000 X-54.27 Y0
G1 F2400 X54.271 Y0 E1997.7023
G0 F18000 X54.271 Y0.499
G1 F2400 X-54.27 Y0.5 E2003.34307
G0 F18000 X-54.27 Y1
G1 F2400 X54.271 Y0.999 E2008.98378
G0 F18000 X54.271 Y1.499
G1 F2400 X-54.27 Y1.5 E2014.62454
G0 F18000 X-54.27 Y2
G1 F2400 X54.271 Y1.999 E2020.26525
G0 F18000 X54.271 Y2.499
G1 F2400 X-54.27 Y2.5 E2025.90602
G0 F18000 X-54.27 Y3
G1 F2400 X54.271 Y2.999 E2031.54673
G0 F18000 X54.271 Y3.499
G1 F2400 X-54.27 Y3.5 E2037.18749
G0 F18000 X-54.27 Y4
G1 F2400 X54.271 Y3.999 E2042.8282
G0 F18000 X54.271 Y4.499
G1 F2400 X-54.27 Y4.5 E2048.46896
G0 F18000 X-54.27 Y5
G1 F2400 X54.271 Y4.999 E2054.10967
G0 F18000 X54.271 Y5.499
G1 F2400 X-54.27 Y5.5 E2059.75044
G0 F18000 X-54.27 Y6
G1 F2400 X54.271 Y5.999 E2065.39115
G0 F18000 X54.271 Y6.499
G1 F2400 X-54.27 Y6.5 E2071.03191
G0 F18000 X-54.27 Y7
G1 F2400 X54.271 Y6.999 E2076.67262
G0 F18000 X54.271 Y7.499
G1 F2400 X-54.27 Y7.5 E2082.31339
G0 F18000 X-54.27 Y8
G1 F2400 X54.271 Y7.999 E2087.9541
G0 F18000 X54.271 Y8.499
G1 F2400 X-54.27 Y8.5 E2093.59486
G0 F18000 X-54.27 Y9
G1 F2400 X54.271 Y8.999 E2099.23557
G0 F18000 X54.271 Y9.499
G1 F2400 X-54.27 Y9.5 E2104.87633
G0 F18000 X-54.27 Y10
G1 F2400 X54.271 Y9.999 E2110.51704
G0 F18000 X54.271 Y10.499
G1 F2400 X-54.27 Y10.5 E2116.15781
G0 F18000 X-54.27 Y11
G1 F2400 X54.271 Y10.999 E2121.79852
G0 F18000 X54.271 Y11.499
G1 F2400 X-54.27 Y11.5 E2127.43928
G0 F18000 X-54.27 Y12
G1 F2400 X54.271 Y11.999 E2133.07999
G0 F18000 X54.271 Y12.499
G1 F2400 X-54.27 Y12.5 E2138.72076
G0 F18000 X-54.27 Y13
G1 F2400 X54.271 Y12.999 E2144.36147
G0 F18000 X54.271 Y13.499
G1 F2400 X-54.27 Y13.5 E2150.00223
G0 F18000 X-54.27 Y14
G1 F2400 X54.271 Y13.999 E2155.64294
G0 F18000 X54.271 Y14.499
G1 F2400 X-54.27 Y14.5 E2161.2837
G0 F18000 X-54.27 Y15
G1 F2400 X54.271 Y14.999 E2166.92441
G0 F18000 X54.271 Y15.499
G1 F2400 X-54.27 Y15.5 E2172.56518
G0 F18000 X-54.27 Y16
G1 F2400 X54.271 Y15.999 E2178.20589
G0 F18000 X54.271 Y16.499
G1 F2400 X-54.27 Y16.5 E2183.84665
G0 F18000 X-54.27 Y17
G1 F2400 X54.271 Y16.999 E2189.48736
G0 F18000 X54.271 Y17.499
G1 F2400 X-54.27 Y17.5 E2195.12813
G0 F18000 X-54.27 Y18
G1 F2400 X54.271 Y17.999 E2200.76884
G0 F18000 X54.271 Y18.499
G1 F2400 X-54.27 Y18.5 E2206.4096
G0 F18000 X-54.27 Y19
G1 F2400 X54.271 Y18.999 E2212.05031
G0 F18000 X54.271 Y19.499
G1 F2400 X-54.27 Y19.5 E2217.69107
G0 F18000 X-54.27 Y20
G1 F2400 X54.271 Y19.999 E2223.33178
G0 F18000 X54.271 Y20.499
G1 F2400 X-54.27 Y20.5 E2228.97255
G0 F18000 X-54.27 Y21
G1 F2400 X54.271 Y20.999 E2234.61326
G0 F18000 X54.271 Y21.499
G1 F2400 X-54.27 Y21.5 E2240.25402
G0 F18000 X-54.27 Y22
G1 F2400 X54.271 Y21.999 E2245.89473
G0 F18000 X54.271 Y22.499
G1 F2400 X-54.27 Y22.5 E2251.5355
G0 F18000 X-54.27 Y23
G1 F2400 X54.271 Y22.999 E2257.17621
G0 F18000 X54.271 Y23.499
G1 F2400 X-54.27 Y23.5 E2262.81697
G0 F18000 X-54.27 Y24
G1 F2400 X54.271 Y23.999 E2268.45768
G0 F18000 X54.271 Y24.499
G1 F2400 X-54.27 Y24.5 E2274.09844
G0 F18000 X-54.27 Y25
G1 F2400 X54.271 Y24.999 E2279.73915
G0 F18000 X54.271 Y25.499
G1 F2400 X-54.27 Y25.5 E2285.37992
G0 F18000 X-54.27 Y26
G1 F2400 X54.271 Y25.999 E2291.02063
G0 F18000 X54.271 Y26.499
G1 F2400 X-54.27 Y26.5 E2296.66139
G0 F18000 X-54.27 Y27
G1 F2400 X54.271 Y26.999 E2302.3021
G0 F18000 X54.271 Y27.499
G1 F2400 X-54.27 Y27.5 E2307.94287
G0 F18000 X-54.27 Y28
G1 F2400 X54.271 Y27.999 E2313.58358
G0 F18000 X54.271 Y28.499
G1 F2400 X-54.27 Y28.5 E2319.22434
G0 F18000 X-54.27 Y29
G1 F2400 X54.271 Y28.999 E2324.86505
G0 F18000 X54.271 Y29.499
G1 F2400 X-54.27 Y29.5 E2330.50581
G0 F18000 X-54.137 Y30
G1 F2400 X54.138 Y29.999 E2336.1327
; LAYER:3
G0 F18000 X54.253 Y30.165 Z1.05
; TYPE:WALL-INNER
G1 F2400 X54.126 Y30.267 E2336.14117
G1 X53.931 Y30.364 E2336.15249
G1 X53.659 Y30.4 E2336.16674
G1 X-53.658 Y30.4 E2341.7439
G1 X-53.912 Y30.367 E2341.75726
G1 X-54.035 Y30.319 E2341.76417
G1 X-54.165 Y30.24 E2341.77212
G1 X-54.272 Y30.137 E2341.77988
G1 X-54.355 Y30.024 E2341.78719
G1 X-54.425 Y29.864 E2341.79629
G1 X-54.46 Y29.598 E2341.81024
G1 X-54.46 Y-29.597 E2344.88654
G1 X-54.426 Y-29.852 E2344.89996
G1 X-54.376 Y-29.981 E2344.90718
G1 X-54.302 Y-30.101 E2344.91452
G1 X-54.202 Y-30.207 E2344.9221
G1 X-54.084 Y-30.294 E2344.9297
G1 X-53.926 Y-30.364 E2344.93866
G1 X-53.658 Y-30.399 E2344.95266
G1 X53.659 Y-30.399 E2350.52976
G1 X53.913 Y-30.366 E2350.54307
G1 X54.035 Y-30.319 E2350.54984
G1 X54.166 Y-30.239 E2350.55779
G1 X54.273 Y-30.136 E2350.56547
G1 X54.356 Y-30.023 E2350.57272
G1 X54.426 Y-29.863 E2350.58175
G1 X54.461 Y-29.597 E2350.59564
G1 X54.461 Y29.598 E2353.67189
G1 X54.427 Y29.853 E2353.68526
G1 X54.377 Y29.982 E2353.69245
G1 X54.253 Y30.165 E2353.70394
G0 F18000 X54.598 Y30.529
; TYPE:WALL-OUTER
G1 F2100 X54.408 Y30.682 E2353.71661
G1 X54.183 Y30.806 E2353.72997
G1 X54.042 Y30.854 E2353.73771
G1 X53.693 Y30.9 E2353.756
G1 X-53.692 Y30.9 E2359.33669
G1 X-54.038 Y30.855 E2359.35487
G1 X-54.254 Y30.771 E2359.36696
G1 X-54.471 Y30.64 E2359.38018
G1 X-54.648 Y30.469 E2359.39301
G1 X-54.792 Y30.272 E2359.40572
G1 X-54.914 Y29.981 E2359.42214
G1 X-54.96 Y29.632 E2359.44044
G1 X-54.96 Y-29.631 E2362.52028
G1 X-54.915 Y-29.974 E2362.5383
G1 X-54.823 Y-30.21 E2362.55149
G1 X-54.703 Y-30.406 E2362.56345
G1 X-54.537 Y-30.581 E2362.57599
G1 X-54.333 Y-30.73 E2362.58911
G1 X-54.041 Y-30.853 E2362.60555
G1 X-53.692 Y-30.899 E2362.6238
G1 X53.693 Y-30.899 E2368.20443
G1 X54.039 Y-30.854 E2368.22256
G1 X54.255 Y-30.77 E2368.23458
G1 X54.472 Y-30.639 E2368.24773
G1 X54.649 Y-30.468 E2368.26048
G1 X54.793 Y-30.271 E2368.27312
G1 X54.915 Y-29.98 E2368.28947
G1 X54.961 Y-29.631 E2368.30772
G1 X54.961 Y29.632 E2371.3875
G1 X54.916 Y29.975 E2371.40548
G1 X54.824 Y30.211 E2371.41864
G1 X54.701 Y30.412 E2371.43089
G1 X54.598 Y30.529 E2371.43899
G0 F18000 X54 Y30.116
; TYPE:FILL
G1 F2400 X53.999 Y-30.113 E2374.56903
G0 F18000 X53.499 Y-30.208
G1 F2400 X53.5 Y30.209 E2377.70878
G0 F18000 X53 Y30.209
G1 F2400 X52.999 Y-30.208 E2380.84859
G0 F18000 X52.499 Y-30.208
G1 F2400 X52.5 Y30.209 E2383.98835
G0 F18000 X52 Y30.209
G1 F2400 X51.999 Y-30.208 E2387.12816
G0 F18000 X51.499 Y-30.208
G1 F2400 X51.5 Y30.209 E2390.26792
G0 F18000 X51 Y30.209
G1 F2400 X50.999 Y-30.208 E2393.40772
G0 F18000 X50.499 Y-30.208
G1 F2400 X50.5 Y30.209 E2396.54748
G0 F18000 X50 Y30.209
G1 F2400 X49.999 Y-30.208 E2399.68729
G0 F18000 X49.499 Y-30.208
G1 F2400 X49.5 Y30.209 E2402.82705
G0 F18000 X49 Y30.209
G1 F2400 X48.999 Y-30.208 E2405.96685
G0 F18000 X48.499 Y-30.208
G1 F2400 X48.5 Y30.209 E2409.10661
G0 F18000 X48 Y30.209
G1 F2400 X47.999 Y-30.208 E2412.24642
G0 F18000 X47.499 Y-30.208
G1 F2400 X47.5 Y30.209 E2415.38618
G0 F18000 X47 Y30.209
G1 F2400 X46.999 Y-30.208 E2418.52599
G0 F18000 X46.499 Y-30.208
G1 F2400 X46.5 Y30.209 E2421.66574
G0 F18000 X46 Y30.209
G1 F2400 X45.999 Y-30.208 E2424.80555
G0 F18000 X45.499 Y-30.208
G1 F2400 X45.5 Y30.209 E2427.94531
G0 F18000 X45 Y30.209
G1 F2400 X44.999 Y-30.208 E2431.08512
G0 F18000 X44.499 Y-30.208
G1 F2400 X44.5 Y30.209 E2434.22487
G0 F18000 X44 Y30.209
G1 F2400 X43.999 Y-30.208 E2437.36468
G0 F18000 X43.499 Y-30.208
G1 F2400 X43.5 Y30.209 E2440.50444
G0 F18000 X43 Y30.209
G1 F2400 X42.999 Y-30.208 E2443.64425
G0 F18000 X42.499 Y-30.208
G1 F2400 X42.5 Y30.209 E2446.784
G0 F18000 X42 Y30.209
G1 F2400 X41.999 Y-30.208 E2449.92381
G0 F18000 X41.499 Y-30.208
G1 F2400 X41.5 Y30.209 E2453.06357
G0 F18000 X41 Y30.209
G1 F2400 X40.999 Y-30.208 E2456.20338
G0 F18000 X40.499 Y-30.208
G1 F2400 X40.5 Y30.209 E2459.34314
G0 F18000 X40 Y30.209
G1 F2400 X39.999 Y-30.208 E2462.48294
G0 F18000 X39.499 Y-30.208
G1 F2400 X39.5 Y30.209 E2465.6227
G0 F18000 X39 Y30.209
G1 F2400 X38.999 Y-30.208 E2468.76251
G0 F18000 X38.499 Y-30.208
G1 F2400 X38.5 Y30.209 E2471.90227
G0 F18000 X38 Y30.209
G1 F2400 X37.999 Y-30.208 E2475.04207
G0 F18000 X37.499 Y-30.208
G1 F2400 X37.5 Y30.209 E2478.18183
G0 F18000 X37 Y30.209
G1 F2400 X36.999 Y-30.208 E2481.32164
G0 F18000 X36.499 Y-30.208
G1 F2400 X36.5 Y30.209 E2484.4614
G0 F18000 X36 Y30.209
G1 F2400 X35.999 Y-30.208 E2487.60121
G0 F18000 X35.499 Y-30.208
G1 F2400 X35.5 Y30.209 E2490.74096
G0 F18000 X35 Y30.209
G1 F2400 X34.999 Y-30.208 E2493.88077
G0 F18000 X34.499 Y-30.208
G1 F2400 X34.5 Y30.209 E2497.02053
G0 F18000 X34 Y30.209
G1 F2400 X33.999 Y-30.208 E2500.16034
G0 F18000 X33.499 Y-30.208
G1 F2400 X33.5 Y30.209 E2503.30009
G0 F18000 X33 Y30.209
G1 F2400 X32.999 Y-30.208 E2506.4399
G0 F18000 X32.499 Y-30.208
G1 F2400 X32.5 Y30.209 E2509.57966
G0 F18000 X32 Y30.209
G1 F2400 X31.999 Y-30.208 E2512.71947
G0 F18000 X31.499 Y-30.208
G1 F2400 X31.5 Y30.209 E2515.85922
G0 F18000 X31 Y30.209
G1 F2400 X30.999 Y-30.208 E2518.99903
G0 F18000 X30.499 Y-30.208
G1 F2400 X30.5 Y30.209 E2522.13879
G0 F18000 X30 Y30.209
G1 F2400 X29.999 Y-30.208 E2525.2786
G0 F18000 X29.499 Y-30.208
G1 F2400 X29.5 Y30.209 E2528.41836
G0 F18000 X29 Y30.209
G1 F2400 X28.999 Y-30.208 E2531.55816
G0 F18000 X28.499 Y-30.208
G1 F2400 X28.5 Y30.209 E2534.69792
G0 F18000 X28 Y30.209
G1 F2400 X27.999 Y-30.208 E2537.83773
G0 F18000 X27.499 Y-30.208
G1 F2400 X27.5 Y30.209 E2540.97749
G0 F18000 X27 Y30.209
G1 F2400 X26.999 Y-30.208 E2544.11729
G0 F18000 X26.499 Y-30.208
G1 F2400 X26.5 Y30.209 E2547.25705
G0 F18000 X26 Y30.209
G1 F2400 X25.999 Y-30.208 E2550.39686
G0 F18000 X25.499 Y-30.208
G1 F2400 X25.5 Y30.209 E2553.53662
G0 F18000 X25 Y30.209
G1 F2400 X24.999 Y-30.208 E2556.67643
G0 F18000 X24.499 Y-30.208
G1 F2400 X24.5 Y30.209 E2559.81618
G0 F18000 X24 Y30.209
G1 F2400 X23.999 Y-30.208 E2562.95599
G0 F18000 X23.499 Y-30.208
G1 F2400 X23.5 Y30.209 E2566.09575
G0 F18000 X23 Y30.209
G1 F2400 X22.999 Y-30.208 E2569.23556
G0 F18000 X22.499 Y-30.208
G1 F2400 X22.5 Y30.209 E2572.37531
G0 F18000 X22 Y30.209
G1 F2400 X21.999 Y-30.208 E2575.51512
G0 F18000 X21.499 Y-30.208
G1 F2400 X21.5 Y30.209 E2578.65488
G0 F18000 X21 Y30.209
G1 F2400 X20.999 Y-30.208 E2581.79469
G0 F18000 X20.499 Y-30.208
G1 F2400 X20.5 Y30.209 E2584.93444
G0 F18000 X20 Y30.209
G1 F2400 X19.999 Y-30.208 E2588.07425
G0 F18000 X19.499 Y-30.208
G1 F2400 X19.5 Y30.209 E2591.21401
G0 F18000 X19 Y30.209
G1 F2400 X18.999 Y-30.208 E2594.35382
G0 F18000 X18.499 Y-30.208
G1 F2400 X18.5 Y30.209 E2597.49358
G0 F18000 X18 Y30.209
G1 F2400 X17.999 Y-30.208 E2600.63338
G0 F18000 X17.499 Y-30.208
G1 F2400 X17.5 Y30.209 E2603.77314
G0 F18000 X17 Y30.209
G1 F2400 X16.999 Y-30.208 E2606.91295
G0 F18000 X16.499 Y-30.208
G1 F2400 X16.5 Y30.209 E2610.05271
G0 F18000 X16 Y30.209
G1 F2400 X15.999 Y-30.208 E2613.19252
G0 F18000 X15.499 Y-30.208
G1 F2400 X15.5 Y30.209 E2616.33227
G0 F18000 X15 Y30.209
G1 F2400 X14.999 Y-30.208 E2619.47208
G0 F18000 X14.499 Y-30.208
G1 F2400 X14.5 Y30.21 E2622.61189
G0 F18000 X14 Y30.21
G1 F2400 X13.999 Y-30.208 E2625.75175
G0 F18000 X13.499 Y-30.208
G1 F2400 X13.5 Y30.21 E2628.89156
G0 F18000 X13 Y30.21
G1 F2400 X12.999 Y-30.208 E2632.03142
G0 F18000 X12.499 Y-30.208
G1 F2400 X12.5 Y30.21 E2635.17123
G0 F18000 X12 Y30.21
G1 F2400 X11.999 Y-30.208 E2638.31109
G0 F18000 X11.499 Y-30.208
G1 F2400 X11.5 Y30.21 E2641.4509
G0 F18000 X11 Y30.21
G1 F2400 X10.999 Y-30.208 E2644.59076
G0 F18000 X10.499 Y-30.208
G1 F2400 X10.5 Y30.21 E2647.73057
G0 F18000 X10 Y30.21
G1 F2400 X9.999 Y-30.208 E2650.87043
G0 F18000 X9.499 Y-30.208
G1 F2400 X9.5 Y30.21 E2654.01024
G0 F18000 X9 Y30.21
G1 F2400 X8.999 Y-30.208 E2657.1501
G0 F18000 X8.499 Y-30.208
G1 F2400 X8.5 Y30.21 E2660.28991
G0 F18000 X8 Y30.21
G1 F2400 X7.999 Y-30.208 E2663.42977
G0 F18000 X7.499 Y-30.208
G1 F2400 X7.5 Y30.21 E2666.56958
G0 F18000 X7 Y30.21
G1 F2400 X6.999 Y-30.208 E2669.70944
G0 F18000 X6.499 Y-30.208
G1 F2400 X6.5 Y30.21 E2672.84924
G0 F18000 X6 Y30.21
G1 F2400 X5.999 Y-30.208 E2675.98911
G0 F18000 X5.499 Y-30.208
G1 F2400 X5.5 Y30.21 E2679.12891
G0 F18000 X5 Y30.21
G1 F2400 X4.999 Y-30.208 E2682.26877
G0 F18000 X4.499 Y-30.208
G1 F2400 X4.5 Y30.21 E2685.40858
G0 F18000 X4 Y30.21
G1 F2400 X3.999 Y-30.208 E2688.54844
G0 F18000 X3.499 Y-30.208
G1 F2400 X3.5 Y30.21 E2691.68825
G0 F18000 X3 Y30.21
G1 F2400 X2.999 Y-30.208 E2694.82811
G0 F18000 X2.499 Y-30.208
G1 F2400 X2.5 Y30.21 E2697.96792
G0 F18000 X2 Y30.21
G1 F2400 X1.999 Y-30.208 E2701.10778
G0 F18000 X1.499 Y-30.208
G1 F2400 X1.5 Y30.21 E2704.24759
G0 F18000 X1 Y30.21
G1 F2400 X0.999 Y-30.208 E2707.38745
G0 F18000 X0.499 Y-30.208
G1 F2400 X0.5 Y30.21 E2710.52726
G0 F18000 X0 Y30.21
G1 F2400 X0 Y-30.209 E2713.66717
G0 F18000 X-0.5 Y-30.209
G1 F2400 X-0.499 Y30.209 E2716.80698
G0 F18000 X-0.999 Y30.209
G1 F2400 X-1 Y-30.209 E2719.94684
G0 F18000 X-1.5 Y-30.209
G1 F2400 X-1.499 Y30.209 E2723.08665
G0 F18000 X-1.999 Y30.209
G1 F2400 X-2 Y-30.209 E2726.22651
G0 F18000 X-2.5 Y-30.209
G1 F2400 X-2.499 Y30.209 E2729.36632
G0 F18000 X-2.999 Y30.209
G1 F2400 X-3 Y-30.209 E2732.50618
G0 F18000 X-3.5 Y-30.209
G1 F2400 X-3.499 Y30.209 E2735.64599
G0 F18000 X-3.999 Y30.209
G1 F2400 X-4 Y-30.209 E2738.78585
G0 F18000 X-4.5 Y-30.209
G1 F2400 X-4.499 Y30.209 E2741.92566
G0 F18000 X-4.999 Y30.209
G1 F2400 X-5 Y-30.209 E2745.06552
G0 F18000 X-5.5 Y-30.209
G1 F2400 X-5.499 Y30.209 E2748.20533
G0 F18000 X-5.999 Y30.209
G1 F2400 X-6 Y-30.209 E2751.34519
G0 F18000 X-6.5 Y-30.209
G1 F2400 X-6.499 Y30.209 E2754.485
G0 F18000 X-6.999 Y30.209
G1 F2400 X-7 Y-30.209 E2757.62486
G0 F18000 X-7.5 Y-30.209
G1 F2400 X-7.499 Y30.209 E2760.76467
G0 F18000 X-7.999 Y30.209
G1 F2400 X-8 Y-30.209 E2763.90453
G0 F18000 X-8.5 Y-30.209
G1 F2400 X-8.499 Y30.209 E2767.04434
G0 F18000 X-8.999 Y30.209
G1 F2400 X-9 Y-30.209 E2770.1842
G0 F18000 X-9.5 Y-30.209
G1 F2400 X-9.499 Y30.209 E2773.32401
G0 F18000 X-9.999 Y30.209
G1 F2400 X-10 Y-30.209 E2776.46387
G0 F18000 X-10.5 Y-30.209
G1 F2400 X-10.499 Y30.209 E2779.60368
G0 F18000 X-10.999 Y30.209
G1 F2400 X-11 Y-30.209 E2782.74354
G0 F18000 X-11.5 Y-30.209
G1 F2400 X-11.499 Y30.209 E2785.88335
G0 F18000 X-11.999 Y30.209
G1 F2400 X-12 Y-30.209 E2789.02321
G0 F18000 X-12.5 Y-30.209
G1 F2400 X-12.499 Y30.209 E2792.16302
G0 F18000 X-12.999 Y30.209
G1 F2400 X-13 Y-30.209 E2795.30288
G0 F18000 X-13.5 Y-30.209
G1 F2400 X-13.499 Y30.209 E2798.44268
G0 F18000 X-13.999 Y30.209
G1 F2400 X-14 Y-30.209 E2801.58255
G0 F18000 X-14.5 Y-30.209
G1 F2400 X-14.499 Y30.209 E2804.72235
G0 F18000 X-14.999 Y30.209
G1 F2400 X-15 Y-30.208 E2807.86216
G0 F18000 X-15.5 Y-30.208
G1 F2400 X-15.499 Y30.209 E2811.00192
G0 F18000 X-15.999 Y30.209
G1 F2400 X-16 Y-30.208 E2814.14173
G0 F18000 X-16.5 Y-30.208
G1 F2400 X-16.499 Y30.209 E2817.28148
G0 F18000 X-16.999 Y30.209
G1 F2400 X-17 Y-30.208 E2820.42129
G0 F18000 X-17.5 Y-30.208
G1 F2400 X-17.499 Y30.209 E2823.56105
G0 F18000 X-17.999 Y30.209
G1 F2400 X-18 Y-30.208 E2826.70086
G0 F18000 X-18.5 Y-30.208
G1 F2400 X-18.499 Y30.209 E2829.84062
G0 F18000 X-18.999 Y30.209
G1 F2400 X-19 Y-30.208 E2832.98042
G0 F18000 X-19.5 Y-30.208
G1 F2400 X-19.499 Y30.209 E2836.12018
G0 F18000 X-19.999 Y30.209
G1 F2400 X-20 Y-30.208 E2839.25999
G0 F18000 X-20.5 Y-30.208
G1 F2400 X-20.499 Y30.209 E2842.39975
G0 F18000 X-20.999 Y30.209
G1 F2400 X-21 Y-30.208 E2845.53956
G0 F18000 X-21.5 Y-30.208
G1 F2400 X-21.499 Y30.209 E2848.67931
G0 F18000 X-21.999 Y30.209
G1 F2400 X-22 Y-30.208 E2851.81912
G0 F18000 X-22.5 Y-30.208
G1 F2400 X-22.499 Y30.209 E2854.95888
G0 F18000 X-22.999 Y30.209
G1 F2400 X-23 Y-30.208 E2858.09869
G0 F18000 X-23.5 Y-30.208
G1 F2400 X-23.499 Y30.209 E2861.23844
G0 F18000 X-23.999 Y30.209
G1 F2400 X-24 Y-30.208 E2864.37825
G0 F18000 X-24.5 Y-30.208
G1 F2400 X-24.499 Y30.209 E2867.51801
G0 F18000 X-24.999 Y30.209
G1 F2400 X-25 Y-30.208 E2870.65782
G0 F18000 X-25.5 Y-30.208
G1 F2400 X-25.499 Y30.209 E2873.79757
G0 F18000 X-25.999 Y30.209
G1 F2400 X-26 Y-30.208 E2876.93738
G0 F18000 X-26.5 Y-30.208
G1 F2400 X-26.499 Y30.209 E2880.07714
G0 F18000 X-26.999 Y30.209
G1 F2400 X-27 Y-30.208 E2883.21695
G0 F18000 X-27.5 Y-30.208
G1 F2400 X-27.499 Y30.209 E2886.35671
G0 F18000 X-27.999 Y30.209
G1 F2400 X-28 Y-30.208 E2889.49651
G0 F18000 X-28.5 Y-30.208
G1 F2400 X-28.499 Y30.209 E2892.63627
G0 F18000 X-28.999 Y30.209
G1 F2400 X-29 Y-30.208 E2895.77608
G0 F18000 X-29.5 Y-30.208
G1 F2400 X-29.499 Y30.209 E2898.91584
G0 F18000 X-29.999 Y30.209
G1 F2400 X-30 Y-30.208 E2902.05564
G0 F18000 X-30.5 Y-30.208
G1 F2400 X-30.499 Y30.209 E2905.1954
G0 F18000 X-30.999 Y30.209
G1 F2400 X-31 Y-30.208 E2908.33521
G0 F18000 X-31.5 Y-30.208
G1 F2400 X-31.499 Y30.209 E2911.47497
G0 F18000 X-31.999 Y30.209
G1 F2400 X-32 Y-30.208 E2914.61478
G0 F18000 X-32.5 Y-30.208
G1 F2400 X-32.499 Y30.209 E2917.75453
G0 F18000 X-32.999 Y30.209
G1 F2400 X-33 Y-30.208 E2920.89434
G0 F18000 X-33.5 Y-30.208
G1 F2400 X-33.499 Y30.209 E2924.0341
G0 F18000 X-33.999 Y30.209
G1 F2400 X-34 Y-30.208 E2927.17391
G0 F18000 X-34.5 Y-30.208
G1 F2400 X-34.499 Y30.209 E2930.31366
G0 F18000 X-34.999 Y30.209
G1 F2400 X-35 Y-30.208 E2933.45347
G0 F18000 X-35.5 Y-30.208
G1 F2400 X-35.499 Y30.209 E2936.59323
G0 F18000 X-35.999 Y30.209
G1 F2400 X-36 Y-30.208 E2939.73304
G0 F18000 X-36.5 Y-30.208
G1 F2400 X-36.499 Y30.209 E2942.87279
G0 F18000 X-36.999 Y30.209
G1 F2400 X-37 Y-30.208 E2946.0126
G0 F18000 X-37.5 Y-30.208
G1 F2400 X-37.499 Y30.209 E2949.15236
G0 F18000 X-37.999 Y30.209
G1 F2400 X-38 Y-30.208 E2952.29217
G0 F18000 X-38.5 Y-30.208
G1 F2400 X-38.499 Y30.209 E2955.43193
G0 F18000 X-38.999 Y30.209
G1 F2400 X-39 Y-30.208 E2958.57173
G0 F18000 X-39.5 Y-30.208
G1 F2400 X-39.499 Y30.209 E2961.71149
G0 F18000 X-39.999 Y30.209
G1 F2400 X-40 Y-30.208 E2964.8513
G0 F18000 X-40.5 Y-30.208
G1 F2400 X-40.499 Y30.209 E2967.99106
G0 F18000 X-40.999 Y30.209
G1 F2400 X-41 Y-30.208 E2971.13086
G0 F18000 X-41.5 Y-30.208
G1 F2400 X-41.499 Y30.209 E2974.27062
G0 F18000 X-41.999 Y30.209
G1 F2400 X-42 Y-30.208 E2977.41043
G0 F18000 X-42.5 Y-30.208
G1 F2400 X-42.499 Y30.209 E2980.55019
G0 F18000 X-42.999 Y30.209
G1 F2400 X-43 Y-30.208 E2983.69
G0 F18000 X-43.5 Y-30.208
G1 F2400 X-43.499 Y30.209 E2986.82975
G0 F18000 X-43.999 Y30.209
G1 F2400 X-44 Y-30.208 E2989.96956
G0 F18000 X-44.5 Y-30.208
G1 F2400 X-44.499 Y30.209 E2993.10932
G0 F18000 X-44.999 Y30.209
G1 F2400 X-45 Y-30.208 E2996.24913
G0 F18000 X-45.5 Y-30.208
G1 F2400 X-45.499 Y30.209 E2999.38888
G0 F18000 X-45.999 Y30.209
G1 F2400 X-46 Y-30.208 E3002.52869
G0 F18000 X-46.5 Y-30.208
G1 F2400 X-46.499 Y30.209 E3005.66845
G0 F18000 X-46.999 Y30.209
G1 F2400 X-47 Y-30.208 E3008.80826
G0 F18000 X-47.5 Y-30.208
G1 F2400 X-47.499 Y30.209 E3011.94801
G0 F18000 X-47.999 Y30.209
G1 F2400 X-48 Y-30.208 E3015.08782
G0 F18000 X-48.5 Y-30.208
G1 F2400 X-48.499 Y30.209 E3018.22758
G0 F18000 X-48.999 Y30.209
G1 F2400 X-49 Y-30.208 E3021.36739
G0 F18000 X-49.5 Y-30.208
G1 F2400 X-49.499 Y30.209 E3024.50715
G0 F18000 X-49.999 Y30.209
G1 F2400 X-50 Y-30.208 E3027.64695
G0 F18000 X-50.5 Y-30.208
G1 F2400 X-50.499 Y30.209 E3030.78671
G0 F18000 X-50.999 Y30.209
G1 F2400 X-51 Y-30.208 E3033.92652
G0 F18000 X-51.5 Y-30.208
G1 F2400 X-51.499 Y30.209 E3037.06628
G0 F18000 X-51.999 Y30.209
G1 F2400 X-52 Y-30.208 E3040.20609
G0 F18000 X-52.5 Y-30.208
G1 F2400 X-52.499 Y30.209 E3043.34584
G0 F18000 X-52.999 Y30.209
G1 F2400 X-53 Y-30.208 E3046.48565
G0 F18000 X-53.5 Y-30.208
G1 F2400 X-53.499 Y30.209 E3049.62541
G0 F18000 X-53.999 Y30.112
G1 F2400 X-54 Y-30.118 E3052.7555
; LAYER:4
G0 F18000 X-54.085 Y-30.293 Z1.3
; TYPE:WALL-INNER
G1 F2400 X-53.921 Y-30.364 E3052.76476
G1 X-53.658 Y-30.399 E3052.7785
G1 X53.659 Y-30.399 E3058.3556
G1 X53.91 Y-30.366 E3058.36875
G1 X54.052 Y-30.31 E3058.37667
G1 X54.167 Y-30.24 E3058.38364
G1 X54.261 Y-30.15 E3058.39036
G1 X54.358 Y-30.019 E3058.39879
G1 X54.425 Y-29.869 E3058.40728
G1 X54.461 Y-29.597 E3058.42149
G1 X54.461 Y29.598 E3061.49774
G1 X54.428 Y29.852 E3061.51105
G1 X54.384 Y29.967 E3061.51745
G1 X54.251 Y30.167 E3061.52993
G1 X54.115 Y30.275 E3061.53896
G1 X53.931 Y30.364 E3061.54958
G1 X53.659 Y30.4 E3061.56384
G1 X-53.658 Y30.4 E3067.14099
G1 X-53.909 Y30.367 E3067.1542
G1 X-54.051 Y30.311 E3067.16218
G1 X-54.166 Y30.241 E3067.16922
G1 X-54.26 Y30.151 E3067.17602
G1 X-54.357 Y30.02 E3067.18453
G1 X-54.424 Y29.87 E3067.19308
G1 X-54.46 Y29.598 E3067.20735
G1 X-54.46 Y-29.597 E3070.28365
G1 X-54.427 Y-29.851 E3070.29701
G1 X-54.383 Y-29.966 E3070.30344
G1 X-54.3 Y-30.103 E3070.31178
G1 X-54.191 Y-30.216 E3070.31994
G1 X-54.085 Y-30.293 E3070.32674
G0 F18000 X-54.332 Y-30.731
; TYPE:WALL-OUTER
G1 F2100 X-54.041 Y-30.853 E3070.34311
G1 X-53.692 Y-30.899 E3070.36136
G1 X53.693 Y-30.899 E3075.94199
G1 X54.035 Y-30.854 E3075.95991
G1 X54.278 Y-30.758 E3075.97347
G1 X54.47 Y-30.64 E3075.98516
G1 X54.638 Y-30.481 E3075.99714
G1 X54.794 Y-30.27 E3076.01074
G1 X54.915 Y-29.98 E3076.02702
G1 X54.961 Y-29.631 E3076.04526
G1 X54.961 Y29.632 E3079.12505
G1 X54.916 Y29.975 E3079.14303
G1 X54.834 Y30.189 E3079.15494
G1 X54.699 Y30.414 E3079.16857
G1 X54.597 Y30.53 E3079.1766
G1 X54.391 Y30.694 E3079.19028
G1 X54.185 Y30.806 E3079.20247
G1 X54.042 Y30.854 E3079.21031
G1 X53.693 Y30.9 E3079.2286
G1 X-53.692 Y30.9 E3084.80929
G1 X-54.034 Y30.855 E3084.82727
G1 X-54.277 Y30.759 E3084.84089
G1 X-54.469 Y30.641 E3084.85265
G1 X-54.637 Y30.482 E3084.86471
G1 X-54.793 Y30.271 E3084.87838
G1 X-54.914 Y29.981 E3084.89473
G1 X-54.96 Y29.632 E3084.91303
G1 X-54.96 Y-29.631 E3087.99286
G1 X-54.915 Y-29.974 E3088.01089
G1 X-54.833 Y-30.188 E3088.02283
G1 X-54.702 Y-30.407 E3088.03611
G1 X-54.52 Y-30.595 E3088.04971
G1 X-54.332 Y-30.731 E3088.06175
G0 F18000 X-54.133 Y-29.999
; TYPE:FILL
G1 F2400 X54.126 Y-30 E3093.68781
G0 F18000 X54.271 Y-29.5
G1 F2400 X-54.27 Y-29.499 E3099.32857
G0 F18000 X-54.27 Y-28.999
G1 F2400 X54.271 Y-29 E3104.96928
G0 F18000 X54.271 Y-28.5
G1 F2400 X-54.27 Y-28.499 E3110.61005
G0 F18000 X-54.27 Y-27.999
G1 F2400 X54.271 Y-28 E3116.25076
G0 F18000 X54.271 Y-27.5
G1 F2400 X-54.27 Y-27.499 E3121.89152
G0 F18000 X-54.27 Y-26.999
G1 F2400 X54.271 Y-27 E3127.53223
G0 F18000 X54.271 Y-26.5
G1 F2400 X-54.27 Y-26.499 E3133.173
G0 F18000 X-54.27 Y-25.999
G1 F2400 X54.271 Y-26 E3138.81371
G0 F18000 X54.271 Y-25.5
G1 F2400 X46.858 Y-25.5 E3139.19895
G0 F18000 X47.045 Y-25.5
G1 F2400 X44.416 Y-25.5 E3139.33558
G0 F18000 X44.609 Y-25.5
G1 F2400 X-36.319 Y-25.499 E3143.54132
G0 F18000 X-36.132 Y-25.499
G1 F2400 X-38.759 Y-25.499 E3143.6779
G0 F18000 X-38.578 Y-25.499
G1 F2400 X-54.27 Y-25.499 E3144.49345
G0 F18000 X-54.27 Y-24.999
G1 F2400 X-38.999 Y-24.999 E3145.28701
G0 F18000 X-39.139 Y-24.999
G1 F2400 X-35.749 Y-24.999 E3145.46313
G0 F18000 X-35.891 Y-24.999
G1 F2400 X44.181 Y-25 E3149.62434
G0 F18000 X44.041 Y-25
G1 F2400 X47.426 Y-25 E3149.80026
G0 F18000 X47.286 Y-25
G1 F2400 X54.271 Y-25 E3150.16326
G0 F18000 X54.271 Y-24.5
G1 F2400 X47.478 Y-24.5 E3150.51628
G0 F18000 X47.601 Y-24.5
G1 F2400 X43.864 Y-24.5 E3150.71049
G0 F18000 X43.987 Y-24.5
G1 F2400 X-35.698 Y-24.499 E3154.85164
G0 F18000 X-35.574 Y-24.499
G1 F2400 X-39.317 Y-24.499 E3155.04621
G0 F18000 X-39.193 Y-24.499
G1 F2400 X-54.27 Y-24.499 E3155.8298
G0 F18000 X-54.27 Y-23.999
G1 F2400 X-39.233 Y-23.999 E3156.6112
G0 F18000 X-39.354 Y-23.999
G1 F2400 X-35.54 Y-23.999 E3156.80936
G0 F18000 X-35.66 Y-23.999
G1 F2400 X43.941 Y-24 E3160.94609
G0 F18000 X43.821 Y-24
G1 F2400 X47.642 Y-24 E3161.14466
G0 F18000 X47.521 Y-24
G1 F2400 X54.271 Y-24 E3161.49546
G0 F18000 X54.271 Y-23.5
G1 F2400 X47.417 Y-23.5 E3161.85165
G0 F18000 X47.542 Y-23.5
G1 F2400 X43.922 Y-23.5 E3162.03978
G0 F18000 X44.047 Y-23.5
G1 F2400 X-35.762 Y-23.499 E3166.18737
G0 F18000 X-35.632 Y-23.499
G1 F2400 X-39.258 Y-23.499 E3166.37586
G0 F18000 X-39.131 Y-23.499
G1 F2400 X-54.27 Y-23.499 E3167.16267
G0 F18000 X-54.27 Y-22.999
G1 F2400 X-38.852 Y-22.999 E3167.96388
G0 F18000 X-38.998 Y-22.999
G1 F2400 X-35.884 Y-22.999 E3168.12566
G0 F18000 X-36.041 Y-22.999
G1 F2400 X44.328 Y-23 E3172.3023
G0 F18000 X44.18 Y-23
G1 F2400 X47.286 Y-23 E3172.46371
G0 F18000 X47.135 Y-23
G1 F2400 X54.271 Y-23 E3172.83456
G0 F18000 X54.271 Y-22.5
G1 F2400 X46.523 Y-22.5 E3173.23722
G0 F18000 X46.759 Y-22.5
G1 F2400 X44.705 Y-22.5 E3173.34396
G0 F18000 X44.951 Y-22.5
G1 F2400 X-36.658 Y-22.499 E3177.5851
G0 F18000 X-36.414 Y-22.499
G1 F2400 X-38.476 Y-22.499 E3177.69231
G0 F18000 X-38.223 Y-22.499
G1 F2400 X-54.27 Y-22.499 E3178.52631
G0 F18000 X-54.27 Y-21.999
G1 F2400 X54.271 Y-22 E3184.16702
G0 F18000 X54.271 Y-21.5
G1 F2400 X-54.27 Y-21.499 E3189.80778
G0 F18000 X-54.27 Y-20.999
G1 F2400 X54.271 Y-21 E3195.44849
G0 F18000 X54.271 Y-20.5
G1 F2400 X16.506 Y-20.5 E3197.4111
G0 F18000 X16.716 Y-20.5
G1 F2400 X14.259 Y-20.5 E3197.53879
G0 F18000 X14.461 Y-20.5
G1 F2400 X-54.27 Y-20.499 E3201.11067
G0 F18000 X-54.27 Y-19.999
G1 F2400 X13.973 Y-20 E3204.65713
G0 F18000 X13.837 Y-20
G1 F2400 X17.13 Y-20 E3204.82827
G0 F18000 X16.993 Y-20
G1 F2400 X54.271 Y-20 E3206.76557
G0 F18000 X54.271 Y-19.5
G1 F2400 X17.215 Y-19.5 E3208.69133
G0 F18000 X17.341 Y-19.5
G1 F2400 X13.628 Y-19.5 E3208.88429
G0 F18000 X13.751 Y-19.5
G1 F2400 X-54.27 Y-19.499 E3212.41927
G0 F18000 X-54.27 Y-18.999
G1 F2400 X13.692 Y-19 E3215.95113
G0 F18000 X13.572 Y-19
G1 F2400 X17.393 Y-19 E3216.1497
G0 F18000 X17.272 Y-19
G1 F2400 X54.271 Y-19 E3218.0725
G0 F18000 X54.271 Y-18.5
G1 F2400 X17.193 Y-18.5 E3219.99941
G0 F18000 X17.32 Y-18.5
G1 F2400 X13.65 Y-18.5 E3220.19014
G0 F18000 X13.776 Y-18.5
G1 F2400 X-54.27 Y-18.499 E3223.72642
G0 F18000 X-54.27 Y-17.999
G1 F2400 X14.022 Y-18 E3227.27543
G0 F18000 X13.873 Y-18
G1 F2400 X17.095 Y-18 E3227.44287
G0 F18000 X16.949 Y-18
G1 F2400 X54.271 Y-18 E3229.38246
G0 F18000 X54.271 Y-17.5
G1 F2400 X16.409 Y-17.5 E3231.35011
G0 F18000 X16.634 Y-17.5
G1 F2400 X14.344 Y-17.5 E3231.46911
G0 F18000 X14.55 Y-17.5
G1 F2400 X-54.27 Y-17.499 E3235.04562
G0 F18000 X-54.27 Y-16.999
G1 F2400 X54.271 Y-17 E3240.68633
G0 F18000 X54.271 Y-16.5
G1 F2400 X-54.27 Y-16.499 E3246.32709
G0 F18000 X-54.27 Y-15.999
G1 F2400 X54.271 Y-16 E3251.9678
G0 F18000 X54.271 Y-15.5
G1 F2400 X-54.27 Y-15.499 E3257.60857
G0 F18000 X-54.27 Y-14.999
G1 F2400 X54.271 Y-15 E3263.24928
G0 F18000 X54.271 Y-14.5
G1 F2400 X-54.27 Y-14.499 E3268.89004
G0 F18000 X-54.27 Y-13.999
G1 F2400 X54.271 Y-14 E3274.53075
G0 F18000 X54.271 Y-13.5
G1 F2400 X-54.27 Y-13.499 E3280.17151
G0 F18000 X-54.27 Y-12.999
G1 F2400 X54.271 Y-13 E3285.81223
G0 F18000 X54.271 Y-12.5
G1 F2400 X-54.27 Y-12.499 E3291.45299
G0 F18000 X-54.27 Y-11.999
G1 F2400 X54.271 Y-12 E3297.0937
G0 F18000 X54.271 Y-11.5
G1 F2400 X-54.27 Y-11.499 E3302.73446
G0 F18000 X-54.27 Y-10.999
G1 F2400 X54.271 Y-11 E3308.37517
G0 F18000 X54.271 Y-10.5
G1 F2400 X-54.27 Y-10.499 E3314.01594
G0 F18000 X-54.27 Y-9.999
G1 F2400 X54.271 Y-10 E3319.65665
G0 F18000 X54.271 Y-9.5
G1 F2400 X-54.27 Y-9.499 E3325.29741
G0 F18000 X-54.27 Y-8.999
G1 F2400 X54.271 Y-9 E3330.93812
G0 F18000 X54.271 Y-8.5
G1 F2400 X-54.27 Y-8.499 E3336.57889
G0 F18000 X-54.27 Y-7.999
G1 F2400 X54.271 Y-8 E3342.2196
G0 F18000 X54.271 Y-7.5
G1 F2400 X-54.27 Y-7.499 E3347.86036
G0 F18000 X-54.27 Y-6.999
G1 F2400 X54.271 Y-7 E3353.50107
G0 F18000 X54.271 Y-6.5
G1 F2400 X-54.27 Y-6.499 E3359.14183
G0 F18000 X-54.27 Y-5.999
G1 F2400 X54.271 Y-6 E3364.78254
G0 F18000 X54.271 Y-5.5
G1 F2400 X-54.27 Y-5.499 E3370.42331
G0 F18000 X-54.27 Y-4.999
G1 F2400 X54.271 Y-5 E3376.06402
G0 F18000 X54.271 Y-4.5
G1 F2400 X-54.27 Y-4.499 E3381.70478
G0 F18000 X-54.27 Y-3.999
G1 F2400 X54.271 Y-4 E3387.34549
G0 F18000 X54.271 Y-3.5
G1 F2400 X-54.27 Y-3.499 E3392.98626
G0 F18000 X-54.27 Y-2.999
G1 F2400 X54.271 Y-3 E3398.62697
G0 F18000 X54.271 Y-2.5
G1 F2400 X-54.27 Y-2.499 E3404.26773
G0 F18000 X-54.27 Y-1.999
G1 F2400 X54.271 Y-2 E3409.90844
G0 F18000 X54.271 Y-1.5
G1 F2400 X-54.27 Y-1.499 E3415.5492
G0 F18000 X-54.27 Y-0.999
G1 F2400 X54.271 Y-1 E3421.18991
G0 F18000 X54.271 Y-0.5
G1 F2400 X-54.27 Y-0.499 E3426.83068
G0 F18000 X-54.27 Y0
G1 F2400 X54.271 Y0 E3432.47139
G0 F18000 X54.271 Y0.499
G1 F2400 X-54.27 Y0.5 E3438.11215
G0 F18000 X-54.27 Y1
G1 F2400 X54.271 Y0.999 E3443.75286
G0 F18000 X54.271 Y1.499
G1 F2400 X-54.27 Y1.5 E3449.39363
G0 F18000 X-54.27 Y2
G1 F2400 X54.271 Y1.999 E3455.03434
G0 F18000 X54.271 Y2.499
G1 F2400 X-54.27 Y2.5 E3460.6751
G0 F18000 X-54.27 Y3
G1 F2400 X54.271 Y2.999 E3466.31581
G0 F18000 X54.271 Y3.499
G1 F2400 X-54.27 Y3.5 E3471.95657
G0 F18000 X-54.27 Y4
G1 F2400 X54.271 Y3.999 E3477.59728
G0 F18000 X54.271 Y4.499
G1 F2400 X-54.27 Y4.5 E3483.23805
G0 F18000 X-54.27 Y5
G1 F2400 X54.271 Y4.999 E3488.87876
G0 F18000 X54.271 Y5.499
G1 F2400 X-54.27 Y5.5 E3494.51952
G0 F18000 X-54.27 Y6
G1 F2400 X54.271 Y5.999 E3500.16023
G0 F18000 X54.271 Y6.499
G1 F2400 X-54.27 Y6.5 E3505.801
G0 F18000 X-54.27 Y7
G1 F2400 X54.271 Y6.999 E3511.44171
G0 F18000 X54.271 Y7.499
G1 F2400 X16.63 Y7.499 E3513.39787
G0 F18000 X16.811 Y7.499
G1 F2400 X14.16 Y7.499 E3513.53564
G0 F18000 X14.338 Y7.499
G1 F2400 X-54.27 Y7.5 E3517.10113
G0 F18000 X-54.27 Y8
G1 F2400 X13.925 Y7.999 E3520.6451
G0 F18000 X13.79 Y7.999
G1 F2400 X17.187 Y7.999 E3520.82164
G0 F18000 X17.048 Y7.999
G1 F2400 X54.271 Y7.999 E3522.75608
G0 F18000 X54.271 Y8.499
G1 F2400 X17.24 Y8.499 E3524.68054
G0 F18000 X17.361 Y8.499
G1 F2400 X13.613 Y8.5 E3524.87532
G0 F18000 X13.734 Y8.5
G1 F2400 X-54.27 Y8.5 E3528.40942
G0 F18000 X-54.27 Y9
G1 F2400 X13.697 Y9 E3531.94154
G0 F18000 X13.577 Y9
G1 F2400 X17.389 Y8.999 E3532.13964
G0 F18000 X17.269 Y8.999
G1 F2400 X54.271 Y8.999 E3534.0626
G0 F18000 X54.271 Y9.499
G1 F2400 X17.162 Y9.499 E3535.99112
G0 F18000 X17.29 Y9.499
G1 F2400 X13.681 Y9.5 E3536.17867
G0 F18000 X13.807 Y9.5
G1 F2400 X-54.27 Y9.5 E3539.71656
G0 F18000 X-54.27 Y10
G1 F2400 X14.09 Y10 E3543.26911
G0 F18000 X13.942 Y10
G1 F2400 X17.035 Y9.999 E3543.42985
G0 F18000 X16.878 Y9.999
G1 F2400 X54.271 Y9.999 E3545.37312
G0 F18000 X54.271 Y10.499
G1 F2400 X16.247 Y10.499 E3547.34919
G0 F18000 X16.491 Y10.499
G1 F2400 X14.472 Y10.5 E3547.45412
G0 F18000 X14.733 Y10.5
G1 F2400 X-54.27 Y10.5 E3551.04013
G0 F18000 X-54.27 Y11
G1 F2400 X54.271 Y10.999 E3556.68084
G0 F18000 X54.271 Y11.499
G1 F2400 X-54.27 Y11.5 E3562.32161
G0 F18000 X-54.27 Y12
G1 F2400 X54.271 Y11.999 E3567.96232
G0 F18000 X54.271 Y12.499
G1 F2400 X-54.27 Y12.5 E3573.60308
G0 F18000 X-54.27 Y13
G1 F2400 X54.271 Y12.999 E3579.24379
G0 F18000 X54.271 Y13.499
G1 F2400 X-54.27 Y13.5 E3584.88455
G0 F18000 X-54.27 Y14
G1 F2400 X54.271 Y13.999 E3590.52527
G0 F18000 X54.271 Y14.499
G1 F2400 X-54.27 Y14.5 E3596.16603
G0 F18000 X-54.27 Y15
G1 F2400 X54.271 Y14.999 E3601.80674
G0 F18000 X54.271 Y15.499
G1 F2400 X-54.27 Y15.5 E3607.4475
G0 F18000 X-54.27 Y16
G1 F2400 X54.271 Y15.999 E3613.08821
G0 F18000 X54.271 Y16.499
G1 F2400 X-54.27 Y16.5 E3618.72898
G0 F18000 X-54.27 Y17
G1 F2400 X54.271 Y16.999 E3624.36969
G0 F18000 X54.271 Y17.499
G1 F2400 X-54.27 Y17.5 E3630.01045
G0 F18000 X-54.27 Y18
G1 F2400 X54.271 Y17.999 E3635.65116
G0 F18000 X54.271 Y18.499
G1 F2400 X-54.27 Y18.5 E3641.29192
G0 F18000 X-54.27 Y19
G1 F2400 X54.271 Y18.999 E3646.93264
G0 F18000 X54.271 Y19.499
G1 F2400 X-54.27 Y19.5 E3652.5734
G0 F18000 X-54.27 Y20
G1 F2400 X54.271 Y19.999 E3658.21411
G0 F18000 X54.271 Y20.499
G1 F2400 X-54.27 Y20.5 E3663.85487
G0 F18000 X-54.27 Y21
G1 F2400 X54.271 Y20.999 E3669.49558
G0 F18000 X54.271 Y21.499
G1 F2400 X-54.27 Y21.5 E3675.13635
G0 F18000 X-54.27 Y22
G1 F2400 X54.271 Y21.999 E3680.77706
G0 F18000 X54.271 Y22.499
G1 F2400 X40.184 Y22.499 E3681.50914
G0 F18000 X40.432 Y22.499
G1 F2400 X38.383 Y22.499 E3681.61563
G0 F18000 X38.623 Y22.499
G1 F2400 X-35.386 Y22.5 E3685.4618
G0 F18000 X-35.141 Y22.5
G1 F2400 X-37.202 Y22.5 E3685.56896
G0 F18000 X-36.969 Y22.5
G1 F2400 X-54.27 Y22.5 E3686.46813
G0 F18000 X-54.27 Y23
G1 F2400 X-37.577 Y23 E3687.33559
G0 F18000 X-37.729 Y23
G1 F2400 X-34.622 Y23 E3687.49701
G0 F18000 X-34.766 Y23
G1 F2400 X38.004 Y22.999 E3691.27874
G0 F18000 X37.85 Y22.999
G1 F2400 X40.958 Y22.999 E3691.44026
G0 F18000 X40.811 Y22.999
G1 F2400 X54.271 Y22.999 E3692.13976
G0 F18000 X54.271 Y23.499
G1 F2400 X41.091 Y23.499 E3692.82471
G0 F18000 X41.218 Y23.499
G1 F2400 X37.595 Y23.499 E3693.01299
G0 F18000 X37.725 Y23.499
G1 F2400 X-34.491 Y23.5 E3696.76598
G0 F18000 X-34.361 Y23.5
G1 F2400 X-37.983 Y23.5 E3696.95427
G0 F18000 X-37.856 Y23.5
G1 F2400 X-54.27 Y23.5 E3697.80734
G0 F18000 X-54.27 Y24
G1 F2400 X-37.965 Y24 E3698.65464
G0 F18000 X-38.085 Y24
G1 F2400 X-34.267 Y24 E3698.85301
G0 F18000 X-34.387 Y24
G1 F2400 X37.62 Y23.999 E3702.59508
G0 F18000 X37.5 Y23.999
G1 F2400 X41.317 Y23.999 E3702.79345
G0 F18000 X41.197 Y23.999
G1 F2400 X54.271 Y23.999 E3703.47289
G0 F18000 X54.271 Y24.499
G1 F2400 X41.152 Y24.499 E3704.15467
G0 F18000 X41.275 Y24.499
G1 F2400 X37.537 Y24.499 E3704.34893
G0 F18000 X37.661 Y24.499
G1 F2400 X-34.426 Y24.5 E3708.09522
G0 F18000 X-34.303 Y24.5
G1 F2400 X-38.048 Y24.5 E3708.28989
G0 F18000 X-37.927 Y24.5
G1 F2400 X-54.27 Y24.5 E3709.13927
G0 F18000 X-54.27 Y25
G1 F2400 X-37.728 Y25 E3709.99889
G0 F18000 X-37.863 Y25
G1 F2400 X-34.481 Y25 E3710.1746
G0 F18000 X-34.623 Y25
G1 F2400 X37.852 Y24.999 E3713.941
G0 F18000 X37.71 Y24.999
G1 F2400 X41.1 Y24.999 E3714.11717
G0 F18000 X40.961 Y24.999
G1 F2400 X54.271 Y24.999 E3714.80888
G0 F18000 X54.271 Y25.499
G1 F2400 X40.535 Y25.499 E3715.52273
G0 F18000 X40.718 Y25.499
G1 F2400 X38.088 Y25.499 E3715.6594
G0 F18000 X38.278 Y25.499
G1 F2400 X-35.05 Y25.5 E3719.47018
G0 F18000 X-34.86 Y25.5
G1 F2400 X-37.484 Y25.5 E3719.6066
G0 F18000 X-37.305 Y25.5
G1 F2400 X-54.27 Y25.5 E3720.48831
G0 F18000 X-54.27 Y26
G1 F2400 X54.271 Y25.999 E3726.12902
G0 F18000 X54.271 Y26.499
G1 F2400 X-54.27 Y26.5 E3731.76978
G0 F18000 X-54.27 Y27
G1 F2400 X54.271 Y26.999 E3737.41049
G0 F18000 X54.271 Y27.499
G1 F2400 X-54.27 Y27.5 E3743.05126
G0 F18000 X-54.27 Y28
G1 F2400 X54.271 Y27.999 E3748.69197
G0 F18000 X54.271 Y28.499
G1 F2400 X-54.27 Y28.5 E3754.33273
G0 F18000 X-54.27 Y29
G1 F2400 X54.271 Y28.999 E3759.97344
G0 F18000 X54.271 Y29.499
G1 F2400 X-54.27 Y29.5 E3765.6142
G0 F18000 X-54.126 Y30
G1 F2400 X54.132 Y29.999 E3771.24021
G0 F18000 X39.694 Y25.999
G0 X39.694 Y25.999
G1 F2400 X39.132 Y25.999 E3771.26941
G0 F18000 X15.853 Y6.999
G0 X15.853 Y6.999
G1 F2400 X15.129 Y6.999 E3771.30704
G0 F18000 X45.472 Y-26
G1 F2400 X46.017 Y-26 E3771.33536
G0 F18000 X-37.175 Y-25.999
G0 X-37.175 Y-25.999
G1 F2400 X-37.738 Y-25.999 E3771.36467
G0 F18000 X-36.466 Y26
G0 X-36.466 Y26
G1 F2400 X-35.915 Y26 E3771.39326
; LAYER:5
G0 F18000 X-53.658 Y30.4 Z1.55
G0 X-53.658 Y30.4
; TYPE:WALL-INNER
G1 F2400 X-53.93 Y30.364 E3771.40757
G1 X-54.083 Y30.299 E3771.41625
G1 X-54.258 Y30.155 E3771.42807
G1 X-54.371 Y29.996 E3771.43824
G1 X-54.424 Y29.872 E3771.44527
G1 X-54.46 Y29.598 E3771.45964
G1 X-54.46 Y-29.591 E3774.53563
G1 X-54.412 Y-29.896 E3774.55172
G1 X-54.342 Y-30.045 E3774.5603
G1 X-54.184 Y-30.224 E3774.57271
G1 X-53.998 Y-30.34 E3774.58408
G1 X-53.93 Y-30.363 E3774.58778
G1 X-53.658 Y-30.399 E3774.602
G1 X53.659 Y-30.399 E3780.1791
G1 X53.931 Y-30.363 E3780.19335
G1 X54.084 Y-30.298 E3780.20197
G1 X54.26 Y-30.153 E3780.21379
G1 X54.372 Y-29.995 E3780.22381
G1 X54.425 Y-29.871 E3780.23077
G1 X54.461 Y-29.597 E3780.24508
G1 X54.461 Y29.592 E3783.32102
G1 X54.413 Y29.897 E3783.33707
G1 X54.344 Y30.044 E3783.3455
G1 X54.246 Y30.173 E3783.35392
G1 X54.084 Y30.299 E3783.36459
G1 X53.931 Y30.364 E3783.37323
G1 X53.659 Y30.4 E3783.38749
G1 X-53.658 Y30.4 E3788.96464
G0 F18000 X-53.692 Y30.9
; TYPE:WALL-OUTER
G1 F2100 X-54.041 Y30.854 E3788.98299
G1 X-54.189 Y30.804 E3788.99115
G1 X-54.333 Y30.733 E3788.99954
G1 X-54.469 Y30.642 E3789.00809
G1 X-54.626 Y30.496 E3789.01927
G1 X-54.725 Y30.374 E3789.02747
G1 X-54.814 Y30.23 E3789.03629
G1 X-54.914 Y29.981 E3789.05026
G1 X-54.96 Y29.632 E3789.06856
G1 X-54.96 Y-29.629 E3792.14829
G1 X-54.898 Y-30.024 E3792.16911
G1 X-54.842 Y-30.171 E3792.17732
G1 X-54.768 Y-30.309 E3792.18548
G1 X-54.67 Y-30.444 E3792.19416
G1 X-54.504 Y-30.61 E3792.20636
G1 X-54.33 Y-30.733 E3792.21742
G1 X-54.189 Y-30.803 E3792.22558
G1 X-54.041 Y-30.853 E3792.23367
G1 X-53.692 Y-30.899 E3792.25192
G1 X53.693 Y-30.899 E3797.83255
G1 X54.042 Y-30.853 E3797.85084
G1 X54.19 Y-30.803 E3797.85894
G1 X54.334 Y-30.732 E3797.86726
G1 X54.467 Y-30.643 E3797.87555
G1 X54.626 Y-30.494 E3797.88684
G1 X54.728 Y-30.369 E3797.89518
G1 X54.815 Y-30.229 E3797.9037
G1 X54.915 Y-29.98 E3797.9176
G1 X54.961 Y-29.631 E3797.93584
G1 X54.961 Y29.63 E3801.01552
G1 X54.899 Y30.025 E3801.0363
G1 X54.844 Y30.171 E3801.04441
G1 X54.769 Y30.31 E3801.05262
G1 X54.595 Y30.533 E3801.06732
G1 X54.472 Y30.641 E3801.07582
G1 X54.334 Y30.733 E3801.08444
G1 X54.19 Y30.804 E3801.09279
G1 X54.042 Y30.854 E3801.10091
G1 X53.693 Y30.9 E3801.1192
G1 X-53.692 Y30.9 E3806.69989
G0 F18000 X-53.499 Y30.209
; TYPE:FILL
G1 F2400 X-53.5 Y-30.208 E3809.8397
G0 F18000 X-53 Y-30.208
G1 F2400 X-52.999 Y30.209 E3812.97945
G0 F18000 X-52.499 Y30.209
G1 F2400 X-52.5 Y-30.208 E3816.11926
G0 F18000 X-52 Y-30.208
G1 F2400 X-51.999 Y30.209 E3819.25902
G0 F18000 X-51.499 Y30.209
G1 F2400 X-51.5 Y-30.208 E3822.39883
G0 F18000 X-51 Y-30.208
G1 F2400 X-50.999 Y30.209 E3825.53858
G0 F18000 X-50.499 Y30.209
G1 F2400 X-50.5 Y-30.208 E3828.67839
G0 F18000 X-50 Y-30.208
G1 F2400 X-49.999 Y30.209 E3831.81815
G0 F18000 X-49.499 Y30.209
G1 F2400 X-49.5 Y-30.208 E3834.95796
G0 F18000 X-49 Y-30.208
G1 F2400 X-48.999 Y30.209 E3838.09771
G0 F18000 X-48.499 Y30.209
G1 F2400 X-48.5 Y-30.208 E3841.23752
G0 F18000 X-48 Y-30.208
G1 F2400 X-47.999 Y30.209 E3844.37728
G0 F18000 X-47.499 Y30.209
G1 F2400 X-47.5 Y-30.208 E3847.51709
G0 F18000 X-47 Y-30.208
G1 F2400 X-46.999 Y30.209 E3850.65684
G0 F18000 X-46.499 Y30.209
G1 F2400 X-46.5 Y-30.208 E3853.79665
G0 F18000 X-46 Y-30.208
G1 F2400 X-45.999 Y30.209 E3856.93641
G0 F18000 X-45.499 Y30.209
G1 F2400 X-45.5 Y-30.208 E3860.07622
G0 F18000 X-45 Y-30.208
G1 F2400 X-44.999 Y30.209 E3863.21598
G0 F18000 X-44.499 Y30.209
G1 F2400 X-44.5 Y-30.208 E3866.35578
G0 F18000 X-44 Y-30.208
G1 F2400 X-43.999 Y30.209 E3869.49554
G0 F18000 X-43.499 Y30.209
G1 F2400 X-43.5 Y-30.208 E3872.63535
G0 F18000 X-43 Y-30.208
G1 F2400 X-42.999 Y30.209 E3875.77511
G0 F18000 X-42.499 Y30.209
G1 F2400 X-42.5 Y-30.208 E3878.91492
G0 F18000 X-42 Y-30.208
G1 F2400 X-41.999 Y30.209 E3882.05467
G0 F18000 X-41.499 Y30.209
G1 F2400 X-41.5 Y-30.208 E3885.19448
G0 F18000 X-41 Y-30.208
G1 F2400 X-40.999 Y30.209 E3888.33424
G0 F18000 X-40.499 Y30.209
G1 F2400 X-40.5 Y-30.208 E3891.47405
G0 F18000 X-40 Y-30.208
G1 F2400 X-39.999 Y30.209 E3894.6138
G0 F18000 X-39.499 Y30.209
G1 F2400 X-39.5 Y-30.208 E3897.75361
G0 F18000 X-39 Y-30.208
G1 F2400 X-39 Y-24.993 E3898.02458
G0 F18000 X-39 Y-25.222
G1 F2400 X-39 Y-23.002 E3898.1399
G0 F18000 X-39 Y-23.217
G1 F2400 X-38.999 Y30.209 E3900.91634
G0 F18000 X-38.499 Y30.209
G1 F2400 X-38.5 Y-22.666 E3903.6642
G0 F18000 X-38.5 Y-22.517
G1 F2400 X-38.5 Y-25.699 E3903.82961
G0 F18000 X-38.5 Y-25.557
G1 F2400 X-38.5 Y-30.208 E3904.07137
G0 F18000 X-38 Y-30.208
G1 F2400 X-38 Y-25.815 E3904.29962
G0 F18000 X-38 Y-25.939
G1 F2400 X-38 Y-22.283 E3904.48957
G0 F18000 X-38 Y-22.408
G1 F2400 X-37.999 Y30.209 E3907.22397
G0 F18000 X-37.499 Y30.209
G1 F2400 X-37.5 Y25.31 E3907.47856
G0 F18000 X-37.5 Y25.483
G1 F2400 X-37.5 Y22.733 E3907.62148
G0 F18000 X-37.5 Y22.904
G1 F2400 X-37.5 Y-22.315 E3909.97146
G0 F18000 X-37.5 Y-22.194
G1 F2400 X-37.5 Y-26.017 E3910.17019
G0 F18000 X-37.5 Y-25.897
G1 F2400 X-37.5 Y-30.208 E3910.39428
G0 F18000 X-37 Y-30.208
G1 F2400 X-37 Y-25.843 E3910.62107
G0 F18000 X-37 Y-25.969
G1 F2400 X-37 Y-22.26 E3910.81378
G0 F18000 X-37 Y-22.384
G1 F2400 X-37 Y22.519 E3913.14729
G0 F18000 X-37 Y22.382
G1 F2400 X-37 Y25.834 E3913.32668
G0 F18000 X-37 Y25.698
G1 F2400 X-36.999 Y30.209 E3913.56111
G0 F18000 X-36.499 Y30.209
G1 F2400 X-36.5 Y25.865 E3913.78687
G0 F18000 X-36.5 Y25.988
G1 F2400 X-36.5 Y22.229 E3913.98222
G0 F18000 X-36.5 Y22.352
G1 F2400 X-36.5 Y-22.59 E3916.31781
G0 F18000 X-36.5 Y-22.454
G1 F2400 X-36.5 Y-25.77 E3916.49019
G0 F18000 X-36.5 Y-25.636
G1 F2400 X-36.5 Y-30.208 E3916.72784
G0 F18000 X-36 Y-30.208
G1 F2400 X-36 Y-25.165 E3916.98987
G0 F18000 X-36 Y-25.357
G1 F2400 X-36 Y-22.868 E3917.11917
G0 F18000 X-36 Y-23.055
G1 F2400 X-36 Y22.327 E3919.47757
G0 F18000 X-36 Y22.206
G1 F2400 X-36 Y26.011 E3919.67532
G0 F18000 X-36 Y25.89
G1 F2400 X-35.999 Y30.209 E3919.89977
G0 F18000 X-35.499 Y30.209
G1 F2400 X-35.5 Y25.768 E3920.13056
G0 F18000 X-35.5 Y25.895
G1 F2400 X-35.5 Y22.325 E3920.31609
G0 F18000 X-35.5 Y22.452
G1 F2400 X-35.5 Y-30.208 E3923.05278
G0 F18000 X-35 Y-30.208
G1 F2400 X-35 Y22.757 E3925.80526
G0 F18000 X-35 Y22.607
G1 F2400 X-35 Y25.609 E3925.96127
G0 F18000 X-35 Y25.456
G1 F2400 X-34.999 Y30.209 E3926.20828
G0 F18000 X-34.499 Y30.209
G1 F2400 X-34.5 Y24.739 E3926.49255
G0 F18000 X-34.5 Y25.023
G1 F2400 X-34.5 Y23.185 E3926.58807
G0 F18000 X-34.5 Y23.48
G1 F2400 X-34.5 Y-30.208 E3929.37818
G0 F18000 X-34 Y-30.208
G1 F2400 X-33.999 Y30.209 E3932.51794
G0 F18000 X-33.499 Y30.209
G1 F2400 X-33.5 Y-30.208 E3935.65775
G0 F18000 X-33 Y-30.208
G1 F2400 X-32.999 Y30.209 E3938.7975
G0 F18000 X-32.499 Y30.209
G1 F2400 X-32.5 Y-30.208 E3941.93731
G0 F18000 X-32 Y-30.208
G1 F2400 X-31.999 Y30.209 E3945.07707
G0 F18000 X-31.499 Y30.209
G1 F2400 X-31.5 Y-30.208 E3948.21688
G0 F18000 X-31 Y-30.208
G1 F2400 X-30.999 Y30.209 E3951.35663
G0 F18000 X-30.499 Y30.209
G1 F2400 X-30.5 Y-30.208 E3954.49644
G0 F18000 X-30 Y-30.208
G1 F2400 X-29.999 Y30.209 E3957.6362
G0 F18000 X-29.499 Y30.209
G1 F2400 X-29.5 Y-30.208 E3960.77601
G0 F18000 X-29 Y-30.208
G1 F2400 X-28.999 Y30.209 E3963.91576
G0 F18000 X-28.499 Y30.209
G1 F2400 X-28.5 Y-30.208 E3967.05557
G0 F18000 X-28 Y-30.208
G1 F2400 X-27.999 Y30.209 E3970.19533
G0 F18000 X-27.499 Y30.209
G1 F2400 X-27.5 Y-30.208 E3973.33514
G0 F18000 X-27 Y-30.208
G1 F2400 X-26.999 Y30.209 E3976.47489
G0 F18000 X-26.499 Y30.209
G1 F2400 X-26.5 Y-30.208 E3979.6147
G0 F18000 X-26 Y-30.208
G1 F2400 X-25.999 Y30.209 E3982.75446
G0 F18000 X-25.499 Y30.209
G1 F2400 X-25.5 Y-30.208 E3985.89427
G0 F18000 X-25 Y-30.208
G1 F2400 X-24.999 Y30.209 E3989.03403
G0 F18000 X-24.499 Y30.209
G1 F2400 X-24.5 Y-30.208 E3992.17383
G0 F18000 X-24 Y-30.208
G1 F2400 X-23.999 Y30.209 E3995.31359
G0 F18000 X-23.499 Y30.209
G1 F2400 X-23.5 Y-30.208 E3998.4534
G0 F18000 X-23 Y-30.208
G1 F2400 X-22.999 Y30.209 E4001.59316
G0 F18000 X-22.499 Y30.209
G1 F2400 X-22.5 Y-30.208 E4004.73297
G0 F18000 X-22 Y-30.208
G1 F2400 X-21.999 Y30.209 E4007.87272
G0 F18000 X-21.499 Y30.209
G1 F2400 X-21.5 Y-30.208 E4011.01253
G0 F18000 X-21 Y-30.208
G1 F2400 X-20.999 Y30.209 E4014.15229
G0 F18000 X-20.499 Y30.209
G1 F2400 X-20.5 Y-30.208 E4017.2921
G0 F18000 X-20 Y-30.208
G1 F2400 X-19.999 Y30.209 E4020.43185
G0 F18000 X-19.499 Y30.209
G1 F2400 X-19.5 Y-30.208 E4023.57166
G0 F18000 X-19 Y-30.208
G1 F2400 X-18.999 Y30.209 E4026.71142
G0 F18000 X-18.499 Y30.209
G1 F2400 X-18.5 Y-30.208 E4029.85123
G0 F18000 X-18 Y-30.208
G1 F2400 X-17.999 Y30.209 E4032.99098
G0 F18000 X-17.499 Y30.209
G1 F2400 X-17.5 Y-30.208 E4036.13079
G0 F18000 X-17 Y-30.208
G1 F2400 X-16.999 Y30.209 E4039.27055
G0 F18000 X-16.499 Y30.209
G1 F2400 X-16.5 Y-30.208 E4042.41036
G0 F18000 X-16 Y-30.208
G1 F2400 X-15.999 Y30.209 E4045.55012
G0 F18000 X-15.499 Y30.209
G1 F2400 X-15.5 Y-30.208 E4048.68992
G0 F18000 X-15 Y-30.208
G1 F2400 X-14.999 Y30.209 E4051.82968
G0 F18000 X-14.499 Y30.209
G1 F2400 X-14.5 Y-30.209 E4054.96954
G0 F18000 X-14 Y-30.209
G1 F2400 X-13.999 Y30.209 E4058.10935
G0 F18000 X-13.499 Y30.209
G1 F2400 X-13.5 Y-30.209 E4061.24921
G0 F18000 X-13 Y-30.209
G1 F2400 X-12.999 Y30.209 E4064.38902
G0 F18000 X-12.499 Y30.209
G1 F2400 X-12.5 Y-30.209 E4067.52888
G0 F18000 X-12 Y-30.209
G1 F2400 X-11.999 Y30.209 E4070.66869
G0 F18000 X-11.499 Y30.209
G1 F2400 X-11.5 Y-30.209 E4073.80855
G0 F18000 X-11 Y-30.209
G1 F2400 X-10.999 Y30.209 E4076.94836
G0 F18000 X-10.499 Y30.209
G1 F2400 X-10.5 Y-30.209 E4080.08822
G0 F18000 X-10 Y-30.209
G1 F2400 X-9.999 Y30.209 E4083.22803
G0 F18000 X-9.499 Y30.209
G1 F2400 X-9.5 Y-30.209 E4086.36789
G0 F18000 X-9 Y-30.209
G1 F2400 X-8.999 Y30.209 E4089.5077
G0 F18000 X-8.499 Y30.209
G1 F2400 X-8.5 Y-30.209 E4092.64756
G0 F18000 X-8 Y-30.209
G1 F2400 X-7.999 Y30.209 E4095.78737
G0 F18000 X-7.499 Y30.209
G1 F2400 X-7.5 Y-30.209 E4098.92723
G0 F18000 X-7 Y-30.209
G1 F2400 X-6.999 Y30.209 E4102.06704
G0 F18000 X-6.499 Y30.209
G1 F2400 X-6.5 Y-30.209 E4105.2069
G0 F18000 X-6 Y-30.209
G1 F2400 X-5.999 Y30.209 E4108.34671
G0 F18000 X-5.499 Y30.209
G1 F2400 X-5.5 Y-30.209 E4111.48657
G0 F18000 X-5 Y-30.209
G1 F2400 X-4.999 Y30.209 E4114.62637
G0 F18000 X-4.499 Y30.209
G1 F2400 X-4.5 Y-30.209 E4117.76624
G0 F18000 X-4 Y-30.209
G1 F2400 X-3.999 Y30.209 E4120.90604
G0 F18000 X-3.499 Y30.209
G1 F2400 X-3.5 Y-30.209 E4124.0459
G0 F18000 X-3 Y-30.209
G1 F2400 X-2.999 Y30.209 E4127.18571
G0 F18000 X-2.499 Y30.209
G1 F2400 X-2.5 Y-30.209 E4130.32557
G0 F18000 X-2 Y-30.209
G1 F2400 X-1.999 Y30.209 E4133.46538
G0 F18000 X-1.499 Y30.209
G1 F2400 X-1.5 Y-30.209 E4136.60524
G0 F18000 X-1 Y-30.209
G1 F2400 X-0.999 Y30.209 E4139.74505
G0 F18000 X-0.499 Y30.209
G1 F2400 X-0.5 Y-30.209 E4142.88491
G0 F18000 X0 Y-30.209
G1 F2400 X0 Y30.21 E4146.02477
G0 F18000 X0.5 Y30.21
G1 F2400 X0.499 Y-30.208 E4149.16463
G0 F18000 X0.999 Y-30.208
G1 F2400 X1 Y30.21 E4152.30444
G0 F18000 X1.5 Y30.21
G1 F2400 X1.499 Y-30.208 E4155.4443
G0 F18000 X1.999 Y-30.208
G1 F2400 X2 Y30.21 E4158.58411
G0 F18000 X2.5 Y30.21
G1 F2400 X2.499 Y-30.208 E4161.72397
G0 F18000 X2.999 Y-30.208
G1 F2400 X3 Y30.21 E4164.86378
G0 F18000 X3.5 Y30.21
G1 F2400 X3.499 Y-30.208 E4168.00364
G0 F18000 X3.999 Y-30.208
G1 F2400 X4 Y30.21 E4171.14345
G0 F18000 X4.5 Y30.21
G1 F2400 X4.499 Y-30.208 E4174.28331
G0 F18000 X4.999 Y-30.208
G1 F2400 X5 Y30.21 E4177.42312
G0 F18000 X5.5 Y30.21
G1 F2400 X5.499 Y-30.208 E4180.56298
G0 F18000 X5.999 Y-30.208
G1 F2400 X6 Y30.21 E4183.70279
G0 F18000 X6.5 Y30.21
G1 F2400 X6.499 Y-30.208 E4186.84265
G0 F18000 X6.999 Y-30.208
G1 F2400 X7 Y30.21 E4189.98246
G0 F18000 X7.5 Y30.21
G1 F2400 X7.499 Y-30.208 E4193.12232
G0 F18000 X7.999 Y-30.208
G1 F2400 X8 Y30.21 E4196.26213
G0 F18000 X8.5 Y30.21
G1 F2400 X8.499 Y-30.208 E4199.40199
G0 F18000 X8.999 Y-30.208
G1 F2400 X9 Y30.21 E4202.5418
G0 F18000 X9.5 Y30.21
G1 F2400 X9.499 Y-30.208 E4205.68166
G0 F18000 X9.999 Y-30.208
G1 F2400 X10 Y30.21 E4208.82147
G0 F18000 X10.5 Y30.21
G1 F2400 X10.499 Y-30.208 E4211.96133
G0 F18000 X10.999 Y-30.208
G1 F2400 X11 Y30.21 E4215.10114
G0 F18000 X11.5 Y30.21
G1 F2400 X11.499 Y-30.208 E4218.241
G0 F18000 X11.999 Y-30.208
G1 F2400 X12 Y30.21 E4221.38081
G0 F18000 X12.5 Y30.21
G1 F2400 X12.499 Y-30.208 E4224.52067
G0 F18000 X12.999 Y-30.208
G1 F2400 X13 Y30.21 E4227.66048
G0 F18000 X13.5 Y30.21
G1 F2400 X13.499 Y-30.208 E4230.80034
G0 F18000 X13.999 Y-30.208
G1 F2400 X13.999 Y-20.034 E4231.32902
G0 F18000 X13.999 Y-20.227
G1 F2400 X13.999 Y-17.844 E4231.45281
G0 F18000 X13.999 Y-18.036
G1 F2400 X14 Y7.872 E4232.79917
G0 F18000 X14 Y7.679
G1 F2400 X14 Y10.079 E4232.92389
G0 F18000 X14 Y9.877
G1 F2400 X14 Y30.21 E4233.98058
G0 F18000 X14.5 Y30.21
G1 F2400 X14.5 Y10.371 E4235.01159
G0 F18000 X14.5 Y10.519
G1 F2400 X14.5 Y7.243 E4235.18184
G0 F18000 X14.5 Y7.384
G1 F2400 X14.499 Y-17.539 E4236.47706
G0 F18000 X14.499 Y-17.401
G1 F2400 X14.499 Y-20.664 E4236.64669
G0 F18000 X14.499 Y-20.523
G1 F2400 X14.499 Y-30.208 E4237.15006
G0 F18000 X14.999 Y-30.208
G1 F2400 X14.999 Y-20.753 E4237.64137
G0 F18000 X14.999 Y-20.877
G1 F2400 X14.999 Y-17.185 E4237.83319
G0 F18000 X14.999 Y-17.312
G1 F2400 X15 Y7.153 E4239.10456
G0 F18000 X15 Y7.029
G1 F2400 X15 Y10.723 E4239.29653
G0 F18000 X15 Y10.597
G1 F2400 X15 Y30.209 E4240.31575
G0 F18000 X15.5 Y30.209
G1 F2400 X15.5 Y10.66 E4241.33169
G0 F18000 X15.5 Y10.781
G1 F2400 X15.5 Y6.967 E4241.5299
G0 F18000 X15.5 Y7.087
G1 F2400 X15.499 Y-17.246 E4242.79446
G0 F18000 X15.499 Y-17.126
G1 F2400 X15.499 Y-20.939 E4242.99267
G0 F18000 X15.499 Y-20.819
G1 F2400 X15.499 Y-30.208 E4243.48066
G0 F18000 X15.999 Y-30.208
G1 F2400 X15.999 Y-20.742 E4243.97255
G0 F18000 X15.999 Y-20.867
G1 F2400 X15.999 Y-17.193 E4244.16343
G0 F18000 X15.999 Y-17.321
G1 F2400 X16 Y7.164 E4245.43584
G0 F18000 X16 Y7.04
G1 F2400 X16 Y10.717 E4245.62693
G0 F18000 X16 Y10.589
G1 F2400 X16 Y30.209 E4246.64656
G0 F18000 X16.5 Y30.209
G1 F2400 X16.5 Y10.35 E4247.67861
G0 F18000 X16.5 Y10.488
G1 F2400 X16.5 Y7.252 E4247.84678
G0 F18000 X16.5 Y7.401
G1 F2400 X16.499 Y-17.555 E4249.14372
G0 F18000 X16.499 Y-17.417
G1 F2400 X16.499 Y-20.648 E4249.31168
G0 F18000 X16.499 Y-20.497
G1 F2400 X16.499 Y-30.208 E4249.8164
G0 F18000 X16.999 Y-30.208
G1 F2400 X16.999 Y-19.987 E4250.34753
G0 F18000 X16.999 Y-20.184
G1 F2400 X16.999 Y-17.874 E4250.46752
G0 F18000 X16.999 Y-18.09
G1 F2400 X17 Y7.926 E4251.81949
G0 F18000 X17 Y7.707
G1 F2400 X17 Y10.039 E4251.94069
G0 F18000 X17 Y9.824
G1 F2400 X17 Y30.209 E4253.00007
G0 F18000 X17.5 Y30.209
G1 F2400 X17.499 Y-30.208 E4256.13988
G0 F18000 X17.999 Y-30.208
G1 F2400 X18 Y30.209 E4259.27964
G0 F18000 X18.5 Y30.209
G1 F2400 X18.499 Y-30.208 E4262.41945
G0 F18000 X18.999 Y-30.208
G1 F2400 X19 Y30.209 E4265.5592
G0 F18000 X19.5 Y30.209
G1 F2400 X19.499 Y-30.208 E4268.69901
G0 F18000 X19.999 Y-30.208
G1 F2400 X20 Y30.209 E4271.83877
G0 F18000 X20.5 Y30.209
G1 F2400 X20.499 Y-30.208 E4274.97858
G0 F18000 X20.999 Y-30.208
G1 F2400 X21 Y30.209 E4278.11834
G0 F18000 X21.5 Y30.209
G1 F2400 X21.499 Y-30.208 E4281.25814
G0 F18000 X21.999 Y-30.208
G1 F2400 X22 Y30.209 E4284.3979
G0 F18000 X22.5 Y30.209
G1 F2400 X22.499 Y-30.208 E4287.53771
G0 F18000 X22.999 Y-30.208
G1 F2400 X23 Y30.209 E4290.67747
G0 F18000 X23.5 Y30.209
G1 F2400 X23.499 Y-30.208 E4293.81728
G0 F18000 X23.999 Y-30.208
G1 F2400 X24 Y30.209 E4296.95703
G0 F18000 X24.5 Y30.209
G1 F2400 X24.499 Y-30.208 E4300.09684
G0 F18000 X24.999 Y-30.208
G1 F2400 X25 Y30.209 E4303.2366
G0 F18000 X25.5 Y30.209
G1 F2400 X25.499 Y-30.208 E4306.37641
G0 F18000 X25.999 Y-30.208
G1 F2400 X26 Y30.209 E4309.51616
G0 F18000 X26.5 Y30.209
G1 F2400 X26.499 Y-30.208 E4312.65597
G0 F18000 X26.999 Y-30.208
G1 F2400 X27 Y30.209 E4315.79573
G0 F18000 X27.5 Y30.209
G1 F2400 X27.499 Y-30.208 E4318.93554
G0 F18000 X27.999 Y-30.208
G1 F2400 X28 Y30.209 E4322.07529
G0 F18000 X28.5 Y30.209
G1 F2400 X28.499 Y-30.208 E4325.2151
G0 F18000 X28.999 Y-30.208
G1 F2400 X29 Y30.209 E4328.35486
G0 F18000 X29.5 Y30.209
G1 F2400 X29.499 Y-30.208 E4331.49467
G0 F18000 X29.999 Y-30.208
G1 F2400 X30 Y30.209 E4334.63442
G0 F18000 X30.5 Y30.209
G1 F2400 X30.499 Y-30.208 E4337.77423
G0 F18000 X30.999 Y-30.208
G1 F2400 X31 Y30.209 E4340.91399
G0 F18000 X31.5 Y30.209
G1 F2400 X31.499 Y-30.208 E4344.0538
G0 F18000 X31.999 Y-30.208
G1 F2400 X32 Y30.209 E4347.19356
G0 F18000 X32.5 Y30.209
G1 F2400 X32.499 Y-30.208 E4350.33336
G0 F18000 X32.999 Y-30.208
G1 F2400 X33 Y30.209 E4353.47312
G0 F18000 X33.5 Y30.209
G1 F2400 X33.499 Y-30.208 E4356.61293
G0 F18000 X33.999 Y-30.208
G1 F2400 X34 Y30.209 E4359.75269
G0 F18000 X34.5 Y30.209
G1 F2400 X34.499 Y-30.208 E4362.8925
G0 F18000 X34.999 Y-30.208
G1 F2400 X35 Y30.209 E4366.03225
G0 F18000 X35.5 Y30.209
G1 F2400 X35.499 Y-30.208 E4369.17206
G0 F18000 X35.999 Y-30.208
G1 F2400 X36 Y30.209 E4372.31182
G0 F18000 X36.5 Y30.209
G1 F2400 X36.499 Y-30.208 E4375.45163
G0 F18000 X36.999 Y-30.208
G1 F2400 X37 Y30.209 E4378.59138
G0 F18000 X37.5 Y30.209
G1 F2400 X37.499 Y-30.208 E4381.73119
G0 F18000 X37.999 Y-30.208
G1 F2400 X38 Y23.009 E4384.49677
G0 F18000 X38 Y22.826
G1 F2400 X38 Y25.396 E4384.63033
G0 F18000 X38 Y25.205
G1 F2400 X38 Y30.209 E4384.89038
G0 F18000 X38.5 Y30.209
G1 F2400 X38.5 Y25.644 E4385.12762
G0 F18000 X38.5 Y25.782
G1 F2400 X38.5 Y22.428 E4385.30193
G0 F18000 X38.5 Y22.57
G1 F2400 X38.499 Y-30.208 E4388.04474
G0 F18000 X38.999 Y-30.208
G1 F2400 X39 Y22.37 E4390.77712
G0 F18000 X39 Y22.247
G1 F2400 X39 Y25.979 E4390.97107
G0 F18000 X39 Y25.854
G1 F2400 X39 Y30.209 E4391.19739
G0 F18000 X39.5 Y30.209
G1 F2400 X39.5 Y25.893 E4391.42169
G0 F18000 X39.5 Y26.013
G1 F2400 X39.5 Y22.204 E4391.61964
G0 F18000 X39.5 Y22.324
G1 F2400 X39.499 Y-30.208 E4394.34967
G0 F18000 X39.999 Y-30.208
G1 F2400 X40 Y22.418 E4397.08454
G0 F18000 X40 Y22.293
G1 F2400 X40 Y25.925 E4397.27329
G0 F18000 X40 Y25.797
G1 F2400 X40 Y30.209 E4397.50258
G0 F18000 X40.5 Y30.209
G1 F2400 X40.5 Y25.53 E4397.74574
G0 F18000 X40.5 Y25.673
G1 F2400 X40.5 Y22.547 E4397.90819
G0 F18000 X40.5 Y22.693
G1 F2400 X40.499 Y-30.208 E4400.6574
G0 F18000 X40.999 Y-30.208
G1 F2400 X41 Y23.292 E4403.43769
G0 F18000 X41 Y23.059
G1 F2400 X41 Y25.173 E4403.54755
G0 F18000 X41 Y24.932
G1 F2400 X41 Y30.209 E4403.82179
G0 F18000 X41.5 Y30.209
G1 F2400 X41.499 Y-30.208 E4406.9616
G0 F18000 X41.999 Y-30.208
G1 F2400 X42 Y30.209 E4410.10136
G0 F18000 X42.5 Y30.209
G1 F2400 X42.499 Y-30.208 E4413.24117
G0 F18000 X42.999 Y-30.208
G1 F2400 X43 Y30.209 E4416.38092
G0 F18000 X43.5 Y30.209
G1 F2400 X43.499 Y-30.208 E4419.52073
G0 F18000 X43.999 Y-30.208
G1 F2400 X44 Y-24.562 E4419.8141
G0 F18000 X44 Y-24.917
G1 F2400 X44 Y-23.308 E4419.89766
G0 F18000 X44 Y-23.662
G1 F2400 X44 Y30.209 E4422.69723
G0 F18000 X44.5 Y30.209
G1 F2400 X44.5 Y-22.816 E4425.45289
G0 F18000 X44.5 Y-22.652
G1 F2400 X44.5 Y-25.564 E4425.60427
G0 F18000 X44.5 Y-25.402
G1 F2400 X44.499 Y-30.208 E4425.85409
G0 F18000 X44.999 Y-30.208
G1 F2400 X45 Y-25.736 E4426.08644
G0 F18000 X45 Y-25.869
G1 F2400 X45 Y-22.349 E4426.26932
G0 F18000 X45 Y-22.479
G1 F2400 X45 Y30.209 E4429.00741
G0 F18000 X45.5 Y30.209
G1 F2400 X45.5 Y-22.334 E4431.73801
G0 F18000 X45.5 Y-22.213
G1 F2400 X45.5 Y-25.998 E4431.93477
G0 F18000 X45.5 Y-25.877
G1 F2400 X45.499 Y-30.208 E4432.1599
G0 F18000 X45.999 Y-30.208
G1 F2400 X46 Y-25.877 E4432.38492
G0 F18000 X46 Y-25.999
G1 F2400 X46 Y-22.22 E4432.58126
G0 F18000 X46 Y-22.342
G1 F2400 X46 Y30.209 E4435.31223
G0 F18000 X46.5 Y30.209
G1 F2400 X46.5 Y-22.495 E4438.0512
G0 F18000 X46.5 Y-22.358
G1 F2400 X46.5 Y-25.863 E4438.23341
G0 F18000 X46.5 Y-25.731
G1 F2400 X46.499 Y-30.208 E4438.46612
G0 F18000 X46.999 Y-30.208
G1 F2400 X47 Y-25.372 E4438.71739
G0 F18000 X47 Y-25.543
G1 F2400 X47 Y-22.689 E4438.86566
G0 F18000 X47 Y-22.847
G1 F2400 X47 Y30.209 E4441.62287
G0 F18000 X47.5 Y30.209
G1 F2400 X47.5 Y-23.829 E4444.43117
G0 F18000 X47.5 Y-23.397
G1 F2400 X47.5 Y-24.828 E4444.50559
G0 F18000 X47.5 Y-24.405
G1 F2400 X47.499 Y-30.208 E4444.80722
G0 F18000 X47.999 Y-30.208
G1 F2400 X48 Y30.209 E4447.94698
G0 F18000 X48.5 Y30.209
G1 F2400 X48.499 Y-30.208 E4451.08678
G0 F18000 X48.999 Y-30.208
G1 F2400 X49 Y30.209 E4454.22654
G0 F18000 X49.5 Y30.209
G1 F2400 X49.499 Y-30.208 E4457.36635
G0 F18000 X49.999 Y-30.208
G1 F2400 X50 Y30.209 E4460.50611
G0 F18000 X50.5 Y30.209
G1 F2400 X50.499 Y-30.208 E4463.64592
G0 F18000 X50.999 Y-30.208
G1 F2400 X51 Y30.209 E4466.78567
G0 F18000 X51.5 Y30.209
G1 F2400 X51.499 Y-30.208 E4469.92548
G0 F18000 X51.999 Y-30.208
G1 F2400 X52 Y30.209 E4473.06524
G0 F18000 X52.5 Y30.209
G1 F2400 X52.499 Y-30.208 E4476.20505
G0 F18000 X52.999 Y-30.208
G1 F2400 X53 Y30.209 E4479.3448
G0 F18000 X53.5 Y30.209
G1 F2400 X53.499 Y-30.208 E4482.48461
G0 F18000 X53.999 Y-30.12
G1 F2400 X54 Y30.123 E4485.61533
G0 F18000 X37.5 Y24.233
G0 X37.5 Y24.233
G1 F2400 X37.5 Y24.024 E4485.62619
G0 F18000 X-38 Y23.559
G0 X-38 Y23.559
G1 F2400 X-38 Y24.644 E4485.68257
G0 F18000 X-53.999 Y30.12
G0 X-53.999 Y30.12
G1 F2400 X-54 Y-30.112 E4488.81277
; LAYER:6
G0 F18000 X-54.083 Y-30.298 Z1.8
; TYPE:WALL-INNER
G1 F2400 X-53.93 Y-30.363 E4488.82138
G1 X-53.658 Y-30.399 E4488.83559
G1 X53.659 Y-30.399 E4494.4127
G1 X53.931 Y-30.363 E4494.42695
G1 X54.084 Y-30.298 E4494.43557
G1 X54.253 Y-30.162 E4494.44681
G1 X54.366 Y-30.006 E4494.45678
G1 X54.43 Y-29.83 E4494.46646
G1 X54.461 Y-29.596 E4494.47867
G1 X54.453 Y29.656 E4497.55789
G1 X54.419 Y29.886 E4497.56997
G1 X54.35 Y30.036 E4497.57855
G1 X54.244 Y30.175 E4497.58764
G1 X54.084 Y30.299 E4497.59816
G1 X53.931 Y30.364 E4497.60679
G1 X53.659 Y30.4 E4497.62105
G1 X-53.658 Y30.4 E4503.19821
G1 X-53.93 Y30.364 E4503.21252
G1 X-54.083 Y30.299 E4503.2212
G1 X-54.252 Y30.164 E4503.23249
G1 X-54.365 Y30.007 E4503.24257
G1 X-54.429 Y29.831 E4503.25232
G1 X-54.46 Y29.597 E4503.26459
G1 X-54.452 Y-29.655 E4506.34386
G1 X-54.418 Y-29.885 E4506.35598
G1 X-54.349 Y-30.035 E4506.36459
G1 X-54.235 Y-30.182 E4506.37427
G1 X-54.083 Y-30.298 E4506.38419
G0 F18000 X-54.333 Y-30.732
; TYPE:WALL-OUTER
G1 F2100 X-54.189 Y-30.803 E4506.39252
G1 X-54.041 Y-30.853 E4506.4006
G1 X-53.692 Y-30.899 E4506.41885
G1 X53.693 Y-30.899 E4511.99949
G1 X54.042 Y-30.853 E4512.01777
G1 X54.19 Y-30.803 E4512.02587
G1 X54.334 Y-30.732 E4512.0342
G1 X54.471 Y-30.64 E4512.04274
G1 X54.609 Y-30.515 E4512.05238
G1 X54.719 Y-30.385 E4512.0612
G1 X54.871 Y-30.109 E4512.07752
G1 X54.922 Y-29.924 E4512.08745
G1 X54.961 Y-29.631 E4512.10276
G1 X54.953 Y29.696 E4515.18587
G1 X54.907 Y30.006 E4515.20215
G1 X54.853 Y30.154 E4515.21034
G1 X54.78 Y30.294 E4515.21855
G1 X54.594 Y30.534 E4515.23433
G1 X54.472 Y30.641 E4515.24276
G1 X54.334 Y30.733 E4515.25138
G1 X54.19 Y30.804 E4515.25972
G1 X54.042 Y30.854 E4515.26784
G1 X53.693 Y30.9 E4515.28614
G1 X-53.692 Y30.9 E4520.86682
G1 X-54.041 Y30.854 E4520.88517
G1 X-54.189 Y30.804 E4520.89334
G1 X-54.333 Y30.733 E4520.90173
G1 X-54.47 Y30.641 E4520.91035
G1 X-54.612 Y30.513 E4520.92032
G1 X-54.715 Y30.39 E4520.92869
G1 X-54.87 Y30.11 E4520.94535
G1 X-54.921 Y29.925 E4520.95533
G1 X-54.96 Y29.632 E4520.9707
G1 X-54.952 Y-29.695 E4524.05386
G1 X-54.906 Y-30.005 E4524.0702
G1 X-54.852 Y-30.153 E4524.07841
G1 X-54.779 Y-30.293 E4524.08664
G1 X-54.59 Y-30.537 E4524.10269
G1 X-54.475 Y-30.637 E4524.11061
G1 X-54.333 Y-30.732 E4524.11947
G0 F18000 X-54.136 Y-29.999
; TYPE:FILL
G1 F2400 X54.135 Y-30 E4529.74615
G0 F18000 X54.271 Y-29.5
G1 F2400 X-54.262 Y-29.499 E4535.3865
G0 F18000 X-54.262 Y-28.999
G1 F2400 X54.271 Y-29 E4541.02679
G0 F18000 X54.271 Y-28.5
G1 F2400 X-54.262 Y-28.499 E4546.66714
G0 F18000 X-54.262 Y-27.999
G1 F2400 X54.271 Y-28 E4552.30744
G0 F18000 X54.271 Y-27.5
G1 F2400 X-54.262 Y-27.499 E4557.94778
G0 F18000 X-54.262 Y-26.999
G1 F2400 X54.271 Y-27 E4563.58808
G0 F18000 X54.271 Y-26.5
G1 F2400 X-54.262 Y-26.499 E4569.22843
G0 F18000 X-54.262 Y-25.999
G1 F2400 X54.271 Y-26 E4574.86872
G0 F18000 X54.27 Y-25.5
G1 F2400 X46.857 Y-25.5 E4575.25397
G0 F18000 X47.046 Y-25.5
G1 F2400 X44.431 Y-25.5 E4575.38987
G0 F18000 X44.617 Y-25.5
G1 F2400 X-36.319 Y-25.499 E4579.59602
G0 F18000 X-36.138 Y-25.499
G1 F2400 X-38.75 Y-25.499 E4579.73182
G0 F18000 X-38.577 Y-25.499
G1 F2400 X-54.263 Y-25.499 E4580.54706
G0 F18000 X-54.263 Y-24.999
G1 F2400 X-38.994 Y-24.999 E4581.34052
G0 F18000 X-39.129 Y-24.999
G1 F2400 X-35.754 Y-24.999 E4581.51586
G0 F18000 X-35.892 Y-24.999
G1 F2400 X44.186 Y-25 E4585.67738
G0 F18000 X44.047 Y-25
G1 F2400 X47.424 Y-25 E4585.85288
G0 F18000 X47.281 Y-25
G1 F2400 X54.27 Y-25 E4586.21609
G0 F18000 X54.27 Y-24.5
G1 F2400 X47.473 Y-24.5 E4586.56932
G0 F18000 X47.596 Y-24.5
G1 F2400 X43.867 Y-24.5 E4586.76312
G0 F18000 X43.989 Y-24.5
G1 F2400 X-35.698 Y-24.499 E4590.90437
G0 F18000 X-35.574 Y-24.499
G1 F2400 X-39.316 Y-24.499 E4591.09889
G0 F18000 X-39.192 Y-24.499
G1 F2400 X-54.263 Y-24.499 E4591.88216
G0 F18000 X-54.263 Y-23.999
G1 F2400 X-39.226 Y-23.999 E4592.66357
G0 F18000 X-39.346 Y-23.999
G1 F2400 X-35.541 Y-23.999 E4592.86126
G0 F18000 X-35.662 Y-23.999
G1 F2400 X43.945 Y-24 E4596.9983
G0 F18000 X43.825 Y-24
G1 F2400 X47.641 Y-24 E4597.19661
G0 F18000 X47.52 Y-24
G1 F2400 X54.27 Y-24 E4597.5474
G0 F18000 X54.27 Y-23.5
G1 F2400 X47.408 Y-23.5 E4597.90401
G0 F18000 X47.533 Y-23.5
G1 F2400 X43.925 Y-23.5 E4598.09152
G0 F18000 X44.05 Y-23.5
G1 F2400 X-35.763 Y-23.499 E4602.23932
G0 F18000 X-35.633 Y-23.499
G1 F2400 X-39.258 Y-23.499 E4602.42776
G0 F18000 X-39.13 Y-23.499
G1 F2400 X-54.263 Y-23.499 E4603.21425
G0 F18000 X-54.263 Y-22.999
G1 F2400 X-38.852 Y-22.999 E4604.0151
G0 F18000 X-38.998 Y-22.999
G1 F2400 X-35.893 Y-22.999 E4604.17641
G0 F18000 X-36.042 Y-22.999
G1 F2400 X44.332 Y-23 E4608.35331
G0 F18000 X44.182 Y-23
G1 F2400 X47.284 Y-23 E4608.51452
G0 F18000 X47.129 Y-23
G1 F2400 X54.27 Y-23 E4608.88563
G0 F18000 X54.27 Y-22.5
G1 F2400 X46.502 Y-22.5 E4609.28932
G0 F18000 X46.745 Y-22.5
G1 F2400 X44.712 Y-22.5 E4609.39498
G0 F18000 X44.953 Y-22.5
G1 F2400 X-36.668 Y-22.499 E4613.63673
G0 F18000 X-36.416 Y-22.499
G1 F2400 X-38.475 Y-22.499 E4613.74379
G0 F18000 X-38.219 Y-22.499
G1 F2400 X-54.263 Y-22.499 E4614.57763
G0 F18000 X-54.263 Y-21.999
G1 F2400 X54.27 Y-22 E4620.21793
G0 F18000 X54.27 Y-21.5
G1 F2400 X-54.263 Y-21.499 E4625.85827
G0 F18000 X-54.263 Y-20.999
G1 F2400 X54.27 Y-21 E4631.49857
G0 F18000 X54.27 Y-20.5
G1 F2400 X16.494 Y-20.5 E4633.46175
G0 F18000 X16.685 Y-20.5
G1 F2400 X14.274 Y-20.5 E4633.58705
G0 F18000 X14.463 Y-20.5
G1 F2400 X-54.263 Y-20.499 E4637.15867
G0 F18000 X-54.263 Y-19.999
G1 F2400 X13.987 Y-20 E4640.70549
G0 F18000 X13.847 Y-20
G1 F2400 X17.129 Y-20 E4640.87606
G0 F18000 X16.991 Y-20
G1 F2400 X54.27 Y-20 E4642.81341
G0 F18000 X54.27 Y-19.5
G1 F2400 X17.213 Y-19.5 E4644.73922
G0 F18000 X17.341 Y-19.5
G1 F2400 X13.64 Y-19.5 E4644.93156
G0 F18000 X13.762 Y-19.5
G1 F2400 X-54.263 Y-19.499 E4648.46675
G0 F18000 X-54.263 Y-18.999
G1 F2400 X13.698 Y-19 E4651.99856
G0 F18000 X13.578 Y-19
G1 F2400 X17.387 Y-19 E4652.19651
G0 F18000 X17.267 Y-19
G1 F2400 X54.27 Y-19 E4654.11952
G0 F18000 X54.27 Y-18.5
G1 F2400 X17.193 Y-18.5 E4656.04637
G0 F18000 X17.318 Y-18.5
G1 F2400 X13.656 Y-18.5 E4656.23668
G0 F18000 X13.782 Y-18.5
G1 F2400 X-54.264 Y-18.499 E4659.77296
G0 F18000 X-54.264 Y-17.999
G1 F2400 X14.032 Y-18 E4663.32218
G0 F18000 X13.88 Y-18
G1 F2400 X17.086 Y-18 E4663.48879
G0 F18000 X16.946 Y-18
G1 F2400 X54.269 Y-18 E4665.42843
G0 F18000 X54.269 Y-17.5
G1 F2400 X16.401 Y-17.5 E4667.39639
G0 F18000 X16.618 Y-17.5
G1 F2400 X14.353 Y-17.5 E4667.5141
G0 F18000 X14.571 Y-17.5
G1 F2400 X-54.264 Y-17.499 E4671.09138
G0 F18000 X-54.264 Y-16.999
G1 F2400 X54.269 Y-17 E4676.73168
G0 F18000 X54.269 Y-16.5
G1 F2400 X-54.264 Y-16.499 E4682.37203
G0 F18000 X-54.264 Y-15.999
G1 F2400 X54.269 Y-16 E4688.01232
G0 F18000 X54.269 Y-15.5
G1 F2400 X-54.264 Y-15.499 E4693.65267
G0 F18000 X-54.264 Y-14.999
G1 F2400 X54.269 Y-15 E4699.29296
G0 F18000 X54.269 Y-14.5
G1 F2400 X-54.264 Y-14.499 E4704.93331
G0 F18000 X-54.264 Y-13.999
G1 F2400 X54.269 Y-14 E4710.57361
G0 F18000 X54.269 Y-13.5
G1 F2400 X-54.264 Y-13.499 E4716.21395
G0 F18000 X-54.264 Y-12.999
G1 F2400 X54.269 Y-13 E4721.85425
G0 F18000 X54.269 Y-12.5
G1 F2400 X-54.264 Y-12.499 E4727.4946
G0 F18000 X-54.264 Y-11.999
G1 F2400 X54.269 Y-12 E4733.13489
G0 F18000 X54.269 Y-11.5
G1 F2400 X-54.264 Y-11.499 E4738.77524
G0 F18000 X-54.265 Y-10.999
G1 F2400 X54.268 Y-11 E4744.41553
G0 F18000 X54.268 Y-10.5
G1 F2400 X-54.265 Y-10.499 E4750.05588
G0 F18000 X-54.265 Y-9.999
G1 F2400 X54.268 Y-10 E4755.69618
G0 F18000 X54.268 Y-9.5
G1 F2400 X-54.265 Y-9.499 E4761.33652
G0 F18000 X-54.265 Y-8.999
G1 F2400 X54.268 Y-9 E4766.97682
G0 F18000 X54.268 Y-8.5
G1 F2400 X-54.265 Y-8.499 E4772.61717
G0 F18000 X-54.265 Y-7.999
G1 F2400 X54.268 Y-8 E4778.25746
G0 F18000 X54.268 Y-7.5
G1 F2400 X-54.265 Y-7.499 E4783.89781
G0 F18000 X-54.265 Y-6.999
G1 F2400 X54.268 Y-7 E4789.5381
G0 F18000 X54.268 Y-6.5
G1 F2400 X-54.265 Y-6.499 E4795.17845
G0 F18000 X-54.265 Y-5.999
G1 F2400 X54.268 Y-6 E4800.81875
G0 F18000 X54.268 Y-5.5
G1 F2400 X-54.265 Y-5.499 E4806.45909
G0 F18000 X-54.265 Y-4.999
G1 F2400 X54.268 Y-5 E4812.09939
G0 F18000 X54.268 Y-4.5
G1 F2400 X-54.265 Y-4.499 E4817.73974
G0 F18000 X-54.265 Y-3.999
G1 F2400 X54.268 Y-4 E4823.38003
G0 F18000 X54.267 Y-3.5
G1 F2400 X-54.266 Y-3.499 E4829.02038
G0 F18000 X-54.266 Y-2.999
G1 F2400 X54.267 Y-3 E4834.66067
G0 F18000 X54.267 Y-2.5
G1 F2400 X-54.266 Y-2.499 E4840.30102
G0 F18000 X-54.266 Y-1.999
G1 F2400 X54.267 Y-2 E4845.94132
G0 F18000 X54.267 Y-1.5
G1 F2400 X-54.266 Y-1.499 E4851.58166
G0 F18000 X-54.266 Y-0.999
G1 F2400 X54.267 Y-1 E4857.22196
G0 F18000 X54.267 Y-0.5
G1 F2400 X-54.266 Y-0.499 E4862.86231
G0 F18000 X-54.266 Y0
G1 F2400 X54.267 Y0 E4868.5026
G0 F18000 X54.267 Y0.499
G1 F2400 X-54.266 Y0.5 E4874.14295
G0 F18000 X-54.266 Y1
G1 F2400 X54.267 Y0.999 E4879.78324
G0 F18000 X54.267 Y1.499
G1 F2400 X-54.266 Y1.5 E4885.42359
G0 F18000 X-54.266 Y2
G1 F2400 X54.267 Y1.999 E4891.06389
G0 F18000 X54.267 Y2.499
G1 F2400 X-54.266 Y2.5 E4896.70423
G0 F18000 X-54.266 Y3
G1 F2400 X54.267 Y2.999 E4902.34453
G0 F18000 X54.267 Y3.499
G1 F2400 X-54.266 Y3.5 E4907.98488
G0 F18000 X-54.267 Y4
G1 F2400 X54.266 Y3.999 E4913.62517
G0 F18000 X54.266 Y4.499
G1 F2400 X-54.267 Y4.5 E4919.26552
G0 F18000 X-54.267 Y5
G1 F2400 X54.266 Y4.999 E4924.90581
G0 F18000 X54.266 Y5.499
G1 F2400 X-54.267 Y5.5 E4930.54616
G0 F18000 X-54.267 Y6
