; Generated with MatterSlice 1.0
; filamentDiameter = 1.75
; extrusionWidth = 0.5
; firstLayerExtrusionWidth = 0.4
; layerThickness = 0.25
; firstLayerThickness = 0.3
; automatic settings before start_gcode
G21 ; set units to millimeters
M107 ; fan off
T0 ; set the active extruder to 0
; settings from start_gcode
M104 S190
M190 S60
M109 S190
G28
; automatic settings after start_gcode
T0 ; set the active extruder to 0
G90 ; use absolute coordinates
G92 E0 ; reset the expected extruder position
M82 ; use absolute distance for extrusion
; Layer count: 85
; LAYER:0
M107
G0 F18000 X49.49 Y-35.15 Z0.3
; TYPE:SKIRT
G1 Z0.3
G1 F6600 E0
G1 F720 X55.505 Y-35.15 E0.30009
G1 X57.437 Y-34.184 E0.40783
G1 X59.39 Y-32.231 E0.54559
G1 X59.39 Y-25.35 E0.88884
G1 X57.958 Y-25.35 E0.96028
G1 X57.958 Y25.45 E3.49465
G1 X59.39 Y25.45 E3.56609
G1 X59.39 Y33.209 E3.95319
G1 X56.611 Y34.597 E4.10817
G1 X55.305 Y35.25 E4.18102
G1 X49.49 Y35.25 E4.47113
G1 X49.49 Y33.897 E4.53863
G1 X-49.41 Y33.897 E9.47277
G1 X-49.41 Y35.25 E9.54027
G1 X-55.225 Y35.25 E9.83043
G1 X-57.157 Y34.284 E9.93824
G1 X-59.31 Y32.131 E10.09018
G1 X-59.31 Y25.45 E10.4235
G1 X-57.955 Y25.45 E10.49105
G1 X-57.955 Y-25.35 E13.02547
G1 X-59.31 Y-25.35 E13.09312
G1 X-59.31 Y-32.031 E13.42649
G1 X-59.11 Y-32.231 E13.4406
G1 X-59.11 Y-33.309 E13.49443
G1 X-55.424 Y-35.15 E13.69997
G1 X-49.41 Y-35.15 E13.99996
G1 X-49.41 Y-33.896 E14.06247
G1 X49.49 Y-33.896 E18.99656
G1 X49.49 Y-35.15 E19.05917
G0 F18000 X49.89 Y-34.75
G1 F720 X55.41 Y-34.75 E19.33457
G1 X57.201 Y-33.855 E19.43443
G1 X58.99 Y-32.065 E19.56066
G1 X58.99 Y-25.75 E19.87566
G1 X57.558 Y-25.75 E19.94711
G1 X57.558 Y25.85 E22.52139
G1 X58.99 Y25.85 E22.59283
G1 X58.99 Y32.962 E22.94765
G1 X56.433 Y34.239 E23.09025
G1 X55.21 Y34.85 E23.15845
G1 X49.89 Y34.85 E23.42387
G1 X49.89 Y33.497 E23.49137
G1 X-49.81 Y33.497 E28.46542
G1 X-49.81 Y34.85 E28.53293
G1 X-55.13 Y34.85 E28.79839
G1 X-56.921 Y33.955 E28.89832
G1 X-58.91 Y31.965 E29.03873
G1 X-58.91 Y25.85 E29.34381
G1 X-57.555 Y25.85 E29.41136
G1 X-57.555 Y-25.75 E31.98569
G1 X-58.91 Y-25.75 E32.05335
G1 X-58.91 Y-31.865 E32.35847
G1 X-58.71 Y-32.065 E32.37259
G1 X-58.71 Y-33.062 E32.42238
G1 X-55.33 Y-34.75 E32.61084
G1 X-49.81 Y-34.75 E32.88619
G1 X-49.81 Y-33.496 E32.9487
G1 X49.89 Y-33.496 E37.9227
G1 X49.89 Y-34.75 E37.98531
G0 F18000 X54.35 Y-30.502
; TYPE:SUPPORT
G1 F720 X54.563 Y-30.288 E38.00786
G1 F6600 E31.20786
G1 Z0.6
G0 F18000 X55.039 Y30.29
G1 Z0.3
G1 F6600 E38.10786
G1 F720 X55.485 Y30.737 E38.15511
G0 F18000 X54.158 Y29.45
; TYPE:WALL-OUTER
G1 F720 X53.511 Y29.45 E38.18739
G1 X53.511 Y30.097 E38.21967
G1 X-53.509 Y30.097 E43.55892
G1 X-53.509 Y29.45 E43.5912
G1 X-54.155 Y29.45 E43.62348
G1 X-54.155 Y-29.449 E46.56196
G1 X-53.509 Y-29.449 E46.59414
G1 X-53.509 Y-30.096 E46.62647
G1 X53.511 Y-30.096 E51.96567
G1 X53.511 Y-29.449 E51.9979
G1 X54.158 Y-29.449 E52.03017
G1 X54.158 Y29.45 E54.96861
G0 F18000 X53.858 Y29.24
G0 X47.292 Y22.096
G0 X47.021 Y21.801
G0 X47.219 Y22.016
G0 X47.219 Y22.016
G0 X47.024 Y21.79
G1 F720 X47.419 Y21.205 E55.00382
G1 X47.648 Y20.538 E55.03901
G1 X47.697 Y19.835 E55.07417
G1 X47.562 Y19.142 E55.10939
G1 X47.253 Y18.509 E55.14453
G1 X46.79 Y17.976 E55.17975
G1 X46.205 Y17.581 E55.21497
G1 X45.538 Y17.352 E55.25015
G1 X44.854 Y17.305 E55.28436
G1 X-45.363 Y17.323 E59.7853
G1 X-46.044 Y17.509 E59.82057
G1 X-46.652 Y17.863 E59.85571
G1 X-47.15 Y18.365 E59.89103
G1 X-47.5 Y18.977 E59.92623
G1 X-47.679 Y19.66 E59.96146
G1 X-47.676 Y20.364 E59.99659
G1 X-47.49 Y21.045 E60.03179
G1 X-47.134 Y21.655 E60.06701
G1 X-46.634 Y22.151 E60.10211
G1 X-46.021 Y22.501 E60.13728
G1 X-45.315 Y22.68 E60.17357
G1 X45.22 Y22.686 E64.69033
G1 X45.858 Y22.562 E64.72275
G1 X46.492 Y22.252 E64.75796
G1 X47.024 Y21.79 E64.79312
G1 F6600 E57.99312
G1 Z0.6
G0 F18000 X47.219 Y22.016
G0 X47.224 Y22.078
G0 X47.778 Y21.384
G0 X48.041 Y20.617
G0 X48.098 Y19.81
G0 X47.943 Y19.015
G0 X47.587 Y18.287
G0 X47.055 Y17.676
G0 X46.773 Y17.538
G0 X45.336 Y3.08
G0 X45.296 Y2.682
G0 X45.327 Y2.982
G0 X45.327 Y2.982
G0 X45.261 Y2.689
G1 Z0.3
G1 F6600 E64.89312
G1 F720 X45.945 Y2.531 E64.92814
G1 X46.568 Y2.2 E64.96334
G1 X47.084 Y1.719 E64.99853
G1 X47.458 Y1.122 E65.03368
G1 X47.665 Y0.447 E65.0689
G1 X47.69 Y-0.256 E65.10399
G1 X47.532 Y-0.944 E65.13926
G1 X47.201 Y-1.566 E65.17446
G1 X46.72 Y-2.083 E65.20972
G1 X46.123 Y-2.457 E65.2449
G1 X45.445 Y-2.664 E65.28028
G1 X-45.006 Y-2.679 E69.7929
G1 X-45.565 Y-2.641 E69.8209
G1 X-46.23 Y-2.404 E69.85615
G1 X-46.81 Y-2.003 E69.89134
G1 X-47.267 Y-1.466 E69.92651
G1 X-47.57 Y-0.829 E69.96168
G1 X-47.697 Y-0.135 E69.99684
G1 X-47.64 Y0.567 E70.03192
G1 X-47.404 Y1.232 E70.06711
G1 X-47.003 Y1.812 E70.10226
G1 X-46.465 Y2.269 E70.13744
G1 X-45.828 Y2.571 E70.17257
G1 X-45.142 Y2.697 E70.20732
G1 X45.261 Y2.689 E74.71749
G1 F6600 E67.91749
G1 Z0.6
G0 F18000 X45.327 Y2.982
G0 X45.327 Y3.079
G0 X46.084 Y2.907
G0 X46.801 Y2.527
G0 X47.393 Y1.975
G0 X47.823 Y1.289
G0 X48.061 Y0.513
G0 X48.09 Y-0.294
G0 X47.938 Y-0.959
G0 X47.908 Y-1.083
G0 X47.528 Y-1.799
G0 X46.976 Y-2.392
G0 X46.289 Y-2.822
G0 X45.504 Y-3.061
G0 X45.246 Y-3.063
G0 X45.062 Y-16.903
G0 X45.056 Y-17.303
G0 X45.061 Y-17.006
G0 X45.061 Y-17.006
G0 X45.062 Y-17.305
G1 Z0.3
G1 F6600 E74.81749
G1 F720 X45.699 Y-17.389 E74.84955
G1 X46.351 Y-17.659 E74.88478
G1 X46.911 Y-18.088 E74.92
G1 X47.34 Y-18.648 E74.95524
G1 X47.61 Y-19.3 E74.99049
G1 X47.702 Y-19.999 E75.02571
G1 X47.61 Y-20.698 E75.06094
G1 X47.34 Y-21.35 E75.09619
G1 X46.911 Y-21.91 E75.13142
G1 X46.351 Y-22.339 E75.16665
G1 X45.699 Y-22.609 E75.20188
G1 X45.013 Y-22.699 E75.2364
G1 X-45.242 Y-22.689 E79.73924
G1 X-45.926 Y-22.536 E79.77425
G1 X-46.552 Y-22.21 E79.80948
G1 X-47.071 Y-21.732 E79.84468
G1 X-47.449 Y-21.137 E79.87984
G1 X-47.66 Y-20.465 E79.91495
G1 X-47.69 Y-19.76 E79.9501
G1 X-47.536 Y-19.072 E79.98522
G1 X-47.21 Y-18.446 E80.02036
G1 X-46.732 Y-17.927 E80.05549
G1 X-46.137 Y-17.549 E80.09059
G1 X-45.464 Y-17.337 E80.12573
G1 X-44.781 Y-17.309 E80.15978
G1 X45.062 Y-17.305 E84.64202
G0 F18000 X45.088 Y-16.905
; TYPE:WALL-INNER
G1 F720 X45.804 Y-17 E84.67806
G1 X46.553 Y-17.31 E84.71852
G1 X47.196 Y-17.803 E84.75898
G1 X47.689 Y-18.446 E84.79944
G1 X48 Y-19.195 E84.83995
G1 X48.105 Y-19.999 E84.88045
G1 X48 Y-20.803 E84.92095
G1 X47.689 Y-21.552 E84.96146
G1 X47.196 Y-22.195 E85.00192
G1 X46.553 Y-22.688 E85.04237
G1 X45.804 Y-22.999 E85.08285
G1 X45.039 Y-23.099 E85.12135
G1 X-45.286 Y-23.089 E89.62768
G1 X-46.065 Y-22.915 E89.66754
G1 X-46.784 Y-22.54 E89.70802
G1 X-47.38 Y-21.991 E89.74845
G1 X-47.815 Y-21.307 E89.78888
G1 X-48.057 Y-20.534 E89.82925
G1 X-48.092 Y-19.725 E89.86961
G1 X-47.915 Y-18.933 E89.91003
G1 X-47.54 Y-18.214 E89.95042
G1 X-46.991 Y-17.618 E89.99078
G1 X-46.307 Y-17.183 E90.03115
G1 X-45.533 Y-16.94 E90.07156
G1 X-44.789 Y-16.909 E90.10866
G1 X45.088 Y-16.905 E94.59259
G0 F18000 X45.505 Y-3.064
G0 X45.505 Y-3.064
G1 F720 X-45.019 Y-3.079 E99.10885
G1 X-45.648 Y-3.036 E99.14036
G1 X-46.414 Y-2.763 E99.18096
G1 X-47.081 Y-2.302 E99.22142
G1 X-47.606 Y-1.685 E99.26183
G1 X-47.954 Y-0.953 E99.30224
G1 X-48.1 Y-0.155 E99.34268
G1 X-48.035 Y0.652 E99.38302
G1 X-47.763 Y1.416 E99.42346
G1 X-47.302 Y2.083 E99.46388
G1 X-46.684 Y2.608 E99.5043
G1 X-45.952 Y2.955 E99.54467
G1 X-45.179 Y3.097 E99.58383
G1 X45.306 Y3.089 E104.0981
G1 X46.086 Y2.909 E104.13803
G1 X46.802 Y2.529 E104.17847
G1 X47.395 Y1.976 E104.21893
G1 X47.825 Y1.29 E104.25932
G1 X48.063 Y0.514 E104.29981
G1 X48.091 Y-0.295 E104.3402
G1 X47.91 Y-1.085 E104.38068
G1 X47.53 Y-1.8 E104.42112
G1 X46.977 Y-2.394 E104.46165
G1 X46.29 Y-2.824 E104.50211
G1 X45.505 Y-3.064 E104.54308
G1 F6600 E97.74308
G1 Z0.6
G0 F18000 X45.504 Y-3.062
G0 X45.504 Y-3.061
G0 X46.289 Y-2.822
G0 X46.976 Y-2.392
G0 X47.528 Y-1.799
G0 X47.908 Y-1.083
G0 X47.938 Y-0.959
G0 X48.09 Y-0.294
G0 X48.061 Y0.513
G0 X47.823 Y1.289
G0 X47.393 Y1.975
G0 X46.801 Y2.527
G0 X46.084 Y2.907
G0 X45.308 Y3.081
G0 X44.868 Y16.905
G0 X44.868 Y16.905
G1 Z0.3
G1 F6600 E104.64308
G1 F720 X-45.416 Y16.923 E109.14737
G1 X-46.2 Y17.137 E109.18796
G1 X-46.899 Y17.544 E109.22836
G1 X-47.471 Y18.121 E109.26892
G1 X-47.873 Y18.824 E109.30935
G1 X-48.079 Y19.609 E109.34985
G1 X-48.076 Y20.419 E109.39027
G1 X-47.862 Y21.201 E109.4307
G1 X-47.453 Y21.902 E109.47117
G1 X-46.878 Y22.472 E109.51152
G1 X-46.172 Y22.876 E109.55206
G1 X-45.365 Y23.08 E109.59354
G1 X45.259 Y23.086 E114.11474
G1 X45.986 Y22.945 E114.15169
G1 X46.715 Y22.588 E114.19219
G1 X47.326 Y22.057 E114.23257
G1 X47.78 Y21.385 E114.27303
G1 X48.043 Y20.619 E114.31344
G1 X48.1 Y19.81 E114.3539
G1 X47.945 Y19.014 E114.39436
G1 X47.59 Y18.286 E114.43476
G1 X47.057 Y17.674 E114.47525
G1 X46.385 Y17.22 E114.51571
G1 X45.618 Y16.957 E114.55617
G1 X44.868 Y16.905 E114.59367
G0 F18000 X44.898 Y16.95
G0 X45.617 Y16.959
G0 X46.384 Y17.222
G0 X47.055 Y17.676
G0 X47.587 Y18.287
G0 X47.943 Y19.015
G0 X48.098 Y19.81
G0 X48.041 Y20.617
G0 X47.794 Y21.217
G0 X53.111 Y29.05
G0 X53.111 Y29.05
G1 F720 X53.111 Y29.697 E114.62595
G1 X-53.109 Y29.697 E119.92529
G1 X-53.109 Y29.05 E119.95757
G1 X-53.755 Y29.05 E119.98985
G1 X-53.755 Y-29.049 E122.88842
G1 X-53.109 Y-29.049 E122.9206
G1 X-53.109 Y-29.696 E122.95293
G1 X53.111 Y-29.696 E128.25222
G1 X53.111 Y-29.049 E128.28444
G1 X53.758 Y-29.049 E128.31672
G1 X53.758 Y29.05 E131.21524
G1 X53.111 Y29.05 E131.24752
G0 F18000 X52.971 Y29.199
; TYPE:FILL
G1 F720 X-52.969 Y29.2 E136.53289
G0 F18000 X-53.615 Y28.8
G1 F720 X53.618 Y28.799 E141.88272
G0 F18000 X53.618 Y28.399
G1 F720 X-53.615 Y28.4 E147.23259
G0 F18000 X-53.615 Y28
G1 F720 X53.618 Y27.999 E152.58242
G0 F18000 X53.618 Y27.599
G1 F720 X-53.615 Y27.6 E157.9323
G0 F18000 X-53.615 Y27.2
G1 F720 X53.618 Y27.199 E163.28212
G0 F18000 X53.618 Y26.799
G1 F720 X-53.615 Y26.8 E168.632
G0 F18000 X-53.615 Y26.4
G1 F720 X53.618 Y26.399 E173.98182
G0 F18000 X53.618 Y25.999
G1 F720 X-53.615 Y26 E179.3317
G0 F18000 X-53.615 Y25.6
G1 F720 X53.618 Y25.599 E184.68153
G0 F18000 X53.618 Y25.199
G1 F720 X-53.615 Y25.2 E190.0314
G0 F18000 X-53.615 Y24.8
G1 F720 X53.618 Y24.799 E195.38123
G0 F18000 X53.618 Y24.399
G1 F720 X-53.615 Y24.4 E200.73111
G0 F18000 X-53.615 Y24
G1 F720 X53.618 Y23.999 E206.08093
G0 F18000 X53.618 Y23.599
G1 F720 X-53.615 Y23.6 E211.43081
G0 F18000 X-53.615 Y23.2
G1 F720 X-45.458 Y23.2 E211.83771
G0 F18000 X-46.585 Y22.8
G1 F720 X-53.615 Y22.8 E212.18849
G0 F18000 X-53.615 Y22.4
G1 F720 X-47.149 Y22.4 E212.51103
G0 F18000 X-47.552 Y22
G1 F720 X-53.615 Y22 E212.81356
G0 F18000 X-53.615 Y21.6
G1 F720 X-47.791 Y21.6 E213.10407
G0 F18000 X-48.007 Y21.2
G1 F720 X-53.615 Y21.2 E213.38391
G0 F18000 X-53.615 Y20.8
G1 F720 X-48.116 Y20.8 E213.65821
G0 F18000 X-48.216 Y20.4
G1 F720 X-53.615 Y20.4 E213.92761
G0 F18000 X-53.615 Y20
G1 F720 X-48.218 Y20 E214.19682
G0 F18000 X-48.219 Y19.6
G1 F720 X-53.615 Y19.6 E214.46608
G0 F18000 X-53.615 Y19.2
G1 F720 X-48.117 Y19.2 E214.74032
G0 F18000 X-48.012 Y18.8
G1 F720 X-53.615 Y18.8 E215.01991
G0 F18000 X-53.615 Y18.4
G1 F720 X-47.793 Y18.4 E215.31032
G0 F18000 X-47.549 Y18
G1 F720 X-53.615 Y18 E215.613
G0 F18000 X-53.615 Y17.6
G1 F720 X-47.153 Y17.6 E215.93534
G0 F18000 X-46.588 Y17.2
G1 F720 X-53.615 Y17.2 E216.28597
G0 F18000 X-53.615 Y16.8
G1 F720 X-45.5 Y16.8 E216.69078
G0 F18000 X-53.615 Y16.4
G0 X-53.615 Y16.4
G1 F720 X53.618 Y16.399 E222.04061
G0 F18000 X53.618 Y15.999
G1 F720 X-53.615 Y16 E227.39048
G0 F18000 X-53.615 Y15.6
G1 F720 X53.618 Y15.599 E232.74031
G0 F18000 X53.618 Y15.199
G1 F720 X-53.615 Y15.2 E238.09019
G0 F18000 X-53.615 Y14.8
G1 F720 X53.618 Y14.799 E243.44001
G0 F18000 X53.618 Y14.399
G1 F720 X-53.615 Y14.4 E248.78989
G0 F18000 X-53.615 Y14
G1 F720 X53.618 Y13.999 E254.13971
G0 F18000 X53.618 Y13.599
G1 F720 X-53.615 Y13.6 E259.48959
G0 F18000 X-53.615 Y13.2
G1 F720 X53.618 Y13.199 E264.83942
G0 F18000 X53.618 Y12.799
G1 F720 X-53.615 Y12.8 E270.18929
G0 F18000 X-53.615 Y12.4
G1 F720 X53.618 Y12.399 E275.53912
G0 F18000 X53.618 Y11.999
G1 F720 X-53.615 Y12 E280.889
G0 F18000 X-53.615 Y11.6
G1 F720 X53.618 Y11.599 E286.23882
G0 F18000 X53.618 Y11.199
G1 F720 X-53.615 Y11.2 E291.5887
G0 F18000 X-53.615 Y10.8
G1 F720 X53.618 Y10.799 E296.93852
G0 F18000 X53.618 Y10.399
G1 F720 X-53.615 Y10.4 E302.2884
G0 F18000 X-53.615 Y10
G1 F720 X53.618 Y9.999 E307.63823
G0 F18000 X53.618 Y9.599
G1 F720 X-53.615 Y9.6 E312.9881
G0 F18000 X-53.615 Y9.2
G1 F720 X53.618 Y9.199 E318.33793
G0 F18000 X53.618 Y8.799
G1 F720 X-53.615 Y8.8 E323.6878
G0 F18000 X-53.615 Y8.4
G1 F720 X53.618 Y8.399 E329.03763
G0 F18000 X53.618 Y7.999
G1 F720 X-53.615 Y8 E334.38751
G0 F18000 X-53.615 Y7.6
G1 F720 X53.618 Y7.599 E339.73733
G0 F18000 X53.618 Y7.199
G1 F720 X-53.615 Y7.2 E345.08721
G0 F18000 X-53.615 Y6.8
G1 F720 X53.618 Y6.799 E350.43704
G0 F18000 X53.618 Y6.399
G1 F720 X-53.615 Y6.4 E355.78691
G0 F18000 X-53.615 Y6
G1 F720 X53.618 Y5.999 E361.13674
G0 F18000 X53.618 Y5.599
G1 F720 X-53.615 Y5.6 E366.48661
G0 F18000 X-53.615 Y5.2
G1 F720 X53.618 Y5.199 E371.83644
G0 F18000 X53.618 Y4.799
G1 F720 X-53.615 Y4.8 E377.18632
G0 F18000 X-53.615 Y4.4
G1 F720 X53.618 Y4.399 E382.53614
G0 F18000 X53.618 Y3.999
G1 F720 X-53.615 Y4 E387.88602
G0 F18000 X-53.615 Y3.6
G1 F720 X53.618 Y3.599 E393.23584
G0 F18000 X53.618 Y3.199
G1 F720 X45.45 Y3.199 E393.64335
G0 F18000 X46.589 Y2.799
G1 F720 X53.618 Y2.799 E393.99403
G0 F18000 X53.618 Y2.399
G1 F720 X47.145 Y2.399 E394.31696
G0 F18000 X47.545 Y1.999
G1 F720 X53.618 Y1.999 E394.61995
G0 F18000 X53.618 Y1.599
G1 F720 X47.796 Y1.599 E394.91041
G0 F18000 X47.999 Y1.199
G1 F720 X53.618 Y1.199 E395.19074
G0 F18000 X53.618 Y0.799
G1 F720 X48.122 Y0.799 E395.46494
G0 F18000 X48.207 Y0.399
G1 F720 X53.618 Y0.399 E395.73489
G0 F18000 X53.618 Y0
G1 F720 X48.221 Y0 E396.00415
G0 F18000 X48.211 Y-0.4
G1 F720 X53.618 Y-0.4 E396.27391
G0 F18000 X53.618 Y-0.8
G1 F720 X48.119 Y-0.8 E396.54825
G0 F18000 X48.006 Y-1.2
G1 F720 X53.618 Y-1.2 E396.82824
G0 F18000 X53.618 Y-1.6
G1 F720 X47.794 Y-1.6 E397.1188
G0 F18000 X47.533 Y-2
G1 F720 X53.618 Y-2 E397.42238
G0 F18000 X53.618 Y-2.4
G1 F720 X47.162 Y-2.4 E397.74447
G0 F18000 X46.591 Y-2.8
G1 F720 X53.618 Y-2.8 E398.09505
G0 F18000 X53.618 Y-3.2
G1 F720 X45.537 Y-3.2 E398.49821
G0 F18000 X53.618 Y-3.6
G1 F720 X-53.615 Y-3.599 E403.84809
G0 F18000 X-53.615 Y-3.999
G1 F720 X53.618 Y-4 E409.19792
G0 F18000 X53.618 Y-4.4
G1 F720 X-53.615 Y-4.399 E414.54779
G0 F18000 X-53.615 Y-4.799
G1 F720 X53.618 Y-4.8 E419.89762
G0 F18000 X53.618 Y-5.2
G1 F720 X-53.615 Y-5.199 E425.24749
G0 F18000 X-53.615 Y-5.599
G1 F720 X53.618 Y-5.6 E430.59732
G0 F18000 X53.618 Y-6
G1 F720 X-53.615 Y-5.999 E435.9472
G0 F18000 X-53.615 Y-6.399
G1 F720 X53.618 Y-6.4 E441.29702
G0 F18000 X53.618 Y-6.8
G1 F720 X-53.615 Y-6.799 E446.6469
G0 F18000 X-53.615 Y-7.199
G1 F720 X53.618 Y-7.2 E451.99672
G0 F18000 X53.618 Y-7.6
G1 F720 X-53.615 Y-7.599 E457.3466
G0 F18000 X-53.615 Y-7.999
G1 F720 X53.618 Y-8 E462.69643
G0 F18000 X53.618 Y-8.4
G1 F720 X-53.615 Y-8.399 E468.0463
G0 F18000 X-53.615 Y-8.799
G1 F720 X53.618 Y-8.8 E473.39613
G0 F18000 X53.618 Y-9.2
G1 F720 X-53.615 Y-9.199 E478.74601
G0 F18000 X-53.615 Y-9.599
G1 F720 X53.618 Y-9.6 E484.09583
G0 F18000 X53.618 Y-10
G1 F720 X-53.615 Y-9.999 E489.44571
G0 F18000 X-53.615 Y-10.399
G1 F720 X53.618 Y-10.4 E494.79553
G0 F18000 X53.618 Y-10.8
G1 F720 X-53.615 Y-10.799 E500.14541
G0 F18000 X-53.615 Y-11.199
G1 F720 X53.618 Y-11.2 E505.49524
G0 F18000 X53.618 Y-11.6
G1 F720 X-53.615 Y-11.599 E510.84511
G0 F18000 X-53.615 Y-11.999
G1 F720 X53.618 Y-12 E516.19494
G0 F18000 X53.618 Y-12.4
G1 F720 X-53.615 Y-12.399 E521.54481
G0 F18000 X-53.615 Y-12.799
G1 F720 X53.618 Y-12.8 E526.89464
G0 F18000 X53.618 Y-13.2
G1 F720 X-53.615 Y-13.199 E532.24452
G0 F18000 X-53.615 Y-13.599
G1 F720 X53.618 Y-13.6 E537.59434
G0 F18000 X53.618 Y-14
G1 F720 X-53.615 Y-13.999 E542.94422
G0 F18000 X-53.615 Y-14.399
G1 F720 X53.618 Y-14.4 E548.29405
G0 F18000 X53.618 Y-14.8
G1 F720 X-53.615 Y-14.799 E553.64392
G0 F18000 X-53.615 Y-15.199
G1 F720 X53.618 Y-15.2 E558.99375
G0 F18000 X53.618 Y-15.6
G1 F720 X-53.615 Y-15.599 E564.34362
G0 F18000 X-53.615 Y-15.999
G1 F720 X53.618 Y-16 E569.69345
G0 F18000 X53.618 Y-16.4
G1 F720 X-53.615 Y-16.399 E575.04333
G0 F18000 X-53.615 Y-16.799
G1 F720 X-45.535 Y-16.799 E575.44639
G0 F18000 X-46.594 Y-17.199
G1 F720 X-53.615 Y-17.199 E575.79672
G0 F18000 X-53.615 Y-17.599
G1 F720 X-47.164 Y-17.599 E576.11851
G0 F18000 X-47.533 Y-17.999
G1 F720 X-53.615 Y-17.999 E576.42199
G0 F18000 X-53.615 Y-18.399
G1 F720 X-47.795 Y-18.399 E576.7123
G0 F18000 X-48.003 Y-18.799
G1 F720 X-53.615 Y-18.799 E576.99234
G0 F18000 X-53.615 Y-19.199
G1 F720 X-48.117 Y-19.199 E577.26658
G0 F18000 X-48.207 Y-19.599
G1 F720 X-53.615 Y-19.599 E577.53644
G0 F18000 X-53.615 Y-19.999
G1 F720 X-48.22 Y-19.999 E577.80555
G0 F18000 X-48.203 Y-20.399
G1 F720 X-53.615 Y-20.399 E578.0756
G0 F18000 X-53.615 Y-20.799
G1 F720 X-48.121 Y-20.799 E578.34965
G0 F18000 X-47.996 Y-21.199
G1 F720 X-53.615 Y-21.199 E578.63003
G0 F18000 X-53.615 Y-21.599
G1 F720 X-47.794 Y-21.599 E578.92039
G0 F18000 X-47.54 Y-21.999
G1 F720 X-53.615 Y-21.999 E579.22353
G0 F18000 X-53.615 Y-22.399
G1 F720 X-47.142 Y-22.399 E579.54642
G0 F18000 X-46.588 Y-22.799
G1 F720 X-53.615 Y-22.799 E579.89704
G0 F18000 X-53.615 Y-23.199
G1 F720 X-45.428 Y-23.199 E580.30545
G0 F18000 X-53.615 Y-23.599
G1 F720 X53.618 Y-23.6 E585.65527
G0 F18000 X53.618 Y-24
G1 F720 X-53.615 Y-23.999 E591.00515
G0 F18000 X-53.615 Y-24.399
G1 F720 X53.618 Y-24.4 E596.35497
G0 F18000 X53.618 Y-24.8
G1 F720 X-53.615 Y-24.799 E601.70485
G0 F18000 X-53.615 Y-25.199
G1 F720 X53.618 Y-25.2 E607.05468
G0 F18000 X53.618 Y-25.6
G1 F720 X-53.615 Y-25.599 E612.40455
G0 F18000 X-53.615 Y-25.999
G1 F720 X53.618 Y-26 E617.75438
G0 F18000 X53.618 Y-26.4
G1 F720 X-53.615 Y-26.399 E623.10425
G0 F18000 X-53.615 Y-26.799
G1 F720 X53.618 Y-26.8 E628.45408
G0 F18000 X53.618 Y-27.2
G1 F720 X-53.615 Y-27.199 E633.80396
G0 F18000 X-53.615 Y-27.599
G1 F720 X53.618 Y-27.6 E639.15378
G0 F18000 X53.618 Y-28
G1 F720 X-53.615 Y-27.999 E644.50366
G0 F18000 X-53.615 Y-28.399
G1 F720 X53.618 Y-28.4 E649.85349
G0 F18000 X53.618 Y-28.8
G1 F720 X-53.615 Y-28.799 E655.20336
G0 F18000 X-52.969 Y-29.199
G1 F720 X52.971 Y-29.2 E660.48868
G0 F18000 X53.618 Y-23.2
G0 X53.618 Y-23.2
G1 F720 X45.343 Y-23.2 E660.90152
G0 F18000 X46.636 Y-22.8
G1 F720 X53.618 Y-22.8 E661.24985
G0 F18000 X53.618 Y-22.4
G1 F720 X47.158 Y-22.4 E661.57214
G0 F18000 X47.521 Y-22
G1 F720 X53.618 Y-22 E661.87633
G0 F18000 X53.618 Y-21.6
G1 F720 X47.821 Y-21.6 E662.16554
G0 F18000 X47.987 Y-21.2
G1 F720 X53.618 Y-21.2 E662.44647
G0 F18000 X53.618 Y-20.8
G1 F720 X48.142 Y-20.8 E662.71967
G0 F18000 X48.194 Y-20.4
G1 F720 X53.618 Y-20.4 E662.99027
G0 F18000 X53.618 Y-20
G1 F720 X48.247 Y-20 E663.25823
G0 F18000 X48.195 Y-19.6
G1 F720 X53.618 Y-19.6 E663.52879
G0 F18000 X53.618 Y-19.2
G1 F720 X48.143 Y-19.2 E663.80194
G0 F18000 X47.988 Y-18.8
G1 F720 X53.618 Y-18.8 E664.08282
G0 F18000 X53.618 Y-18.4
G1 F720 X47.822 Y-18.4 E664.37198
G0 F18000 X47.524 Y-18
G1 F720 X53.618 Y-18 E664.67601
G0 F18000 X53.618 Y-17.6
G1 F720 X47.163 Y-17.6 E664.99806
G0 F18000 X46.641 Y-17.2
G1 F720 X53.618 Y-17.2 E665.34614
G0 F18000 X53.618 Y-16.8
G1 F720 X45.372 Y-16.8 E665.75753
G1 F6600 E658.95753
G1 Z0.6
G0 F18000 X45.375 Y-3.063
G0 X45.504 Y-3.061
G0 X46.289 Y-2.822
G0 X46.976 Y-2.392
G0 X47.528 Y-1.799
G0 X47.908 Y-1.083
G0 X47.938 Y-0.959
G0 X48.09 Y-0.294
G0 X48.061 Y0.513
G0 X47.823 Y1.289
G0 X47.393 Y1.975
G0 X46.801 Y2.527
G0 X46.084 Y2.907
G0 X45.378 Y3.067
G0 X45.383 Y16.799
G0 X45.383 Y16.799
G1 Z0.3
G1 F6600 E665.85753
G1 F720 X53.618 Y16.799 E666.26838
G0 F18000 X53.618 Y17.199
G1 F720 X46.605 Y17.199 E666.61826
G0 F18000 X47.179 Y17.599
G1 F720 X53.618 Y17.599 E666.9395
G0 F18000 X53.618 Y17.999
G1 F720 X47.527 Y17.999 E667.24338
G0 F18000 X47.801 Y18.399
G1 F720 X53.618 Y18.399 E667.5336
G0 F18000 X53.618 Y18.799
G1 F720 X47.996 Y18.799 E667.81408
G0 F18000 X48.124 Y19.199
G1 F720 X53.618 Y19.199 E668.08817
G0 F18000 X53.618 Y19.599
G1 F720 X48.201 Y19.599 E668.35843
G0 F18000 X48.226 Y19.999
G1 F720 X53.618 Y19.999 E668.62744
G0 F18000 X53.618 Y20.399
G1 F720 X48.199 Y20.399 E668.89779
G0 F18000 X48.129 Y20.799
G1 F720 X53.618 Y20.799 E669.17164
G0 F18000 X53.618 Y21.199
G1 F720 X47.992 Y21.199 E669.45232
G0 F18000 X47.803 Y21.599
G1 F720 X53.618 Y21.599 E669.74243
G0 F18000 X53.618 Y21.999
G1 F720 X47.533 Y21.999 E670.04602
G0 F18000 X47.145 Y22.399
G1 F720 X53.618 Y22.399 E670.36896
G0 F18000 X53.618 Y22.799
G1 F720 X46.6 Y22.799 E670.71908
G0 F18000 X45.406 Y23.199
G1 F720 X53.618 Y23.199 E671.12878
G1 F6600 E664.32878
G1 Z0.6
G0 F18000 X47.385 Y21.939
G0 X47.778 Y21.384
G0 X48.041 Y20.617
G0 X48.098 Y19.81
G0 X47.943 Y19.015
G0 X47.587 Y18.287
G0 X47.055 Y17.676
G0 X46.384 Y17.222
G0 X45.617 Y16.959
G0 X44.867 Y16.906
G0 X23.273 Y17.069
G0 X-45.387 Y3.2
G0 X-45.387 Y3.2
G1 Z0.3
G1 F6600 E671.22878
G1 F720 X-53.615 Y3.2 E671.63933
G0 F18000 X-53.615 Y2.8
G1 F720 X-46.603 Y2.8 E671.98911
G0 F18000 X-47.143 Y2.4
G1 F720 X-53.615 Y2.4 E672.31205
G0 F18000 X-53.615 Y2
G1 F720 X-47.529 Y2 E672.61563
G0 F18000 X-47.806 Y1.6
G1 F720 X-53.615 Y1.6 E672.90549
G0 F18000 X-53.615 Y1.2
G1 F720 X-47.988 Y1.2 E673.18618
G0 F18000 X-48.13 Y0.8
G1 F720 X-53.615 Y0.8 E673.45987
G0 F18000 X-53.615 Y0.4
G1 F720 X-48.195 Y0.4 E673.73023
G0 F18000 X-48.227 Y0
G1 F720 X-53.615 Y0 E673.99909
G0 F18000 X-53.615 Y-0.399
G1 F720 X-48.197 Y-0.399 E674.26934
G0 F18000 X-48.124 Y-0.799
G1 F720 X-53.615 Y-0.799 E674.54334
G0 F18000 X-53.615 Y-1.199
G1 F720 X-47.992 Y-1.199 E674.82382
G0 F18000 X-47.801 Y-1.599
G1 F720 X-53.615 Y-1.599 E675.11393
G0 F18000 X-53.615 Y-1.999
G1 F720 X-47.522 Y-1.999 E675.41786
G0 F18000 X-47.182 Y-2.399
G1 F720 X-53.615 Y-2.399 E675.73886
G0 F18000 X-53.615 Y-2.799
G1 F720 X-46.608 Y-2.799 E676.08839
G0 F18000 X-45.299 Y-3.199
G1 F720 X-53.615 Y-3.199 E676.50332
; LAYER:1
G1 F6600 E669.70332
G1 Z0.6
G0 F18000 X54.35 Y-30.502 Z0.55
; TYPE:SUPPORT
G1 Z0.55
G1 F6600 E676.60332
G1 F2400 X54.563 Y-30.288 E676.62211
G0 F18000 X55.039 Y30.29
G1 F2400 X55.485 Y30.737 E676.66149
G0 F18000 X54.006 Y28.9
; TYPE:WALL-INNER
G1 F2400 X52.961 Y28.9 E676.7158
G1 X52.961 Y29.945 E676.7701
G1 X-52.959 Y29.945 E682.27466
G1 X-52.959 Y28.9 E682.32896
G1 X-54.004 Y28.9 E682.38332
G1 X-54.004 Y-28.899 E685.38708
G1 X-52.959 Y-28.899 E685.44133
G1 X-52.959 Y-29.944 E685.49569
G1 X52.961 Y-29.944 E691.00019
G1 X52.961 Y-28.899 E691.05445
G1 X54.006 Y-28.899 E691.10876
G1 X54.006 Y28.9 E694.11246
G0 F18000 X47.44 Y22.157
G0 X47.44 Y22.157
G1 F2400 X47.915 Y21.452 E694.15664
G1 X48.191 Y20.649 E694.20076
G1 X48.251 Y19.801 E694.24494
G1 X48.088 Y18.966 E694.28916
G1 X47.716 Y18.202 E694.33332
G1 X47.157 Y17.56 E694.37756
G1 X46.452 Y17.085 E694.42173
G1 X45.648 Y16.809 E694.46591
G1 X44.873 Y16.755 E694.50628
G1 X-45.437 Y16.773 E699.1996
G1 X-46.258 Y16.997 E699.24388
G1 X-46.992 Y17.425 E699.28808
G1 X-47.591 Y18.029 E699.33232
G1 X-48.013 Y18.767 E699.37653
G1 X-48.229 Y19.59 E699.42076
G1 X-48.226 Y20.439 E699.46488
G1 X-48.002 Y21.26 E699.5091
G1 X-47.573 Y21.994 E699.55325
G1 X-46.97 Y22.592 E699.59735
G1 X-46.231 Y23.014 E699.64153
G1 X-45.411 Y23.23 E699.68555
G1 X45.225 Y23.245 E704.39576
G1 X46.034 Y23.088 E704.43858
G1 X46.799 Y22.715 E704.48281
G1 X47.44 Y22.157 E704.52698
G0 F18000 X47.419 Y21.971
G0 X47.868 Y21.429
G0 X48.14 Y20.638
G0 X48.198 Y19.804
G0 X48.038 Y18.983
G0 X47.671 Y18.231
G0 X47.122 Y17.6
G0 X46.921 Y17.519
G0 X45.324 Y3.239
G0 X45.324 Y3.239
G1 F2400 X46.139 Y3.051 E704.57045
G1 X46.89 Y2.652 E704.61464
G1 X47.511 Y2.073 E704.65877
G1 X47.963 Y1.352 E704.70299
G1 X48.212 Y0.539 E704.74718
G1 X48.242 Y-0.309 E704.79127
G1 X48.052 Y-1.137 E704.83547
G1 X47.653 Y-1.888 E704.87971
G1 X47.074 Y-2.51 E704.92392
G1 X46.353 Y-2.961 E704.96814
G1 X45.527 Y-3.214 E705.01305
G1 X-45.025 Y-3.229 E709.71894
G1 X-45.679 Y-3.184 E709.75306
G1 X-46.483 Y-2.897 E709.79746
G1 X-47.182 Y-2.414 E709.84162
G1 X-47.733 Y-1.767 E709.88578
G1 X-48.098 Y-1 E709.9299
G1 X-48.252 Y-0.163 E709.97409
G1 X-48.183 Y0.684 E710.0182
G1 X-47.897 Y1.485 E710.06238
G1 X-47.414 Y2.184 E710.1065
G1 X-46.766 Y2.736 E710.1507
G1 X-45.998 Y3.099 E710.1948
G1 X-45.192 Y3.247 E710.23734
G1 X45.324 Y3.239 E714.94131
G1 F6600 E708.14131
G1 Z0.85
G0 F18000 X45.323 Y3.182
G0 X46.119 Y3.001
G0 X46.86 Y2.609
G0 X47.471 Y2.039
G0 X47.916 Y1.331
G0 X48.16 Y0.529
G0 X48.19 Y-0.304
G0 X48.056 Y-0.894
G0 X48.003 Y-1.118
G0 X47.61 Y-1.858
G0 X47.04 Y-2.47
G0 X46.33 Y-2.914
G0 X45.519 Y-3.161
G0 X45.235 Y-3.162
G0 X45.049 Y-16.749
G0 X45.049 Y-16.749
G1 Z0.55
G1 F6600 E715.04131
G1 F2400 X45.843 Y-16.853 E715.08293
G1 X46.628 Y-17.179 E715.12713
G1 X47.303 Y-17.696 E715.17134
G1 X47.82 Y-18.371 E715.21557
G1 X48.146 Y-19.156 E715.25979
G1 X48.256 Y-19.999 E715.30402
G1 X48.146 Y-20.842 E715.34826
G1 X47.82 Y-21.627 E715.39248
G1 X47.303 Y-22.302 E715.43671
G1 X46.628 Y-22.819 E715.48092
G1 X45.843 Y-23.145 E715.52512
G1 X45.049 Y-23.249 E715.56674
G1 X-45.303 Y-23.239 E720.26224
G1 X-46.116 Y-23.058 E720.30557
G1 X-46.871 Y-22.664 E720.34985
G1 X-47.496 Y-22.088 E720.39402
G1 X-47.952 Y-21.371 E720.43816
G1 X-48.206 Y-20.56 E720.48229
G1 X-48.243 Y-19.711 E720.52641
G1 X-48.058 Y-18.882 E720.57049
G1 X-47.664 Y-18.127 E720.61468
G1 X-47.088 Y-17.502 E720.65877
G1 X-46.371 Y-17.046 E720.70286
G1 X-45.559 Y-16.791 E720.74703
G1 X-44.793 Y-16.759 E720.78681
G1 X45.049 Y-16.749 E725.45576
G0 F18000 X45.016 Y-17.249
; TYPE:WALL-OUTER
G1 F2100 X45.712 Y-17.34 E725.49224
G1 X46.376 Y-17.616 E725.52963
G1 X46.946 Y-18.053 E725.56699
G1 X47.383 Y-18.623 E725.60436
G1 X47.659 Y-19.287 E725.64178
G1 X47.752 Y-19.999 E725.67914
G1 X47.659 Y-20.711 E725.71651
G1 X47.383 Y-21.375 E725.75393
G1 X46.946 Y-21.945 E725.7913
G1 X46.376 Y-22.382 E725.82865
G1 X45.712 Y-22.658 E725.86604
G1 X45.016 Y-22.749 E725.90253
G1 X-45.248 Y-22.739 E730.59345
G1 X-45.943 Y-22.584 E730.6305
G1 X-46.581 Y-22.251 E730.66792
G1 X-47.109 Y-21.765 E730.70522
G1 X-47.495 Y-21.158 E730.74259
G1 X-47.709 Y-20.473 E730.77985
G1 X-47.74 Y-19.756 E730.8171
G1 X-47.584 Y-19.055 E730.85436
G1 X-47.251 Y-18.417 E730.89169
G1 X-46.765 Y-17.889 E730.92891
G1 X-46.158 Y-17.503 E730.96622
G1 X-45.472 Y-17.288 E731.00351
G1 X-44.782 Y-17.259 E731.03935
G1 X45.016 Y-17.249 E735.70601
G0 F18000 X45.015 Y-16.9
G0 X45.549 Y-3.164
G0 X45.564 Y-2.764
G0 X45.554 Y-3.048
G0 X45.554 Y-3.048
G0 X45.452 Y-2.714
G1 F2100 X-45.008 Y-2.729 E740.40712
G1 X-45.576 Y-2.69 E740.43675
G1 X-46.253 Y-2.448 E740.47415
G1 X-46.844 Y-2.04 E740.51148
G1 X-47.31 Y-1.493 E740.54882
G1 X-47.618 Y-0.845 E740.58608
G1 X-47.748 Y-0.138 E740.6234
G1 X-47.69 Y0.578 E740.66068
G1 X-47.448 Y1.255 E740.69802
G1 X-47.04 Y1.846 E740.73531
G1 X-46.493 Y2.312 E740.77262
G1 X-45.843 Y2.619 E740.80993
G1 X-45.147 Y2.747 E740.84666
G1 X45.267 Y2.739 E745.54533
G1 X45.962 Y2.578 E745.5824
G1 X46.597 Y2.241 E745.61976
G1 X47.122 Y1.752 E745.65705
G1 X47.504 Y1.143 E745.69441
G1 X47.715 Y0.456 E745.73175
G1 X47.74 Y-0.261 E745.76904
G1 X47.579 Y-0.961 E745.80642
G1 X47.242 Y-1.595 E745.84378
G1 X46.753 Y-2.121 E745.88114
G1 X46.144 Y-2.502 E745.9185
G1 X45.452 Y-2.714 E745.95613
G1 F6600 E739.15613
G1 Z0.85
G0 F18000 X45.554 Y-3.048
G0 X45.557 Y-3.162
G0 X45.519 Y-3.161
G0 X46.33 Y-2.914
G0 X47.04 Y-2.47
G0 X47.61 Y-1.858
G0 X48.003 Y-1.118
G0 X48.056 Y-0.894
G0 X48.19 Y-0.304
G0 X48.16 Y0.529
G0 X47.916 Y1.331
G0 X47.471 Y2.039
G0 X46.86 Y2.609
G0 X46.119 Y3.001
G0 X45.343 Y3.176
G0 X44.883 Y16.805
G0 X44.869 Y17.205
G0 X44.88 Y16.907
G0 X44.88 Y16.907
G0 X44.856 Y17.255
G1 Z0.55
G1 F6600 E746.05613
G1 F2100 X-45.37 Y17.273 E750.74508
G1 X-46.063 Y17.462 E750.78246
G1 X-46.683 Y17.824 E750.81981
G1 X-47.19 Y18.334 E750.85722
G1 X-47.546 Y18.958 E750.89458
G1 X-47.729 Y19.653 E750.93195
G1 X-47.726 Y20.371 E750.96926
G1 X-47.537 Y21.065 E751.00663
G1 X-47.174 Y21.685 E751.04394
G1 X-46.665 Y22.191 E751.0812
G1 X-46.04 Y22.547 E751.11854
G1 X-45.346 Y22.73 E751.15578
G1 X45.177 Y22.745 E755.86012
G1 X45.874 Y22.61 E755.89701
G1 X46.52 Y22.294 E755.93439
G1 X47.062 Y21.823 E755.9717
G1 X47.464 Y21.227 E756.00906
G1 X47.697 Y20.548 E756.04637
G1 X47.748 Y19.832 E756.08368
G1 X47.61 Y19.126 E756.12106
G1 X47.295 Y18.481 E756.15836
G1 X46.823 Y17.938 E756.19575
G1 X46.227 Y17.536 E756.23311
G1 X45.548 Y17.303 E756.27042
G1 X44.856 Y17.255 E756.30647
G0 F18000 X44.88 Y16.907
G0 X44.837 Y16.847
G0 X45.637 Y16.86
G0 X46.429 Y17.132
G0 X47.122 Y17.6
G0 X47.671 Y18.231
G0 X48.038 Y18.983
G0 X48.198 Y19.804
G0 X48.14 Y20.638
G0 X47.909 Y21.195
G0 X53.461 Y29.05
G0 X53.461 Y29.05
G0 X53.461 Y29.4
G1 F2100 X53.461 Y30.445 E756.36078
G1 X-53.459 Y30.445 E761.9173
G1 X-53.459 Y29.4 E761.97161
G1 X-54.504 Y29.4 E762.02597
G1 X-54.504 Y-29.399 E765.08169
G1 X-53.459 Y-29.399 E765.13594
G1 X-53.459 Y-30.444 E765.1903
G1 X53.461 Y-30.444 E770.74677
G1 X53.461 Y-29.399 E770.80103
G1 X54.506 Y-29.399 E770.85534
G1 X54.506 Y29.4 E773.91101
G1 X53.461 Y29.4 E773.96531
G0 F18000 X53.5 Y28.709
; TYPE:FILL
G1 F2400 X53.5 Y-28.708 E776.94922
G0 F18000 X53 Y-28.708
G1 F2400 X53 Y28.709 E779.93307
G0 F18000 X52.5 Y29.754
G1 F2400 X52.499 Y-29.753 E783.02558
G0 F18000 X51.999 Y-29.753
G1 F2400 X52 Y29.754 E786.11805
G0 F18000 X51.5 Y29.754
G1 F2400 X51.499 Y-29.753 E789.21057
G0 F18000 X50.999 Y-29.753
G1 F2400 X51 Y29.754 E792.30303
G0 F18000 X50.5 Y29.754
G1 F2400 X50.499 Y-29.753 E795.39555
G0 F18000 X49.999 Y-29.753
G1 F2400 X50 Y29.754 E798.48801
G0 F18000 X49.5 Y29.754
G1 F2400 X49.499 Y-29.753 E801.58053
G0 F18000 X48.999 Y-29.753
G1 F2400 X49 Y29.754 E804.67299
G0 F18000 X48.5 Y29.754
G1 F2400 X48.499 Y-29.753 E807.76551
G0 F18000 X47.999 Y-29.753
G1 F2400 X48 Y-21.69 E808.18449
G0 F18000 X47.5 Y-22.355
G1 F2400 X47.499 Y-29.753 E808.569
G0 F18000 X46.999 Y-29.753
G1 F2400 X47 Y-22.772 E808.93175
G0 F18000 X46.5 Y-23.078
G1 F2400 X46.499 Y-29.753 E809.27869
G0 F18000 X45.999 Y-29.753
G1 F2400 X46 Y-23.285 E809.61477
G0 F18000 X45.5 Y-23.381
G1 F2400 X45.499 Y-29.753 E809.94597
G0 F18000 X44.999 Y-29.753
G1 F2400 X45 Y-23.438 E810.27411
G0 F18000 X44.5 Y-23.438
G1 F2400 X44.499 Y-29.753 E810.60234
G0 F18000 X43.999 Y-29.753
G1 F2400 X44 Y-23.438 E810.93047
G0 F18000 X43.5 Y-23.438
G1 F2400 X43.499 Y-29.753 E811.25871
G0 F18000 X42.999 Y-29.753
G1 F2400 X43 Y-23.438 E811.58684
G0 F18000 X42.5 Y-23.438
G1 F2400 X42.499 Y-29.753 E811.91508
G0 F18000 X41.999 Y-29.753
G1 F2400 X42 Y-23.438 E812.24321
G0 F18000 X41.5 Y-23.438
G1 F2400 X41.499 Y-29.753 E812.57144
G0 F18000 X40.999 Y-29.753
G1 F2400 X41 Y-23.438 E812.89958
G0 F18000 X40.5 Y-23.438
G1 F2400 X40.499 Y-29.753 E813.22781
G0 F18000 X39.999 Y-29.753
G1 F2400 X40 Y-23.437 E813.556
G0 F18000 X39.5 Y-23.437
G1 F2400 X39.499 Y-29.753 E813.88428
G0 F18000 X38.999 Y-29.753
G1 F2400 X39 Y-23.437 E814.21247
G0 F18000 X38.5 Y-23.437
G1 F2400 X38.499 Y-29.753 E814.54076
G0 F18000 X37.999 Y-29.753
G1 F2400 X38 Y-23.437 E814.86894
G0 F18000 X37.5 Y-23.437
G1 F2400 X37.499 Y-29.753 E815.19723
G0 F18000 X36.999 Y-29.753
G1 F2400 X37 Y-23.437 E815.52541
G0 F18000 X36.5 Y-23.437
G1 F2400 X36.499 Y-29.753 E815.8537
G0 F18000 X35.999 Y-29.753
G1 F2400 X36 Y-23.437 E816.18188
G0 F18000 X35.5 Y-23.437
G1 F2400 X35.499 Y-29.753 E816.51017
G0 F18000 X34.999 Y-29.753
G1 F2400 X35 Y-23.437 E816.83836
G0 F18000 X34.5 Y-23.437
G1 F2400 X34.499 Y-29.753 E817.16664
G0 F18000 X33.999 Y-29.753
G1 F2400 X34 Y-23.437 E817.49483
G0 F18000 X33.5 Y-23.437
G1 F2400 X33.499 Y-29.753 E817.82312
G0 F18000 X32.999 Y-29.753
G1 F2400 X33 Y-23.437 E818.1513
G0 F18000 X32.499 Y-23.437
G1 F2400 X32.499 Y-29.753 E818.47959
G0 F18000 X31.999 Y-29.753
G1 F2400 X31.999 Y-23.437 E818.80777
G0 F18000 X31.499 Y-23.437
G1 F2400 X31.499 Y-29.753 E819.13606
G0 F18000 X30.999 Y-29.753
G1 F2400 X30.999 Y-23.437 E819.46424
G0 F18000 X30.499 Y-23.437
G1 F2400 X30.499 Y-29.753 E819.79253
G0 F18000 X29.999 Y-29.753
G1 F2400 X29.999 Y-23.436 E820.12077
G0 F18000 X29.499 Y-23.436
G1 F2400 X29.499 Y-29.753 E820.44911
G0 F18000 X28.999 Y-29.753
G1 F2400 X28.999 Y-23.436 E820.77734
G0 F18000 X28.499 Y-23.436
G1 F2400 X28.499 Y-29.753 E821.10568
G0 F18000 X27.999 Y-29.753
G1 F2400 X27.999 Y-23.436 E821.43392
G0 F18000 X27.499 Y-23.436
G1 F2400 X27.499 Y-29.753 E821.76226
G0 F18000 X26.999 Y-29.753
G1 F2400 X26.999 Y-23.436 E822.0905
G0 F18000 X26.499 Y-23.436
G1 F2400 X26.499 Y-29.753 E822.41884
G0 F18000 X25.999 Y-29.753
G1 F2400 X25.999 Y-23.436 E822.74707
G0 F18000 X25.499 Y-23.436
G1 F2400 X25.499 Y-29.753 E823.07541
G0 F18000 X24.999 Y-29.753
G1 F2400 X24.999 Y-23.436 E823.40365
G0 F18000 X24.499 Y-23.436
G1 F2400 X24.499 Y-29.753 E823.73199
G0 F18000 X23.999 Y-29.753
G1 F2400 X23.999 Y-23.436 E824.06022
G0 F18000 X23.499 Y-23.436
G1 F2400 X23.499 Y-29.753 E824.38856
G0 F18000 X22.999 Y-29.753
G1 F2400 X22.999 Y-23.436 E824.7168
G0 F18000 X22.499 Y-23.436
G1 F2400 X22.499 Y-29.753 E825.04514
G0 F18000 X21.999 Y-29.753
G1 F2400 X21.999 Y-23.436 E825.37337
G0 F18000 X21.499 Y-23.436
G1 F2400 X21.499 Y-29.753 E825.70171
G0 F18000 X20.999 Y-29.753
G1 F2400 X20.999 Y-23.436 E826.02995
G0 F18000 X20.499 Y-23.436
G1 F2400 X20.499 Y-29.753 E826.35829
G0 F18000 X19.999 Y-29.753
G1 F2400 X19.999 Y-23.436 E826.68653
G0 F18000 X19.499 Y-23.435
G1 F2400 X19.499 Y-29.753 E827.01492
G0 F18000 X18.999 Y-29.753
G1 F2400 X18.999 Y-23.435 E827.34321
G0 F18000 X18.499 Y-23.435
G1 F2400 X18.499 Y-29.753 E827.6716
G0 F18000 X17.999 Y-29.753
G1 F2400 X17.999 Y-23.435 E827.99989
G0 F18000 X17.499 Y-23.435
G1 F2400 X17.499 Y-29.753 E828.32828
G0 F18000 X16.999 Y-29.753
G1 F2400 X16.999 Y-23.435 E828.65657
G0 F18000 X16.499 Y-23.435
G1 F2400 X16.499 Y-29.753 E828.98496
G0 F18000 X15.999 Y-29.753
G1 F2400 X15.999 Y-23.435 E829.31325
G0 F18000 X15.499 Y-23.435
G1 F2400 X15.499 Y-29.753 E829.64164
G0 F18000 X14.999 Y-29.753
G1 F2400 X14.999 Y-23.435 E829.96993
G0 F18000 X14.499 Y-23.435
G1 F2400 X14.499 Y-29.753 E830.29832
G0 F18000 X13.999 Y-29.753
G1 F2400 X13.999 Y-23.435 E830.62661
G0 F18000 X13.499 Y-23.435
G1 F2400 X13.499 Y-29.753 E830.955
G0 F18000 X12.999 Y-29.753
G1 F2400 X12.999 Y-23.435 E831.28329
G0 F18000 X12.499 Y-23.435
G1 F2400 X12.499 Y-29.753 E831.61168
G0 F18000 X11.999 Y-29.753
G1 F2400 X11.999 Y-23.435 E831.93997
G0 F18000 X11.499 Y-23.435
G1 F2400 X11.499 Y-29.753 E832.26836
G0 F18000 X10.999 Y-29.753
G1 F2400 X10.999 Y-23.435 E832.59664
G0 F18000 X10.499 Y-23.435
G1 F2400 X10.499 Y-29.753 E832.92504
G0 F18000 X9.999 Y-29.753
G1 F2400 X9.999 Y-23.435 E833.25332
G0 F18000 X9.499 Y-23.434
G1 F2400 X9.499 Y-29.753 E833.58177
G0 F18000 X8.999 Y-29.753
G1 F2400 X8.999 Y-23.434 E833.91011
G0 F18000 X8.499 Y-23.434
G1 F2400 X8.499 Y-29.753 E834.23855
G0 F18000 X7.999 Y-29.753
G1 F2400 X7.999 Y-23.434 E834.56689
G0 F18000 X7.499 Y-23.434
G1 F2400 X7.499 Y-29.753 E834.89534
G0 F18000 X6.999 Y-29.753
G1 F2400 X6.999 Y-23.434 E835.22368
G0 F18000 X6.499 Y-23.434
G1 F2400 X6.499 Y-29.753 E835.55212
G0 F18000 X5.999 Y-29.753
G1 F2400 X5.999 Y-23.434 E835.88046
G0 F18000 X5.499 Y-23.434
G1 F2400 X5.499 Y-29.753 E836.2089
G0 F18000 X4.999 Y-29.753
G1 F2400 X4.999 Y-23.434 E836.53724
G0 F18000 X4.499 Y-23.434
G1 F2400 X4.499 Y-29.753 E836.86569
G0 F18000 X3.999 Y-29.753
G1 F2400 X3.999 Y-23.434 E837.19403
G0 F18000 X3.499 Y-23.434
G1 F2400 X3.499 Y-29.753 E837.52247
G0 F18000 X2.999 Y-29.753
G1 F2400 X2.999 Y-23.434 E837.85081
G0 F18000 X2.499 Y-23.434
G1 F2400 X2.499 Y-29.753 E838.17925
G0 F18000 X1.999 Y-29.753
G1 F2400 X1.999 Y-23.434 E838.50759
G0 F18000 X1.499 Y-23.434
G1 F2400 X1.499 Y-29.753 E838.83604
G0 F18000 X0.999 Y-29.753
G1 F2400 X0.999 Y-23.434 E839.16438
G0 F18000 X0.499 Y-23.434
G1 F2400 X0.499 Y-29.753 E839.49282
G0 F18000 X0 Y-29.754
G1 F2400 X0 Y-23.434 E839.82121
G0 F18000 X-0.5 Y-23.433
G1 F2400 X-0.5 Y-29.754 E840.14976
G0 F18000 X-1 Y-29.754
G1 F2400 X-1 Y-23.433 E840.47821
G0 F18000 X-1.5 Y-23.433
G1 F2400 X-1.5 Y-29.754 E840.80675
G0 F18000 X-2 Y-29.754
G1 F2400 X-2 Y-23.433 E841.1352
G0 F18000 X-2.5 Y-23.433
G1 F2400 X-2.5 Y-29.754 E841.46374
G0 F18000 X-3 Y-29.754
G1 F2400 X-3 Y-23.433 E841.79219
G0 F18000 X-3.5 Y-23.433
G1 F2400 X-3.5 Y-29.754 E842.12074
G0 F18000 X-4 Y-29.754
G1 F2400 X-4 Y-23.433 E842.44918
G0 F18000 X-4.5 Y-23.433
G1 F2400 X-4.5 Y-29.754 E842.77773
G0 F18000 X-5 Y-29.754
G1 F2400 X-5 Y-23.433 E843.10617
G0 F18000 X-5.5 Y-23.433
G1 F2400 X-5.5 Y-29.754 E843.43472
G0 F18000 X-6 Y-29.754
G1 F2400 X-6 Y-23.433 E843.76316
G0 F18000 X-6.5 Y-23.433
G1 F2400 X-6.5 Y-29.754 E844.09171
G0 F18000 X-7 Y-29.754
G1 F2400 X-7 Y-23.433 E844.42016
G0 F18000 X-7.5 Y-23.433
G1 F2400 X-7.5 Y-29.754 E844.7487
G0 F18000 X-8 Y-29.754
G1 F2400 X-8 Y-23.433 E845.07715
G0 F18000 X-8.5 Y-23.433
G1 F2400 X-8.5 Y-29.754 E845.40569
G0 F18000 X-9 Y-29.754
G1 F2400 X-9 Y-23.433 E845.73414
G0 F18000 X-9.5 Y-23.433
G1 F2400 X-9.5 Y-29.754 E846.06269
G0 F18000 X-10 Y-29.754
G1 F2400 X-10 Y-23.433 E846.39113
G0 F18000 X-10.5 Y-23.432
G1 F2400 X-10.5 Y-29.754 E846.71973
G0 F18000 X-11 Y-29.754
G1 F2400 X-11 Y-23.432 E847.04823
G0 F18000 X-11.5 Y-23.432
G1 F2400 X-11.5 Y-29.754 E847.37683
G0 F18000 X-12 Y-29.754
G1 F2400 X-12 Y-23.432 E847.70532
G0 F18000 X-12.5 Y-23.432
G1 F2400 X-12.5 Y-29.754 E848.03392
G0 F18000 X-13 Y-29.754
G1 F2400 X-13 Y-23.432 E848.36242
G0 F18000 X-13.5 Y-23.432
G1 F2400 X-13.5 Y-29.754 E848.69102
G0 F18000 X-14 Y-29.754
G1 F2400 X-14 Y-23.432 E849.01951
G0 F18000 X-14.5 Y-23.432
G1 F2400 X-14.5 Y-29.754 E849.34811
G0 F18000 X-15 Y-29.753
G1 F2400 X-15 Y-23.431 E849.67661
G0 F18000 X-15.5 Y-23.431
G1 F2400 X-15.5 Y-29.753 E850.00521
G0 F18000 X-16 Y-29.753
G1 F2400 X-16 Y-23.431 E850.3337
G0 F18000 X-16.5 Y-23.431
G1 F2400 X-16.5 Y-29.753 E850.6623
G0 F18000 X-17 Y-29.753
G1 F2400 X-17 Y-23.431 E850.9908
G0 F18000 X-17.5 Y-23.431
G1 F2400 X-17.5 Y-29.753 E851.3194
G0 F18000 X-18 Y-29.753
G1 F2400 X-18 Y-23.431 E851.64789
G0 F18000 X-18.5 Y-23.431
G1 F2400 X-18.5 Y-29.753 E851.97649
G0 F18000 X-19 Y-29.753
G1 F2400 X-19 Y-23.431 E852.30499
G0 F18000 X-19.5 Y-23.431
G1 F2400 X-19.5 Y-29.753 E852.63359
G0 F18000 X-20 Y-29.753
G1 F2400 X-20 Y-23.431 E852.96209
G0 F18000 X-20.5 Y-23.43
G1 F2400 X-20.5 Y-29.753 E853.29074
G0 F18000 X-21 Y-29.753
G1 F2400 X-21 Y-23.43 E853.61928
G0 F18000 X-21.5 Y-23.43
G1 F2400 X-21.5 Y-29.753 E853.94794
G0 F18000 X-22 Y-29.753
G1 F2400 X-22 Y-23.43 E854.27648
G0 F18000 X-22.5 Y-23.43
G1 F2400 X-22.5 Y-29.753 E854.60514
G0 F18000 X-23 Y-29.753
G1 F2400 X-23 Y-23.43 E854.93368
G0 F18000 X-23.5 Y-23.43
G1 F2400 X-23.5 Y-29.753 E855.26234
G0 F18000 X-24 Y-29.753
G1 F2400 X-24 Y-23.43 E855.59088
G0 F18000 X-24.5 Y-23.43
G1 F2400 X-24.5 Y-29.753 E855.91954
G0 F18000 X-25 Y-29.753
G1 F2400 X-25 Y-23.43 E856.24808
G0 F18000 X-25.5 Y-23.43
G1 F2400 X-25.5 Y-29.753 E856.57673
G0 F18000 X-26 Y-29.753
G1 F2400 X-26 Y-23.43 E856.90528
G0 F18000 X-26.5 Y-23.43
G1 F2400 X-26.5 Y-29.753 E857.23393
G0 F18000 X-27 Y-29.753
G1 F2400 X-27 Y-23.43 E857.56248
G0 F18000 X-27.5 Y-23.43
G1 F2400 X-27.5 Y-29.753 E857.89113
G0 F18000 X-28 Y-29.753
G1 F2400 X-28 Y-23.43 E858.21968
G0 F18000 X-28.5 Y-23.43
G1 F2400 X-28.5 Y-29.753 E858.54833
G0 F18000 X-29 Y-29.753
G1 F2400 X-29 Y-23.43 E858.87688
G0 F18000 X-29.5 Y-23.43
G1 F2400 X-29.5 Y-29.753 E859.20553
G0 F18000 X-30 Y-29.753
G1 F2400 X-30 Y-23.43 E859.53408
G0 F18000 X-30.5 Y-23.429
G1 F2400 X-30.5 Y-29.753 E859.86278
G0 F18000 X-31 Y-29.753
G1 F2400 X-31 Y-23.429 E860.19138
G0 F18000 X-31.5 Y-23.429
G1 F2400 X-31.5 Y-29.753 E860.52009
G0 F18000 X-32 Y-29.753
G1 F2400 X-32 Y-23.429 E860.84869
G0 F18000 X-32.5 Y-23.429
G1 F2400 X-32.5 Y-29.753 E861.17739
G0 F18000 X-33 Y-29.753
G1 F2400 X-33 Y-23.429 E861.50599
G0 F18000 X-33.5 Y-23.429
G1 F2400 X-33.5 Y-29.753 E861.83469
G0 F18000 X-34 Y-29.753
G1 F2400 X-34 Y-23.429 E862.16329
G0 F18000 X-34.5 Y-23.429
G1 F2400 X-34.5 Y-29.753 E862.492
G0 F18000 X-35 Y-29.753
G1 F2400 X-35 Y-23.429 E862.8206
G0 F18000 X-35.5 Y-23.429
G1 F2400 X-35.5 Y-29.753 E863.1493
G0 F18000 X-36 Y-29.753
G1 F2400 X-36 Y-23.429 E863.4779
G0 F18000 X-36.5 Y-23.429
G1 F2400 X-36.5 Y-29.753 E863.8066
G0 F18000 X-37 Y-29.753
G1 F2400 X-37 Y-23.429 E864.1352
G0 F18000 X-37.5 Y-23.429
G1 F2400 X-37.5 Y-29.753 E864.46391
G0 F18000 X-38 Y-29.753
G1 F2400 X-38 Y-23.429 E864.79251
G0 F18000 X-38.5 Y-23.429
G1 F2400 X-38.5 Y-29.753 E865.12121
G0 F18000 X-39 Y-29.753
G1 F2400 X-39 Y-23.429 E865.44981
G0 F18000 X-39.5 Y-23.429
G1 F2400 X-39.5 Y-29.753 E865.77851
G0 F18000 X-40 Y-29.753
G1 F2400 X-40 Y-23.429 E866.10711
G0 F18000 X-40.5 Y-23.428
G1 F2400 X-40.5 Y-29.753 E866.43587
G0 F18000 X-41 Y-29.753
G1 F2400 X-41 Y-23.428 E866.76452
G0 F18000 X-41.5 Y-23.428
G1 F2400 X-41.5 Y-29.753 E867.09328
G0 F18000 X-42 Y-29.753
G1 F2400 X-42 Y-23.428 E867.42193
G0 F18000 X-42.5 Y-23.428
G1 F2400 X-42.5 Y-29.753 E867.75069
G0 F18000 X-43 Y-29.753
G1 F2400 X-43 Y-23.428 E868.07934
G0 F18000 X-43.5 Y-23.428
G1 F2400 X-43.5 Y-29.753 E868.40809
G0 F18000 X-44 Y-29.753
G1 F2400 X-44 Y-23.428 E868.73674
G0 F18000 X-44.5 Y-23.428
G1 F2400 X-44.5 Y-29.753 E869.0655
G0 F18000 X-45 Y-29.753
G1 F2400 X-45 Y-23.428 E869.39415
G0 F18000 X-45.5 Y-23.388
G1 F2400 X-45.5 Y-29.753 E869.72499
G0 F18000 X-46 Y-29.753
G1 F2400 X-46 Y-23.277 E870.06148
G0 F18000 X-46.5 Y-23.071
G1 F2400 X-46.5 Y-29.753 E870.40879
G0 F18000 X-47 Y-29.753
G1 F2400 X-47 Y-22.802 E870.76998
G0 F18000 X-47.5 Y-22.341
G1 F2400 X-47.5 Y-29.753 E871.15522
G0 F18000 X-48 Y-29.753
G1 F2400 X-48 Y-21.648 E871.57638
G0 F18000 X-48 Y-20.584
G0 X-48.155 Y-20.551
G0 X-48 Y-19.321
G0 X-48 Y-18.359
G0 X-48 Y-18.359
G1 F2400 X-48 Y-1.648 E872.44478
G0 F18000 X-47.5 Y-2.333
G1 F2400 X-47.5 Y-17.668 E873.24178
G0 F18000 X-47 Y-17.221
G1 F2400 X-47 Y-2.77 E873.99273
G0 F18000 X-46.5 Y-3.092
G1 F2400 X-46.5 Y-16.902 E874.71047
G0 F18000 X-46 Y-16.729
G1 F2400 X-46 Y-3.27 E875.40987
G0 F18000 X-45.5 Y-3.385
G1 F2400 X-45.5 Y-16.598 E876.09659
G0 F18000 X-45 Y-16.577
G1 F2400 X-45 Y-3.418 E876.7804
G0 F18000 X-44.5 Y-3.418
G1 F2400 X-44.5 Y-16.568 E877.46384
G0 F18000 X-44 Y-16.568
G1 F2400 X-44 Y-3.418 E878.14718
G0 F18000 X-43.5 Y-3.418
G1 F2400 X-43.5 Y-16.568 E878.83062
G0 F18000 X-43 Y-16.568
G1 F2400 X-43 Y-3.418 E879.51396
G0 F18000 X-42.5 Y-3.418
G1 F2400 X-42.5 Y-16.568 E880.19741
G0 F18000 X-42 Y-16.568
G1 F2400 X-42 Y-3.417 E880.8808
G0 F18000 X-41.5 Y-3.417
G1 F2400 X-41.5 Y-16.568 E881.56429
G0 F18000 X-41 Y-16.568
G1 F2400 X-41 Y-3.417 E882.24769
G0 F18000 X-40.5 Y-3.417
G1 F2400 X-40.5 Y-16.567 E882.93113
G0 F18000 X-40 Y-16.567
G1 F2400 X-40 Y-3.417 E883.61447
G0 F18000 X-39.5 Y-3.417
G1 F2400 X-39.5 Y-16.567 E884.29791
G0 F18000 X-39 Y-16.567
G1 F2400 X-39 Y-3.417 E884.98125
G0 F18000 X-38.5 Y-3.417
G1 F2400 X-38.5 Y-16.567 E885.6647
G0 F18000 X-38 Y-16.567
G1 F2400 X-38 Y-3.417 E886.34804
G0 F18000 X-37.5 Y-3.417
G1 F2400 X-37.5 Y-16.567 E887.03148
G0 F18000 X-37 Y-16.567
G1 F2400 X-37 Y-3.417 E887.71482
G0 F18000 X-36.5 Y-3.416
G1 F2400 X-36.5 Y-16.567 E888.39832
G0 F18000 X-36 Y-16.567
G1 F2400 X-36 Y-3.416 E889.08171
G0 F18000 X-35.5 Y-3.416
G1 F2400 X-35.5 Y-16.567 E889.7652
G0 F18000 X-35 Y-16.567
G1 F2400 X-35 Y-3.416 E890.4486
G0 F18000 X-34.5 Y-3.416
G1 F2400 X-34.5 Y-16.567 E891.13209
G0 F18000 X-34 Y-16.567
G1 F2400 X-34 Y-3.416 E891.81548
G0 F18000 X-33.5 Y-3.416
G1 F2400 X-33.5 Y-16.567 E892.49898
G0 F18000 X-33 Y-16.567
G1 F2400 X-33 Y-3.416 E893.18237
G0 F18000 X-32.5 Y-3.416
G1 F2400 X-32.5 Y-16.566 E893.86582
G0 F18000 X-32 Y-16.566
G1 F2400 X-32 Y-3.416 E894.54916
G0 F18000 X-31.5 Y-3.416
G1 F2400 X-31.5 Y-16.566 E895.2326
G0 F18000 X-31 Y-16.566
G1 F2400 X-31 Y-3.416 E895.91594
G0 F18000 X-30.5 Y-3.415
G1 F2400 X-30.5 Y-16.566 E896.59943
G0 F18000 X-30 Y-16.566
G1 F2400 X-30 Y-3.415 E897.28283
G0 F18000 X-29.5 Y-3.415
G1 F2400 X-29.5 Y-16.566 E897.96632
G0 F18000 X-29 Y-16.566
G1 F2400 X-29 Y-3.415 E898.64971
G0 F18000 X-28.5 Y-3.415
G1 F2400 X-28.5 Y-16.566 E899.33321
G0 F18000 X-28 Y-16.566
G1 F2400 X-28 Y-3.415 E900.0166
G0 F18000 X-27.5 Y-3.415
G1 F2400 X-27.5 Y-16.566 E900.7001
G0 F18000 X-27 Y-16.566
G1 F2400 X-27 Y-3.415 E901.38349
G0 F18000 X-26.5 Y-3.415
G1 F2400 X-26.5 Y-16.566 E902.06699
G0 F18000 X-26 Y-16.566
G1 F2400 X-26 Y-3.415 E902.75038
G0 F18000 X-25.5 Y-3.415
G1 F2400 X-25.5 Y-16.566 E903.43387
G0 F18000 X-25 Y-16.566
G1 F2400 X-25 Y-3.414 E904.11732
G0 F18000 X-24.5 Y-3.414
G1 F2400 X-24.5 Y-16.566 E904.80086
G0 F18000 X-24 Y-16.565
G1 F2400 X-24 Y-3.414 E905.48426
G0 F18000 X-23.5 Y-3.414
G1 F2400 X-23.5 Y-16.565 E906.16775
G0 F18000 X-23 Y-16.565
G1 F2400 X-23 Y-3.414 E906.85114
G0 F18000 X-22.5 Y-3.414
G1 F2400 X-22.5 Y-16.565 E907.53464
G0 F18000 X-22 Y-16.565
G1 F2400 X-22 Y-3.414 E908.21803
G0 F18000 X-21.5 Y-3.414
G1 F2400 X-21.5 Y-16.565 E908.90153
G0 F18000 X-21 Y-16.565
G1 F2400 X-21 Y-3.414 E909.58492
G0 F18000 X-20.5 Y-3.414
G1 F2400 X-20.5 Y-16.565 E910.26842
G0 F18000 X-20 Y-16.565
G1 F2400 X-20 Y-3.414 E910.95181
G0 F18000 X-19.5 Y-3.413
G1 F2400 X-19.5 Y-16.565 E911.63535
G0 F18000 X-19 Y-16.565
G1 F2400 X-19 Y-3.413 E912.3188
G0 F18000 X-18.5 Y-3.413
G1 F2400 X-18.5 Y-16.565 E913.00235
G0 F18000 X-18 Y-16.565
G1 F2400 X-18 Y-3.413 E913.68579
G0 F18000 X-17.5 Y-3.413
G1 F2400 X-17.5 Y-16.565 E914.36934
G0 F18000 X-17 Y-16.565
G1 F2400 X-17 Y-3.413 E915.05278
G0 F18000 X-16.5 Y-3.413
G1 F2400 X-16.5 Y-16.565 E915.73633
G0 F18000 X-16 Y-16.564
G1 F2400 X-16 Y-3.413 E916.41972
G0 F18000 X-15.5 Y-3.413
G1 F2400 X-15.5 Y-16.564 E917.10322
G0 F18000 X-15 Y-16.564
G1 F2400 X-15 Y-3.413 E917.78661
G0 F18000 X-14.5 Y-3.413
G1 F2400 X-14.5 Y-16.565 E918.47016
G0 F18000 X-14 Y-16.565
G1 F2400 X-14 Y-3.413 E919.1536
G0 F18000 X-13.5 Y-3.412
G1 F2400 X-13.5 Y-16.565 E919.8372
G0 F18000 X-13 Y-16.565
G1 F2400 X-13 Y-3.412 E920.5207
G0 F18000 X-12.5 Y-3.412
G1 F2400 X-12.5 Y-16.565 E921.2043
G0 F18000 X-12 Y-16.565
G1 F2400 X-12 Y-3.412 E921.88779
G0 F18000 X-11.5 Y-3.412
G1 F2400 X-11.5 Y-16.565 E922.57139
G0 F18000 X-11 Y-16.565
G1 F2400 X-11 Y-3.412 E923.25489
G0 F18000 X-10.5 Y-3.412
G1 F2400 X-10.5 Y-16.565 E923.93849
G0 F18000 X-10 Y-16.565
G1 F2400 X-10 Y-3.412 E924.62198
G0 F18000 X-9.5 Y-3.412
G1 F2400 X-9.5 Y-16.565 E925.30558
G0 F18000 X-9 Y-16.565
G1 F2400 X-9 Y-3.412 E925.98908
G0 F18000 X-8.5 Y-3.412
G1 F2400 X-8.5 Y-16.565 E926.67268
G0 F18000 X-8 Y-16.564
G1 F2400 X-8 Y-3.411 E927.35617
G0 F18000 X-7.5 Y-3.411
G1 F2400 X-7.5 Y-16.564 E928.03977
G0 F18000 X-7 Y-16.564
G1 F2400 X-7 Y-3.411 E928.72327
G0 F18000 X-6.5 Y-3.411
G1 F2400 X-6.5 Y-16.564 E929.40687
G0 F18000 X-6 Y-16.564
G1 F2400 X-6 Y-3.411 E930.09036
G0 F18000 X-5.5 Y-3.411
G1 F2400 X-5.5 Y-16.564 E930.77396
G0 F18000 X-5 Y-16.564
G1 F2400 X-5 Y-3.411 E931.45746
G0 F18000 X-4.5 Y-3.411
G1 F2400 X-4.5 Y-16.564 E932.14106
G0 F18000 X-4 Y-16.564
G1 F2400 X-4 Y-3.411 E932.82456
G0 F18000 X-3.5 Y-3.411
G1 F2400 X-3.5 Y-16.564 E933.50815
G0 F18000 X-3 Y-16.564
G1 F2400 X-3 Y-3.411 E934.19165
G0 F18000 X-2.5 Y-3.41
G1 F2400 X-2.5 Y-16.564 E934.8753
G0 F18000 X-2 Y-16.564
G1 F2400 X-2 Y-3.41 E935.55885
G0 F18000 X-1.5 Y-3.411
G1 F2400 X-1.5 Y-16.564 E936.24245
G0 F18000 X-1 Y-16.564
G1 F2400 X-1 Y-3.411 E936.92595
G0 F18000 X-0.5 Y-3.411
G1 F2400 X-0.5 Y-16.564 E937.60955
G0 F18000 X0 Y-16.564
G1 F2400 X0 Y-3.411 E938.29304
G0 F18000 X0.499 Y-3.411
G1 F2400 X0.499 Y-16.563 E938.97659
G0 F18000 X0.999 Y-16.563
G1 F2400 X0.999 Y-3.411 E939.66003
G0 F18000 X1.499 Y-3.411
G1 F2400 X1.499 Y-16.563 E940.34358
G0 F18000 X1.999 Y-16.563
G1 F2400 X1.999 Y-3.411 E941.02702
G0 F18000 X2.499 Y-3.411
G1 F2400 X2.499 Y-16.563 E941.71057
G0 F18000 X2.999 Y-16.563
G1 F2400 X2.999 Y-3.411 E942.39402
G0 F18000 X3.499 Y-3.41
G1 F2400 X3.499 Y-16.563 E943.07762
G0 F18000 X3.999 Y-16.563
G1 F2400 X3.999 Y-3.41 E943.76111
G0 F18000 X4.5 Y-3.41
G1 F2400 X4.499 Y-16.563 E944.44471
G0 F18000 X4.999 Y-16.563
G1 F2400 X5 Y-3.41 E945.12821
G0 F18000 X5.5 Y-3.41
G1 F2400 X5.499 Y-16.563 E945.81181
G0 F18000 X5.999 Y-16.563
G1 F2400 X6 Y-3.41 E946.4953
G0 F18000 X6.5 Y-3.41
G1 F2400 X6.499 Y-16.563 E947.1789
G0 F18000 X6.999 Y-16.563
G1 F2400 X7 Y-3.41 E947.8624
G0 F18000 X7.5 Y-3.41
G1 F2400 X7.499 Y-16.563 E948.546
G0 F18000 X7.999 Y-16.563
G1 F2400 X8 Y-3.41 E949.22949
G0 F18000 X8.5 Y-3.41
G1 F2400 X8.499 Y-16.562 E949.91304
G0 F18000 X8.999 Y-16.562
G1 F2400 X9 Y-3.409 E950.59654
G0 F18000 X9.5 Y-3.409
G1 F2400 X9.499 Y-16.562 E951.28014
G0 F18000 X9.999 Y-16.562
G1 F2400 X10 Y-3.409 E951.96363
G0 F18000 X10.5 Y-3.409
G1 F2400 X10.499 Y-16.562 E952.64723
G0 F18000 X10.999 Y-16.562
G1 F2400 X11 Y-3.409 E953.33073
G0 F18000 X11.5 Y-3.409
G1 F2400 X11.499 Y-16.562 E954.01433
G0 F18000 X11.999 Y-16.562
G1 F2400 X12 Y-3.409 E954.69782
G0 F18000 X12.5 Y-3.409
G1 F2400 X12.499 Y-16.562 E955.38142
G0 F18000 X12.999 Y-16.562
G1 F2400 X13 Y-3.409 E956.06492
G0 F18000 X13.5 Y-3.409
G1 F2400 X13.499 Y-16.562 E956.74852
G0 F18000 X13.999 Y-16.562
G1 F2400 X14 Y-3.409 E957.43201
G0 F18000 X14.5 Y-3.408
G1 F2400 X14.499 Y-16.562 E958.11567
G0 F18000 X14.999 Y-16.562
G1 F2400 X15 Y-3.408 E958.79921
G0 F18000 X15.5 Y-3.408
G1 F2400 X15.499 Y-16.562 E959.48287
G0 F18000 X15.999 Y-16.562
G1 F2400 X16 Y-3.408 E960.16641
G0 F18000 X16.5 Y-3.408
G1 F2400 X16.499 Y-16.561 E960.85001
G0 F18000 X16.999 Y-16.561
G1 F2400 X17 Y-3.408 E961.53351
G0 F18000 X17.5 Y-3.408
G1 F2400 X17.499 Y-16.561 E962.21711
G0 F18000 X17.999 Y-16.561
G1 F2400 X18 Y-3.408 E962.9006
G0 F18000 X18.5 Y-3.408
G1 F2400 X18.499 Y-16.561 E963.5842
G0 F18000 X18.999 Y-16.561
G1 F2400 X19 Y-3.408 E964.2677
G0 F18000 X19.5 Y-3.408
G1 F2400 X19.499 Y-16.561 E964.9513
G0 F18000 X19.999 Y-16.561
G1 F2400 X20 Y-3.408 E965.6348
G0 F18000 X20.5 Y-3.407
G1 F2400 X20.499 Y-16.561 E966.31845
G0 F18000 X20.999 Y-16.561
G1 F2400 X21 Y-3.407 E967.00199
G0 F18000 X21.5 Y-3.407
G1 F2400 X21.499 Y-16.561 E967.68565
G0 F18000 X21.999 Y-16.561
G1 F2400 X22 Y-3.407 E968.36919
G0 F18000 X22.5 Y-3.407
G1 F2400 X22.499 Y-16.561 E969.05285
G0 F18000 X22.999 Y-16.561
G1 F2400 X23 Y-3.407 E969.73639
G0 F18000 X23.5 Y-3.407
G1 F2400 X23.499 Y-16.561 E970.42005
G0 F18000 X23.999 Y-16.561
G1 F2400 X24 Y-3.407 E971.10359
G0 F18000 X24.5 Y-3.407
G1 F2400 X24.499 Y-16.561 E971.78724
G0 F18000 X24.999 Y-16.56
G1 F2400 X25 Y-3.407 E972.47074
G0 F18000 X25.5 Y-3.407
G1 F2400 X25.499 Y-16.56 E973.15434
G0 F18000 X25.999 Y-16.56
G1 F2400 X26 Y-3.406 E973.83789
G0 F18000 X26.5 Y-3.406
G1 F2400 X26.499 Y-16.56 E974.52154
G0 F18000 X26.999 Y-16.56
G1 F2400 X27 Y-3.406 E975.20509
G0 F18000 X27.5 Y-3.406
G1 F2400 X27.499 Y-16.56 E975.88874
G0 F18000 X27.999 Y-16.56
G1 F2400 X28 Y-3.406 E976.57229
G0 F18000 X28.5 Y-3.406
G1 F2400 X28.499 Y-16.56 E977.25594
G0 F18000 X28.999 Y-16.56
G1 F2400 X29 Y-3.406 E977.93949
G0 F18000 X29.5 Y-3.406
G1 F2400 X29.499 Y-16.56 E978.62314
G0 F18000 X29.999 Y-16.56
G1 F2400 X30 Y-3.406 E979.30669
G0 F18000 X30.5 Y-3.406
G1 F2400 X30.499 Y-16.56 E979.99034
G0 F18000 X30.999 Y-16.56
G1 F2400 X31 Y-3.406 E980.67388
G0 F18000 X31.5 Y-3.405
G1 F2400 X31.499 Y-16.56 E981.35759
G0 F18000 X31.999 Y-16.56
G1 F2400 X32 Y-3.405 E982.04119
G0 F18000 X32.5 Y-3.405
G1 F2400 X32.499 Y-16.56 E982.72489
G0 F18000 X33 Y-16.559
G1 F2400 X33 Y-3.405 E983.40844
G0 F18000 X33.5 Y-3.405
G1 F2400 X33.5 Y-16.559 E984.09209
G0 F18000 X34 Y-16.559
G1 F2400 X34 Y-3.405 E984.77564
G0 F18000 X34.5 Y-3.405
G1 F2400 X34.5 Y-16.559 E985.45929
G0 F18000 X35 Y-16.559
G1 F2400 X35 Y-3.405 E986.14284
G0 F18000 X35.5 Y-3.405
G1 F2400 X35.5 Y-16.559 E986.82649
G0 F18000 X36 Y-16.559
G1 F2400 X36 Y-3.405 E987.51004
G0 F18000 X36.5 Y-3.405
G1 F2400 X36.5 Y-16.559 E988.19369
G0 F18000 X37 Y-16.559
G1 F2400 X37 Y-3.405 E988.87724
G0 F18000 X37.5 Y-3.404
G1 F2400 X37.5 Y-16.559 E989.56094
G0 F18000 X38 Y-16.559
G1 F2400 X38 Y-3.404 E990.24454
G0 F18000 X38.5 Y-3.404
G1 F2400 X38.5 Y-16.559 E990.92824
G0 F18000 X39 Y-16.559
G1 F2400 X39 Y-3.404 E991.61184
G0 F18000 X39.5 Y-3.404
G1 F2400 X39.5 Y-16.559 E992.29555
G0 F18000 X40 Y-16.559
G1 F2400 X40 Y-3.404 E992.97915
G0 F18000 X40.5 Y-3.404
G1 F2400 X40.5 Y-16.559 E993.66285
G0 F18000 X41 Y-16.558
G1 F2400 X41 Y-3.404 E994.3464
G0 F18000 X41.5 Y-3.404
G1 F2400 X41.5 Y-16.558 E995.03005
G0 F18000 X42 Y-16.558
G1 F2400 X42 Y-3.404 E995.7136
G0 F18000 X42.5 Y-3.404
G1 F2400 X42.5 Y-16.558 E996.39725
G0 F18000 X43 Y-16.558
G1 F2400 X43 Y-3.403 E997.08085
G0 F18000 X43.5 Y-3.403
G1 F2400 X43.5 Y-16.558 E997.76455
G0 F18000 X44 Y-16.558
G1 F2400 X44 Y-3.403 E998.44815
G0 F18000 X44.5 Y-3.403
G1 F2400 X44.5 Y-16.558 E999.13186
G0 F18000 X45 Y-16.558
G1 F2400 X45 Y-3.403 E999.81546
G0 F18000 X45.5 Y-3.403
G1 F2400 X45.5 Y-16.615 E1000.50212
G0 F18000 X46 Y-16.711
G1 F2400 X46 Y-3.267 E1001.20074
G0 F18000 X46.5 Y-3.092
G1 F2400 X46.5 Y-16.918 E1001.91932
G0 F18000 X47 Y-17.224
G1 F2400 X47 Y-2.779 E1002.66996
G0 F18000 X47.5 Y-2.33
G1 F2400 X47.5 Y-17.641 E1003.4657
G0 F18000 X48 Y-18.306
G1 F2400 X48 Y-1.638 E1004.33187
G0 F18000 X48 Y-0.736
G0 X48.16 Y0.529
G0 X48 Y0.576
G0 X48 Y1.649
G0 X48 Y1.649
G1 F2400 X48 Y18.351 E1005.19986
G0 F18000 X47.5 Y17.663
G1 F2400 X47.5 Y2.342 E1005.99607
G0 F18000 X47 Y2.807
G1 F2400 X47 Y17.225 E1006.74536
G0 F18000 X46.5 Y16.9
G1 F2400 X46.5 Y3.073 E1007.46394
G0 F18000 X46 Y3.277
G1 F2400 X46 Y16.728 E1008.16297
G0 F18000 X45.5 Y16.607
G1 F2400 X45.5 Y3.393 E1008.84969
G0 F18000 X45 Y3.428
G1 F2400 X45 Y16.572 E1009.53277
G0 F18000 X44.5 Y16.564
G1 F2400 X44.5 Y3.428 E1010.21543
G0 F18000 X44 Y3.428
G1 F2400 X44 Y16.564 E1010.8981
G0 F18000 X43.5 Y16.564
G1 F2400 X43.5 Y3.428 E1011.58076
G0 F18000 X43 Y3.428
G1 F2400 X43 Y16.564 E1012.26343
G0 F18000 X42.5 Y16.564
G1 F2400 X42.5 Y3.428 E1012.94609
G0 F18000 X42 Y3.428
G1 F2400 X42 Y16.565 E1013.62881
G0 F18000 X41.5 Y16.565
G1 F2400 X41.5 Y3.428 E1014.31152
G0 F18000 X41 Y3.428
G1 F2400 X41 Y16.565 E1014.99424
G0 F18000 X40.5 Y16.565
G1 F2400 X40.5 Y3.428 E1015.67695
G0 F18000 X40 Y3.428
G1 F2400 X40 Y16.565 E1016.35967
G0 F18000 X39.5 Y16.565
G1 F2400 X39.5 Y3.428 E1017.04239
G0 F18000 X39 Y3.428
G1 F2400 X39 Y16.565 E1017.7251
G0 F18000 X38.5 Y16.565
G1 F2400 X38.5 Y3.429 E1018.40777
G0 F18000 X38 Y3.429
G1 F2400 X38 Y16.565 E1019.09043
G0 F18000 X37.5 Y16.565
G1 F2400 X37.5 Y3.429 E1019.7731
G0 F18000 X37 Y3.429
G1 F2400 X37 Y16.565 E1020.45576
G0 F18000 X36.5 Y16.566
G1 F2400 X36.5 Y3.429 E1021.13848
G0 F18000 X36 Y3.429
G1 F2400 X36 Y16.566 E1021.82119
G0 F18000 X35.5 Y16.566
G1 F2400 X35.5 Y3.429 E1022.50391
G0 F18000 X35 Y3.429
G1 F2400 X35 Y16.566 E1023.18663
G0 F18000 X34.5 Y16.566
G1 F2400 X34.5 Y3.429 E1023.86934
G0 F18000 X34 Y3.429
G1 F2400 X34 Y16.566 E1024.55206
G0 F18000 X33.5 Y16.566
G1 F2400 X33.5 Y3.429 E1025.23477
G0 F18000 X33 Y3.429
G1 F2400 X33 Y16.566 E1025.91749
G0 F18000 X32.5 Y16.566
G1 F2400 X32.5 Y3.429 E1026.60021
G0 F18000 X32 Y3.429
G1 F2400 X32 Y16.566 E1027.28292
G0 F18000 X31.5 Y16.567
G1 F2400 X31.5 Y3.429 E1027.96569
G0 F18000 X31 Y3.429
G1 F2400 X31 Y16.567 E1028.64846
G0 F18000 X30.5 Y16.567
G1 F2400 X30.5 Y3.429 E1029.33123
G0 F18000 X30 Y3.429
G1 F2400 X30 Y16.567 E1030.014
G0 F18000 X29.5 Y16.567
G1 F2400 X29.5 Y3.429 E1030.69676
G0 F18000 X29 Y3.429
G1 F2400 X29 Y16.567 E1031.37953
G0 F18000 X28.5 Y16.567
G1 F2400 X28.5 Y3.429 E1032.0623
G0 F18000 X28 Y3.429
G1 F2400 X28 Y16.567 E1032.74507
G0 F18000 X27.5 Y16.567
G1 F2400 X27.5 Y3.429 E1033.42784
G0 F18000 X27 Y3.429
G1 F2400 X27 Y16.567 E1034.11061
G0 F18000 X26.5 Y16.567
G1 F2400 X26.5 Y3.429 E1034.79337
G0 F18000 X26 Y3.429
G1 F2400 X26 Y16.568 E1035.47619
G0 F18000 X25.5 Y16.568
G1 F2400 X25.5 Y3.43 E1036.15896
G0 F18000 X25 Y3.43
G1 F2400 X25 Y16.568 E1036.84173
G0 F18000 X24.5 Y16.568
G1 F2400 X24.5 Y3.43 E1037.5245
G0 F18000 X24 Y3.43
G1 F2400 X24 Y16.568 E1038.20727
G0 F18000 X23.5 Y16.568
G1 F2400 X23.5 Y3.43 E1038.89003
G0 F18000 X23 Y3.43
G1 F2400 X23 Y16.568 E1039.5728
G0 F18000 X22.5 Y16.568
G1 F2400 X22.5 Y3.43 E1040.25557
G0 F18000 X22 Y3.43
G1 F2400 X22 Y16.568 E1040.93834
G0 F18000 X21.5 Y16.568
G1 F2400 X21.5 Y3.43 E1041.62111
G0 F18000 X21 Y3.43
G1 F2400 X21 Y16.568 E1042.30388
G0 F18000 X20.5 Y16.569
G1 F2400 X20.5 Y3.43 E1042.9867
G0 F18000 X20 Y3.43
G1 F2400 X20 Y16.569 E1043.66952
G0 F18000 X19.5 Y16.569
G1 F2400 X19.5 Y3.43 E1044.35234
G0 F18000 X19 Y3.43
G1 F2400 X19 Y16.569 E1045.03516
G0 F18000 X18.5 Y16.569
G1 F2400 X18.5 Y3.43 E1045.71798
G0 F18000 X18 Y3.43
G1 F2400 X18 Y16.569 E1046.4008
G0 F18000 X17.5 Y16.569
G1 F2400 X17.5 Y3.43 E1047.08362
G0 F18000 X17 Y3.43
G1 F2400 X17 Y16.569 E1047.76644
G0 F18000 X16.5 Y16.569
G1 F2400 X16.5 Y3.43 E1048.44926
G0 F18000 X16 Y3.43
G1 F2400 X16 Y16.569 E1049.13208
G0 F18000 X15.5 Y16.57
G1 F2400 X15.5 Y3.43 E1049.81495
G0 F18000 X15 Y3.43
G1 F2400 X15 Y16.57 E1050.49782
G0 F18000 X14.5 Y16.571
G1 F2400 X14.5 Y3.43 E1051.18075
G0 F18000 X14 Y3.43
G1 F2400 X14 Y16.571 E1051.86367
G0 F18000 X13.5 Y16.571
G1 F2400 X13.5 Y3.43 E1052.54659
G0 F18000 X13 Y3.431
G1 F2400 X13 Y16.571 E1053.22947
G0 F18000 X12.5 Y16.571
G1 F2400 X12.5 Y3.431 E1053.91234
G0 F18000 X12 Y3.431
G1 F2400 X12 Y16.571 E1054.59521
G0 F18000 X11.5 Y16.571
G1 F2400 X11.5 Y3.431 E1055.27808
G0 F18000 X11 Y3.431
G1 F2400 X11 Y16.571 E1055.96095
G0 F18000 X10.5 Y16.571
G1 F2400 X10.5 Y3.431 E1056.64383
G0 F18000 X10 Y3.431
G1 F2400 X10 Y16.572 E1057.32675
G0 F18000 X9.5 Y16.572
G1 F2400 X9.5 Y3.431 E1058.00968
G0 F18000 X9 Y3.431
G1 F2400 X9 Y16.572 E1058.6926
G0 F18000 X8.5 Y16.572
G1 F2400 X8.5 Y3.431 E1059.37552
G0 F18000 X8 Y3.431
G1 F2400 X8 Y16.572 E1060.05845
G0 F18000 X7.5 Y16.572
G1 F2400 X7.5 Y3.431 E1060.74137
G0 F18000 X7 Y3.431
G1 F2400 X7 Y16.572 E1061.4243
G0 F18000 X6.5 Y16.572
G1 F2400 X6.5 Y3.431 E1062.10722
G0 F18000 X6 Y3.431
G1 F2400 X6 Y16.572 E1062.79014
G0 F18000 X5.5 Y16.572
G1 F2400 X5.5 Y3.431 E1063.47307
G0 F18000 X5 Y3.431
G1 F2400 X5 Y16.573 E1064.15604
G0 F18000 X4.5 Y16.573
G1 F2400 X4.5 Y3.431 E1064.83902
G0 F18000 X4 Y3.431
G1 F2400 X4 Y16.573 E1065.522
G0 F18000 X3.5 Y16.573
G1 F2400 X3.5 Y3.431 E1066.20497
G0 F18000 X3 Y3.431
G1 F2400 X3 Y16.573 E1066.88795
G0 F18000 X2.5 Y16.573
G1 F2400 X2.5 Y3.431 E1067.57092
G0 F18000 X2 Y3.431
G1 F2400 X2 Y16.573 E1068.2539
G0 F18000 X1.5 Y16.573
G1 F2400 X1.5 Y3.432 E1068.93682
G0 F18000 X1 Y3.432
G1 F2400 X1 Y16.573 E1069.61975
G0 F18000 X0.5 Y16.573
G1 F2400 X0.5 Y3.432 E1070.30267
G0 F18000 X0 Y3.433
G1 F2400 X0 Y16.573 E1070.98555
G0 F18000 X-0.499 Y16.574
G1 F2400 X-0.499 Y3.433 E1071.66847
G0 F18000 X-0.999 Y3.433
G1 F2400 X-0.999 Y16.574 E1072.35139
G0 F18000 X-1.499 Y16.574
G1 F2400 X-1.499 Y3.433 E1073.03432
G0 F18000 X-1.999 Y3.433
G1 F2400 X-1.999 Y16.574 E1073.71724
G0 F18000 X-2.499 Y16.574
G1 F2400 X-2.499 Y3.433 E1074.40017
G0 F18000 X-2.999 Y3.433
G1 F2400 X-2.999 Y16.574 E1075.08309
G0 F18000 X-3.499 Y16.574
G1 F2400 X-3.499 Y3.433 E1075.76601
G0 F18000 X-3.999 Y3.433
G1 F2400 X-3.999 Y16.574 E1076.44894
G0 F18000 X-4.499 Y16.574
G1 F2400 X-4.5 Y3.433 E1077.13186
G0 F18000 X-5 Y3.433
G1 F2400 X-4.999 Y16.574 E1077.81479
G0 F18000 X-5.499 Y16.574
G1 F2400 X-5.5 Y3.433 E1078.49771
G0 F18000 X-6 Y3.433
G1 F2400 X-5.999 Y16.575 E1079.18069
G0 F18000 X-6.499 Y16.575
G1 F2400 X-6.5 Y3.433 E1079.86366
G0 F18000 X-7 Y3.433
G1 F2400 X-6.999 Y16.575 E1080.54664
G0 F18000 X-7.499 Y16.575
G1 F2400 X-7.5 Y3.433 E1081.22961
G0 F18000 X-8 Y3.433
G1 F2400 X-7.999 Y16.575 E1081.91259
G0 F18000 X-8.499 Y16.575
G1 F2400 X-8.5 Y3.433 E1082.59557
G0 F18000 X-9 Y3.433
G1 F2400 X-8.999 Y16.575 E1083.27854
G0 F18000 X-9.499 Y16.575
G1 F2400 X-9.5 Y3.433 E1083.96152
G0 F18000 X-10 Y3.433
G1 F2400 X-9.999 Y16.575 E1084.6445
G0 F18000 X-10.499 Y16.575
G1 F2400 X-10.5 Y3.433 E1085.32747
G0 F18000 X-11 Y3.433
G1 F2400 X-10.999 Y16.576 E1086.0105
G0 F18000 X-11.499 Y16.576
G1 F2400 X-11.5 Y3.433 E1086.69353
G0 F18000 X-12 Y3.433
G1 F2400 X-11.999 Y16.576 E1087.37656
G0 F18000 X-12.499 Y16.576
G1 F2400 X-12.5 Y3.433 E1088.05958
G0 F18000 X-13 Y3.434
G1 F2400 X-12.999 Y16.576 E1088.74256
G0 F18000 X-13.499 Y16.576
G1 F2400 X-13.5 Y3.434 E1089.42554
G0 F18000 X-14 Y3.434
G1 F2400 X-13.999 Y16.576 E1090.10851
G0 F18000 X-14.499 Y16.576
G1 F2400 X-14.5 Y3.434 E1090.79149
G0 F18000 X-15 Y3.434
G1 F2400 X-14.999 Y16.576 E1091.47446
G0 F18000 X-15.499 Y16.576
G1 F2400 X-15.5 Y3.434 E1092.15744
G0 F18000 X-16 Y3.434
G1 F2400 X-15.999 Y16.576 E1092.84042
G0 F18000 X-16.499 Y16.577
G1 F2400 X-16.5 Y3.434 E1093.52344
G0 F18000 X-17 Y3.434
G1 F2400 X-16.999 Y16.577 E1094.20647
G0 F18000 X-17.499 Y16.577
G1 F2400 X-17.5 Y3.434 E1094.8895
G0 F18000 X-18 Y3.434
G1 F2400 X-17.999 Y16.577 E1095.57253
G0 F18000 X-18.499 Y16.577
G1 F2400 X-18.5 Y3.434 E1096.25556
G0 F18000 X-19 Y3.434
G1 F2400 X-18.999 Y16.577 E1096.93858
G0 F18000 X-19.499 Y16.577
G1 F2400 X-19.5 Y3.434 E1097.62161
G0 F18000 X-20 Y3.434
G1 F2400 X-19.999 Y16.577 E1098.30464
G0 F18000 X-20.499 Y16.577
G1 F2400 X-20.5 Y3.434 E1098.98767
G0 F18000 X-21 Y3.434
G1 F2400 X-20.999 Y16.577 E1099.6707
G0 F18000 X-21.499 Y16.577
G1 F2400 X-21.5 Y3.434 E1100.35373
G0 F18000 X-22 Y3.434
G1 F2400 X-21.999 Y16.578 E1101.03681
G0 F18000 X-22.499 Y16.578
G1 F2400 X-22.5 Y3.434 E1101.71989
G0 F18000 X-23 Y3.434
G1 F2400 X-22.999 Y16.578 E1102.40297
G0 F18000 X-23.499 Y16.578
G1 F2400 X-23.5 Y3.434 E1103.08605
G0 F18000 X-24 Y3.434
G1 F2400 X-23.999 Y16.578 E1103.76913
G0 F18000 X-24.499 Y16.578
G1 F2400 X-24.5 Y3.434 E1104.45221
G0 F18000 X-25 Y3.434
G1 F2400 X-24.999 Y16.578 E1105.13529
G0 F18000 X-25.499 Y16.578
G1 F2400 X-25.5 Y3.434 E1105.81837
G0 F18000 X-26 Y3.435
G1 F2400 X-25.999 Y16.578 E1106.50139
G0 F18000 X-26.499 Y16.578
G1 F2400 X-26.5 Y3.435 E1107.18442
G0 F18000 X-27 Y3.435
G1 F2400 X-26.999 Y16.579 E1107.8675
G0 F18000 X-27.499 Y16.579
G1 F2400 X-27.5 Y3.435 E1108.55058
G0 F18000 X-28 Y3.435
G1 F2400 X-27.999 Y16.579 E1109.23366
G0 F18000 X-28.499 Y16.579
G1 F2400 X-28.5 Y3.435 E1109.91674
G0 F18000 X-29 Y3.435
G1 F2400 X-28.999 Y16.579 E1110.59982
G0 F18000 X-29.499 Y16.579
G1 F2400 X-29.5 Y3.435 E1111.2829
G0 F18000 X-30 Y3.435
G1 F2400 X-29.999 Y16.579 E1111.96598
G0 F18000 X-30.499 Y16.579
G1 F2400 X-30.5 Y3.435 E1112.64906
G0 F18000 X-31 Y3.435
G1 F2400 X-30.999 Y16.579 E1113.33214
G0 F18000 X-31.499 Y16.579
G1 F2400 X-31.5 Y3.435 E1114.01522
G0 F18000 X-32 Y3.435
G1 F2400 X-31.999 Y16.579 E1114.6983
G0 F18000 X-32.499 Y16.58
G1 F2400 X-32.5 Y3.435 E1115.38143
G0 F18000 X-33 Y3.435
G1 F2400 X-33 Y16.58 E1116.06457
G0 F18000 X-33.5 Y16.58
G1 F2400 X-33.5 Y3.435 E1116.7477
G0 F18000 X-34 Y3.435
G1 F2400 X-34 Y16.58 E1117.43083
G0 F18000 X-34.5 Y16.58
G1 F2400 X-34.5 Y3.435 E1118.11396
G0 F18000 X-35 Y3.435
G1 F2400 X-35 Y16.58 E1118.79709
G0 F18000 X-35.5 Y16.58
G1 F2400 X-35.5 Y3.435 E1119.48023
G0 F18000 X-36 Y3.435
G1 F2400 X-36 Y16.58 E1120.16336
G0 F18000 X-36.5 Y16.58
G1 F2400 X-36.5 Y3.435 E1120.84649
G0 F18000 X-37 Y3.435
G1 F2400 X-37 Y16.58 E1121.52962
G0 F18000 X-37.5 Y16.581
G1 F2400 X-37.5 Y3.435 E1122.21281
G0 F18000 X-38 Y3.435
G1 F2400 X-38 Y16.581 E1122.89599
G0 F18000 X-38.5 Y16.581
G1 F2400 X-38.5 Y3.435 E1123.57917
G0 F18000 X-39 Y3.436
G1 F2400 X-39 Y16.581 E1124.26231
G0 F18000 X-39.5 Y16.581
G1 F2400 X-39.5 Y3.436 E1124.94544
G0 F18000 X-40 Y3.436
G1 F2400 X-40 Y16.581 E1125.62857
G0 F18000 X-40.5 Y16.581
G1 F2400 X-40.5 Y3.436 E1126.3117
G0 F18000 X-41 Y3.436
G1 F2400 X-41 Y16.581 E1126.99483
G0 F18000 X-41.5 Y16.581
G1 F2400 X-41.5 Y3.436 E1127.67797
G0 F18000 X-42 Y3.436
G1 F2400 X-42 Y16.581 E1128.3611
G0 F18000 X-42.5 Y16.581
G1 F2400 X-42.5 Y3.436 E1129.04423
G0 F18000 X-43 Y3.436
G1 F2400 X-43 Y16.582 E1129.72741
G0 F18000 X-43.5 Y16.582
G1 F2400 X-43.5 Y3.436 E1130.4106
G0 F18000 X-44 Y3.436
G1 F2400 X-44 Y16.582 E1131.09378
G0 F18000 X-44.5 Y16.582
G1 F2400 X-44.5 Y3.436 E1131.77697
G0 F18000 X-45 Y3.436
G1 F2400 X-45 Y16.582 E1132.46015
G0 F18000 X-45.5 Y16.592
G1 F2400 X-45.5 Y3.382 E1133.14666
G0 F18000 X-46 Y3.29
G1 F2400 X-46 Y16.728 E1133.84502
G0 F18000 X-46.5 Y16.917
G1 F2400 X-46.5 Y3.071 E1134.56458
G0 F18000 X-47 Y2.785
G1 F2400 X-47 Y17.209 E1135.31418
G0 F18000 X-47.5 Y17.666
G1 F2400 X-47.5 Y2.359 E1136.10967
G0 F18000 X-48 Y1.67
G1 F2400 X-48 Y18.361 E1136.97708
G0 F18000 X-48 Y19.502
G0 X-48.177 Y19.597
G0 X-48.174 Y20.431
G0 X-48 Y20.518
G0 X-48 Y21.638
G0 X-48 Y21.638
G1 F2400 X-47.999 Y29.754 E1137.39886
G0 F18000 X-48.499 Y29.754
G1 F2400 X-48.5 Y-29.753 E1140.49138
G0 F18000 X-49 Y-29.753
G1 F2400 X-48.999 Y29.754 E1143.58385
G0 F18000 X-49.499 Y29.754
G1 F2400 X-49.5 Y-29.753 E1146.67636
G0 F18000 X-50 Y-29.753
G1 F2400 X-49.999 Y29.754 E1149.76883
G0 F18000 X-50.499 Y29.754
G1 F2400 X-50.5 Y-29.753 E1152.86134
G0 F18000 X-51 Y-29.753
G1 F2400 X-50.999 Y29.754 E1155.95381
G0 F18000 X-51.499 Y29.754
G1 F2400 X-51.5 Y-29.753 E1159.04633
G0 F18000 X-52 Y-29.753
G1 F2400 X-51.999 Y29.754 E1162.13879
G0 F18000 X-52.499 Y29.754
G1 F2400 X-52.5 Y-29.753 E1165.23131
G0 F18000 X-53 Y-28.708
G1 F2400 X-53 Y28.709 E1168.21516
G0 F18000 X-53.5 Y28.709
G1 F2400 X-53.5 Y-28.708 E1171.19906
G0 F18000 X-47.891 Y19
G0 X-48.177 Y19.597
G0 X-48.174 Y20.431
G0 X-47.953 Y21.239
G0 X-47.58 Y21.64
G0 X-47.5 Y22.333
G0 X-47.5 Y22.333
G1 F2400 X-47.499 Y29.754 E1171.58472
G0 F18000 X-46.999 Y29.754
G1 F2400 X-47 Y22.793 E1171.94648
G0 F18000 X-46.5 Y23.078
G1 F2400 X-46.499 Y29.754 E1172.29342
G0 F18000 X-45.999 Y29.754
G1 F2400 X-46 Y23.27 E1172.63039
G0 F18000 X-45.5 Y23.402
G1 F2400 X-45.499 Y29.754 E1172.9605
G0 F18000 X-44.999 Y29.754
G1 F2400 X-45 Y23.419 E1173.28972
G0 F18000 X-44.5 Y23.419
G1 F2400 X-44.499 Y29.754 E1173.61894
G0 F18000 X-43.999 Y29.754
G1 F2400 X-44 Y23.419 E1173.94817
G0 F18000 X-43.5 Y23.419
G1 F2400 X-43.499 Y29.754 E1174.27739
G0 F18000 X-42.999 Y29.754
G1 F2400 X-43 Y23.419 E1174.60661
G0 F18000 X-42.5 Y23.42
G1 F2400 X-42.499 Y29.754 E1174.93578
G0 F18000 X-41.999 Y29.754
G1 F2400 X-42 Y23.42 E1175.26496
G0 F18000 X-41.5 Y23.42
G1 F2400 X-41.499 Y29.754 E1175.59413
G0 F18000 X-40.999 Y29.754
G1 F2400 X-41 Y23.42 E1175.9233
G0 F18000 X-40.5 Y23.42
G1 F2400 X-40.499 Y29.754 E1176.25247
G0 F18000 X-39.999 Y29.754
G1 F2400 X-40 Y23.42 E1176.58164
G0 F18000 X-39.5 Y23.42
G1 F2400 X-39.499 Y29.754 E1176.91081
G0 F18000 X-38.999 Y29.754
G1 F2400 X-39 Y23.42 E1177.23998
G0 F18000 X-38.5 Y23.42
G1 F2400 X-38.499 Y29.754 E1177.56916
G0 F18000 X-37.999 Y29.754
G1 F2400 X-38 Y23.42 E1177.89833
G0 F18000 X-37.5 Y23.42
G1 F2400 X-37.499 Y29.754 E1178.2275
G0 F18000 X-36.999 Y29.754
G1 F2400 X-37 Y23.42 E1178.55667
G0 F18000 X-36.5 Y23.421
G1 F2400 X-36.499 Y29.754 E1178.88579
G0 F18000 X-35.999 Y29.754
G1 F2400 X-36 Y23.421 E1179.21491
G0 F18000 X-35.5 Y23.421
G1 F2400 X-35.499 Y29.754 E1179.54403
G0 F18000 X-34.999 Y29.754
G1 F2400 X-35 Y23.421 E1179.87315
G0 F18000 X-34.5 Y23.421
G1 F2400 X-34.499 Y29.754 E1180.20227
G0 F18000 X-33.999 Y29.754
G1 F2400 X-34 Y23.421 E1180.53139
G0 F18000 X-33.5 Y23.421
G1 F2400 X-33.499 Y29.754 E1180.86051
G0 F18000 X-32.999 Y29.754
G1 F2400 X-33 Y23.421 E1181.18963
G0 F18000 X-32.499 Y23.421
G1 F2400 X-32.499 Y29.754 E1181.51874
G0 F18000 X-31.999 Y29.754
G1 F2400 X-31.999 Y23.421 E1181.84786
G0 F18000 X-31.499 Y23.421
G1 F2400 X-31.499 Y29.754 E1182.17698
G0 F18000 X-30.999 Y29.754
G1 F2400 X-30.999 Y23.422 E1182.50605
G0 F18000 X-30.499 Y23.422
G1 F2400 X-30.499 Y29.754 E1182.83512
G0 F18000 X-29.999 Y29.754
G1 F2400 X-29.999 Y23.422 E1183.16419
G0 F18000 X-29.499 Y23.422
G1 F2400 X-29.499 Y29.754 E1183.49325
G0 F18000 X-28.999 Y29.754
G1 F2400 X-28.999 Y23.422 E1183.82232
G0 F18000 X-28.499 Y23.422
G1 F2400 X-28.499 Y29.754 E1184.15139
G0 F18000 X-27.999 Y29.754
G1 F2400 X-27.999 Y23.422 E1184.48046
G0 F18000 X-27.499 Y23.422
G1 F2400 X-27.499 Y29.754 E1184.80952
G0 F18000 X-26.999 Y29.754
G1 F2400 X-26.999 Y23.422 E1185.13859
G0 F18000 X-26.499 Y23.422
G1 F2400 X-26.499 Y29.754 E1185.46766
G0 F18000 X-25.999 Y29.754
G1 F2400 X-25.999 Y23.422 E1185.79673
G0 F18000 X-25.499 Y23.423
G1 F2400 X-25.499 Y29.754 E1186.12574
G0 F18000 X-24.999 Y29.754
G1 F2400 X-24.999 Y23.423 E1186.45476
G0 F18000 X-24.499 Y23.423
G1 F2400 X-24.499 Y29.754 E1186.78377
G0 F18000 X-23.999 Y29.754
G1 F2400 X-23.999 Y23.423 E1187.11279
G0 F18000 X-23.499 Y23.423
G1 F2400 X-23.499 Y29.754 E1187.4418
G0 F18000 X-22.999 Y29.754
G1 F2400 X-22.999 Y23.423 E1187.77082
G0 F18000 X-22.499 Y23.423
G1 F2400 X-22.499 Y29.754 E1188.09983
G0 F18000 X-21.999 Y29.754
G1 F2400 X-21.999 Y23.423 E1188.42885
G0 F18000 X-21.499 Y23.423
G1 F2400 X-21.499 Y29.754 E1188.75787
G0 F18000 X-20.999 Y29.754
G1 F2400 X-20.999 Y23.423 E1189.08688
G0 F18000 X-20.499 Y23.423
G1 F2400 X-20.499 Y29.754 E1189.4159
G0 F18000 X-19.999 Y29.754
G1 F2400 X-19.999 Y23.423 E1189.74491
G0 F18000 X-19.499 Y23.424
G1 F2400 X-19.499 Y29.754 E1190.07388
G0 F18000 X-18.999 Y29.754
G1 F2400 X-18.999 Y23.424 E1190.40284
G0 F18000 X-18.499 Y23.424
G1 F2400 X-18.499 Y29.754 E1190.7318
G0 F18000 X-17.999 Y29.754
G1 F2400 X-17.999 Y23.424 E1191.06077
G0 F18000 X-17.499 Y23.424
G1 F2400 X-17.499 Y29.754 E1191.38973
G0 F18000 X-16.999 Y29.754
G1 F2400 X-16.999 Y23.424 E1191.71869
G0 F18000 X-16.499 Y23.424
G1 F2400 X-16.499 Y29.754 E1192.04766
G0 F18000 X-15.999 Y29.754
G1 F2400 X-15.999 Y23.424 E1192.37662
G0 F18000 X-15.499 Y23.424
G1 F2400 X-15.499 Y29.754 E1192.70558
G0 F18000 X-14.999 Y29.754
G1 F2400 X-14.999 Y23.424 E1193.03455
G0 F18000 X-14.499 Y23.424
G1 F2400 X-14.499 Y29.754 E1193.36351
G0 F18000 X-13.999 Y29.754
G1 F2400 X-13.999 Y23.425 E1193.69242
G0 F18000 X-13.499 Y23.425
G1 F2400 X-13.499 Y29.754 E1194.02133
G0 F18000 X-12.999 Y29.754
G1 F2400 X-12.999 Y23.425 E1194.35025
G0 F18000 X-12.499 Y23.425
G1 F2400 X-12.499 Y29.754 E1194.67916
G0 F18000 X-11.999 Y29.754
G1 F2400 X-11.999 Y23.425 E1195.00807
G0 F18000 X-11.499 Y23.425
G1 F2400 X-11.499 Y29.754 E1195.33698
G0 F18000 X-10.999 Y29.754
G1 F2400 X-10.999 Y23.425 E1195.66589
G0 F18000 X-10.499 Y23.425
G1 F2400 X-10.499 Y29.754 E1195.9948
G0 F18000 X-9.999 Y29.754
G1 F2400 X-9.999 Y23.425 E1196.32371
G0 F18000 X-9.499 Y23.425
G1 F2400 X-9.499 Y29.754 E1196.65263
G0 F18000 X-8.999 Y29.754
G1 F2400 X-8.999 Y23.425 E1196.98154
G0 F18000 X-8.499 Y23.426
G1 F2400 X-8.499 Y29.754 E1197.3104
G0 F18000 X-7.999 Y29.754
G1 F2400 X-7.999 Y23.426 E1197.63926
G0 F18000 X-7.499 Y23.426
G1 F2400 X-7.499 Y29.754 E1197.96812
G0 F18000 X-6.999 Y29.754
G1 F2400 X-6.999 Y23.426 E1198.29698
G0 F18000 X-6.499 Y23.426
G1 F2400 X-6.499 Y29.754 E1198.62584
G0 F18000 X-5.999 Y29.754
G1 F2400 X-5.999 Y23.426 E1198.9547
G0 F18000 X-5.499 Y23.426
G1 F2400 X-5.499 Y29.754 E1199.28355
G0 F18000 X-4.999 Y29.754
G1 F2400 X-4.999 Y23.426 E1199.61241
G0 F18000 X-4.499 Y23.426
G1 F2400 X-4.499 Y29.754 E1199.94127
G0 F18000 X-3.999 Y29.754
G1 F2400 X-3.999 Y23.426 E1200.27013
G0 F18000 X-3.499 Y23.426
G1 F2400 X-3.499 Y29.754 E1200.59899
G0 F18000 X-2.999 Y29.754
G1 F2400 X-2.999 Y23.426 E1200.92785
G0 F18000 X-2.499 Y23.427
G1 F2400 X-2.499 Y29.754 E1201.25666
G0 F18000 X-1.999 Y29.754
G1 F2400 X-1.999 Y23.427 E1201.58547
G0 F18000 X-1.499 Y23.427
G1 F2400 X-1.499 Y29.754 E1201.91428
G0 F18000 X-0.999 Y29.754
G1 F2400 X-0.999 Y23.427 E1202.24308
G0 F18000 X-0.499 Y23.427
G1 F2400 X-0.499 Y29.754 E1202.57189
G0 F18000 X0 Y29.754
G1 F2400 X0 Y23.427 E1202.9007
G0 F18000 X0.5 Y23.427
G1 F2400 X0.5 Y29.755 E1203.22956
G0 F18000 X1 Y29.755
G1 F2400 X1 Y23.427 E1203.55842
G0 F18000 X1.5 Y23.427
G1 F2400 X1.5 Y29.755 E1203.88728
G0 F18000 X2 Y29.755
G1 F2400 X2 Y23.427 E1204.21614
G0 F18000 X2.5 Y23.427
G1 F2400 X2.5 Y29.755 E1204.545
G0 F18000 X3 Y29.755
G1 F2400 X3 Y23.428 E1204.8738
G0 F18000 X3.5 Y23.428
G1 F2400 X3.5 Y29.755 E1205.20261
G0 F18000 X4 Y29.755
G1 F2400 X4 Y23.428 E1205.53142
G0 F18000 X4.5 Y23.428
G1 F2400 X4.5 Y29.755 E1205.86023
G0 F18000 X5 Y29.755
G1 F2400 X5 Y23.428 E1206.18903
G0 F18000 X5.5 Y23.428
G1 F2400 X5.5 Y29.755 E1206.51784
G0 F18000 X6 Y29.755
G1 F2400 X6 Y23.428 E1206.84665
G0 F18000 X6.5 Y23.428
G1 F2400 X6.5 Y29.755 E1207.17546
G0 F18000 X7 Y29.755
G1 F2400 X7 Y23.428 E1207.50426
G0 F18000 X7.5 Y23.428
G1 F2400 X7.5 Y29.755 E1207.83307
G0 F18000 X8 Y29.755
G1 F2400 X8 Y23.428 E1208.16188
G0 F18000 X8.5 Y23.429
G1 F2400 X8.5 Y29.755 E1208.49064
G0 F18000 X9 Y29.755
G1 F2400 X9 Y23.429 E1208.81939
G0 F18000 X9.5 Y23.429
G1 F2400 X9.5 Y29.755 E1209.14815
G0 F18000 X10 Y29.755
G1 F2400 X10 Y23.429 E1209.4769
G0 F18000 X10.5 Y23.429
G1 F2400 X10.5 Y29.755 E1209.80566
G0 F18000 X11 Y29.755
G1 F2400 X11 Y23.429 E1210.13441
G0 F18000 X11.5 Y23.429
G1 F2400 X11.5 Y29.755 E1210.46317
G0 F18000 X12 Y29.755
G1 F2400 X12 Y23.429 E1210.79193
G0 F18000 X12.5 Y23.429
G1 F2400 X12.5 Y29.755 E1211.12068
G0 F18000 X13 Y29.755
G1 F2400 X13 Y23.429 E1211.44944
G0 F18000 X13.5 Y23.429
G1 F2400 X13.5 Y29.755 E1211.77819
G0 F18000 X14 Y29.755
G1 F2400 X14 Y23.429 E1212.10695
G0 F18000 X14.5 Y23.43
G1 F2400 X14.5 Y29.755 E1212.43565
G0 F18000 X15 Y29.754
G1 F2400 X15 Y23.429 E1212.76436
G0 F18000 X15.5 Y23.429
G1 F2400 X15.5 Y29.754 E1213.09306
G0 F18000 X16 Y29.754
G1 F2400 X16 Y23.429 E1213.42176
G0 F18000 X16.5 Y23.429
G1 F2400 X16.5 Y29.754 E1213.75047
G0 F18000 X17 Y29.754
G1 F2400 X17 Y23.429 E1214.07917
G0 F18000 X17.5 Y23.429
G1 F2400 X17.5 Y29.754 E1214.40787
G0 F18000 X18 Y29.754
G1 F2400 X18 Y23.429 E1214.73658
G0 F18000 X18.5 Y23.429
G1 F2400 X18.5 Y29.754 E1215.06528
G0 F18000 X19 Y29.754
G1 F2400 X19 Y23.429 E1215.39398
G0 F18000 X19.5 Y23.429
G1 F2400 X19.5 Y29.754 E1215.72269
G0 F18000 X20 Y29.754
G1 F2400 X20 Y23.43 E1216.05134
G0 F18000 X20.5 Y23.43
G1 F2400 X20.5 Y29.754 E1216.37999
G0 F18000 X21 Y29.754
G1 F2400 X21 Y23.43 E1216.70864
G0 F18000 X21.5 Y23.43
G1 F2400 X21.5 Y29.754 E1217.0373
G0 F18000 X22 Y29.754
G1 F2400 X22 Y23.43 E1217.36595
G0 F18000 X22.5 Y23.43
G1 F2400 X22.5 Y29.754 E1217.6946
G0 F18000 X23 Y29.754
G1 F2400 X23 Y23.43 E1218.02325
G0 F18000 X23.5 Y23.43
G1 F2400 X23.5 Y29.754 E1218.3519
G0 F18000 X24 Y29.754
G1 F2400 X24 Y23.43 E1218.68055
G0 F18000 X24.5 Y23.43
G1 F2400 X24.5 Y29.754 E1219.00921
G0 F18000 X25 Y29.754
G1 F2400 X25 Y23.43 E1219.33786
G0 F18000 X25.5 Y23.431
G1 F2400 X25.5 Y29.754 E1219.66646
G0 F18000 X26 Y29.754
G1 F2400 X26 Y23.431 E1219.99506
G0 F18000 X26.5 Y23.431
G1 F2400 X26.5 Y29.754 E1220.32366
G0 F18000 X27 Y29.754
G1 F2400 X27 Y23.431 E1220.65226
G0 F18000 X27.5 Y23.431
G1 F2400 X27.5 Y29.754 E1220.98086
G0 F18000 X28 Y29.754
G1 F2400 X28 Y23.431 E1221.30946
G0 F18000 X28.5 Y23.431
G1 F2400 X28.5 Y29.754 E1221.63806
G0 F18000 X29 Y29.754
G1 F2400 X29 Y23.431 E1221.96666
G0 F18000 X29.5 Y23.431
G1 F2400 X29.5 Y29.754 E1222.29525
G0 F18000 X30 Y29.754
G1 F2400 X30 Y23.431 E1222.62385
G0 F18000 X30.5 Y23.431
G1 F2400 X30.5 Y29.754 E1222.95245
G0 F18000 X31 Y29.754
G1 F2400 X31 Y23.431 E1223.28105
G0 F18000 X31.5 Y23.432
G1 F2400 X31.5 Y29.754 E1223.6096
G0 F18000 X32 Y29.754
G1 F2400 X32 Y23.432 E1223.93815
G0 F18000 X32.5 Y23.432
G1 F2400 X32.5 Y29.754 E1224.2667
G0 F18000 X33 Y29.754
G1 F2400 X33 Y23.432 E1224.59525
G0 F18000 X33.5 Y23.432
G1 F2400 X33.5 Y29.754 E1224.92379
G0 F18000 X34 Y29.754
G1 F2400 X34 Y23.432 E1225.25234
G0 F18000 X34.5 Y23.432
G1 F2400 X34.5 Y29.754 E1225.58089
G0 F18000 X35 Y29.754
G1 F2400 X35 Y23.432 E1225.90944
G0 F18000 X35.5 Y23.432
G1 F2400 X35.5 Y29.754 E1226.23798
G0 F18000 X36 Y29.754
G1 F2400 X36 Y23.432 E1226.56653
G0 F18000 X36.5 Y23.432
G1 F2400 X36.5 Y29.754 E1226.89508
G0 F18000 X37 Y29.754
G1 F2400 X37 Y23.433 E1227.22358
G0 F18000 X37.5 Y23.433
G1 F2400 X37.5 Y29.754 E1227.55207
G0 F18000 X38 Y29.754
G1 F2400 X38 Y23.433 E1227.88057
G0 F18000 X38.5 Y23.433
G1 F2400 X38.5 Y29.754 E1228.20906
G0 F18000 X39 Y29.754
G1 F2400 X39 Y23.433 E1228.53756
G0 F18000 X39.5 Y23.433
G1 F2400 X39.5 Y29.754 E1228.86605
G0 F18000 X40 Y29.754
G1 F2400 X40 Y23.433 E1229.19455
G0 F18000 X40.5 Y23.433
G1 F2400 X40.5 Y29.754 E1229.52305
G0 F18000 X41 Y29.754
G1 F2400 X41 Y23.433 E1229.85154
G0 F18000 X41.5 Y23.433
G1 F2400 X41.5 Y29.754 E1230.18004
G0 F18000 X42 Y29.754
G1 F2400 X42 Y23.433 E1230.50853
G0 F18000 X42.5 Y23.434
G1 F2400 X42.5 Y29.754 E1230.83698
G0 F18000 X43 Y29.754
G1 F2400 X43 Y23.434 E1231.16542
G0 F18000 X43.5 Y23.434
G1 F2400 X43.5 Y29.754 E1231.49386
G0 F18000 X44 Y29.754
G1 F2400 X44 Y23.434 E1231.82231
G0 F18000 X44.5 Y23.434
G1 F2400 X44.5 Y29.754 E1232.15075
G0 F18000 X45 Y29.754
G1 F2400 X45 Y23.434 E1232.4792
G0 F18000 X45.5 Y23.384
G1 F2400 X45.5 Y29.754 E1232.81024
G0 F18000 X46 Y29.754
G1 F2400 X46 Y23.287 E1233.14632
G0 F18000 X46.5 Y23.071
G1 F2400 X46.5 Y29.754 E1233.49363
G0 F18000 X47 Y29.754
G1 F2400 X47 Y22.791 E1233.85549
G0 F18000 X47.5 Y22.356
G1 F2400 X47.5 Y29.754 E1234.23996
G0 F18000 X48 Y29.754
G1 F2400 X48 Y21.664 E1234.66039
; LAYER:2
M106 S153
G0 F18000 X55.039 Y30.29 Z0.8
; TYPE:SUPPORT
G1 F2400 X55.485 Y30.737 E1234.69976
G1 F6600 E1227.89976
G1 Z1.1
G0 F18000 X54.563 Y-30.288
G1 Z0.8
G1 F6600 E1234.79976
G1 F2400 X54.35 Y-30.502 E1234.81864
G0 F18000 X52.961 Y-30.148
; TYPE:WALL-INNER
G1 F2400 X52.961 Y-28.899 E1234.8835
G1 X54.21 Y-28.899 E1234.9484
G1 X54.21 Y28.9 E1237.95211
G1 X52.961 Y28.9 E1238.01702
G1 X52.961 Y30.149 E1238.08193
G1 X-52.959 Y30.149 E1243.58648
G1 X-52.959 Y28.9 E1243.65139
G1 X-54.208 Y28.9 E1243.71635
G1 X-54.208 Y-28.899 E1246.7201
G1 X-52.959 Y-28.899 E1246.78496
G1 X-52.959 Y-30.148 E1246.84992
G1 X52.961 Y-30.148 E1252.35442
G0 F18000 X47.303 Y-22.302
G0 X47.303 Y-22.302
G1 F2400 X46.628 Y-22.819 E1252.39864
G1 X45.843 Y-23.145 E1252.44283
G1 X45.049 Y-23.249 E1252.48445
G1 X-45.303 Y-23.239 E1257.17995
G1 X-46.116 Y-23.058 E1257.22328
G1 X-46.871 Y-22.664 E1257.26756
G1 X-47.496 Y-22.088 E1257.31173
G1 X-47.952 Y-21.371 E1257.35588
G1 X-48.206 Y-20.56 E1257.40001
G1 X-48.243 Y-19.711 E1257.44412
G1 X-48.058 Y-18.882 E1257.4882
G1 X-47.664 Y-18.127 E1257.53239
G1 X-47.088 Y-17.502 E1257.57649
G1 X-46.371 Y-17.046 E1257.62057
G1 X-45.559 Y-16.791 E1257.66474
G1 X-44.793 Y-16.759 E1257.70453
G1 X45.049 Y-16.749 E1262.37347
G1 X45.843 Y-16.853 E1262.41509
G1 X46.628 Y-17.179 E1262.45929
G1 X47.303 Y-17.696 E1262.50351
G1 X47.82 Y-18.371 E1262.54773
G1 X48.146 Y-19.156 E1262.59196
G1 X48.256 Y-19.999 E1262.63619
G1 X48.146 Y-20.842 E1262.68042
G1 X47.82 Y-21.627 E1262.72464
G1 X47.303 Y-22.302 E1262.76887
G0 F18000 X47.286 Y-22.134
G0 X47.775 Y-21.6
G0 X48.095 Y-20.828
G0 X48.204 Y-19.999
G0 X48.095 Y-19.17
G0 X47.775 Y-18.398
G0 X47.266 Y-17.733
G0 X46.853 Y-17.48
G0 X45.527 Y-3.214
G0 X45.527 Y-3.214
G1 F2400 X-45.025 Y-3.229 E1267.47476
G1 X-45.679 Y-3.184 E1267.50888
G1 X-46.483 Y-2.897 E1267.55328
G1 X-47.182 Y-2.414 E1267.59744
G1 X-47.733 Y-1.767 E1267.6416
G1 X-48.098 Y-1 E1267.68572
G1 X-48.252 Y-0.163 E1267.72991
G1 X-48.183 Y0.684 E1267.77402
G1 X-47.897 Y1.485 E1267.8182
G1 X-47.414 Y2.184 E1267.86233
G1 X-46.766 Y2.736 E1267.90652
G1 X-45.998 Y3.099 E1267.95062
G1 X-45.192 Y3.247 E1267.99316
G1 X45.324 Y3.239 E1272.69713
G1 X46.139 Y3.051 E1272.7406
G1 X46.89 Y2.652 E1272.78479
G1 X47.511 Y2.073 E1272.82892
G1 X47.963 Y1.352 E1272.87314
G1 X48.212 Y0.539 E1272.91733
G1 X48.242 Y-0.309 E1272.96142
G1 X48.052 Y-1.137 E1273.00562
G1 X47.653 Y-1.888 E1273.04987
G1 X47.074 Y-2.51 E1273.09407
G1 X46.353 Y-2.961 E1273.13829
G1 X45.527 Y-3.214 E1273.1832
G1 F6600 E1266.3832
G1 Z1.1
G0 F18000 X45.524 Y-3.162
G0 X45.519 Y-3.161
G0 X46.33 Y-2.914
G0 X47.04 Y-2.47
G0 X47.61 Y-1.858
G0 X48.003 Y-1.118
G0 X48.074 Y-0.814
G0 X48.19 Y-0.304
G0 X48.16 Y0.529
G0 X47.916 Y1.331
G0 X47.471 Y2.039
G0 X46.86 Y2.609
G0 X46.119 Y3.001
G0 X45.317 Y3.182
G0 X44.873 Y16.755
G0 X44.873 Y16.755
G1 Z0.8
G1 F6600 E1273.2832
G1 F2400 X-45.437 Y16.773 E1277.97652
G1 X-46.258 Y16.997 E1278.02079
G1 X-46.992 Y17.425 E1278.06499
G1 X-47.591 Y18.029 E1278.10924
G1 X-48.013 Y18.767 E1278.15344
G1 X-48.229 Y19.59 E1278.19768
G1 X-48.226 Y20.439 E1278.2418
G1 X-48.002 Y21.26 E1278.28601
G1 X-47.573 Y21.994 E1278.33017
G1 X-46.97 Y22.592 E1278.37426
G1 X-46.231 Y23.014 E1278.41845
G1 X-45.411 Y23.23 E1278.46246
G1 X45.225 Y23.245 E1283.17267
G1 X46.034 Y23.088 E1283.2155
G1 X46.799 Y22.715 E1283.25973
G1 X47.44 Y22.157 E1283.30389
G1 X47.915 Y21.452 E1283.34807
G1 X48.191 Y20.649 E1283.3922
G1 X48.251 Y19.801 E1283.43638
G1 X48.088 Y18.966 E1283.48059
G1 X47.716 Y18.202 E1283.52475
G1 X47.157 Y17.56 E1283.56899
G1 X46.452 Y17.085 E1283.61317
G1 X45.648 Y16.809 E1283.65735
G1 X44.873 Y16.755 E1283.69772
G0 F18000 X44.856 Y17.255
; TYPE:WALL-OUTER
G1 F2100 X-45.37 Y17.273 E1288.38667
G1 X-46.063 Y17.462 E1288.42405
G1 X-46.683 Y17.824 E1288.46141
G1 X-47.19 Y18.334 E1288.49882
G1 X-47.546 Y18.958 E1288.53618
G1 X-47.729 Y19.653 E1288.57354
G1 X-47.726 Y20.371 E1288.61085
G1 X-47.537 Y21.065 E1288.64822
G1 X-47.174 Y21.685 E1288.68553
G1 X-46.665 Y22.191 E1288.72279
G1 X-46.04 Y22.547 E1288.76013
G1 X-45.346 Y22.73 E1288.79738
G1 X45.177 Y22.745 E1293.50171
G1 X45.874 Y22.61 E1293.53861
G1 X46.52 Y22.294 E1293.57598
G1 X47.062 Y21.823 E1293.6133
G1 X47.464 Y21.227 E1293.65066
G1 X47.697 Y20.548 E1293.68796
G1 X47.748 Y19.832 E1293.72527
G1 X47.61 Y19.126 E1293.76265
G1 X47.295 Y18.481 E1293.79996
G1 X46.823 Y17.938 E1293.83735
G1 X46.227 Y17.536 E1293.87471
G1 X45.548 Y17.303 E1293.91201
G1 X44.856 Y17.255 E1293.94806
G0 F18000 X44.88 Y16.907
G0 X45.34 Y3.188
G0 X45.353 Y2.788
G0 X45.345 Y3.08
G0 X45.345 Y3.08
G0 X45.267 Y2.739
G1 F2100 X45.962 Y2.578 E1293.98514
G1 X46.597 Y2.241 E1294.0225
G1 X47.122 Y1.752 E1294.05978
G1 X47.504 Y1.143 E1294.09714
G1 X47.715 Y0.456 E1294.13449
G1 X47.74 Y-0.261 E1294.17178
G1 X47.579 Y-0.961 E1294.20915
G1 X47.242 Y-1.595 E1294.24651
G1 X46.753 Y-2.121 E1294.28388
G1 X46.144 Y-2.502 E1294.32124
G1 X45.452 Y-2.714 E1294.35886
G1 X-45.008 Y-2.729 E1299.05998
G1 X-45.576 Y-2.69 E1299.08961
G1 X-46.253 Y-2.448 E1299.12701
G1 X-46.844 Y-2.04 E1299.16434
G1 X-47.31 Y-1.493 E1299.20168
G1 X-47.618 Y-0.845 E1299.23894
G1 X-47.748 Y-0.138 E1299.27626
G1 X-47.69 Y0.578 E1299.31353
G1 X-47.448 Y1.255 E1299.35088
G1 X-47.04 Y1.846 E1299.38817
G1 X-46.493 Y2.312 E1299.42548
G1 X-45.843 Y2.619 E1299.46279
G1 X-45.147 Y2.747 E1299.49951
G1 X45.267 Y2.739 E1304.19818
G1 F6600 E1297.39818
G1 Z1.1
G0 F18000 X45.345 Y3.08
G0 X45.345 Y3.177
G0 X46.119 Y3.001
G0 X46.86 Y2.609
G0 X47.471 Y2.039
G0 X47.916 Y1.331
G0 X48.16 Y0.529
G0 X48.19 Y-0.304
G0 X48.074 Y-0.814
G0 X48.003 Y-1.118
G0 X47.61 Y-1.858
G0 X47.04 Y-2.47
G0 X46.33 Y-2.914
G0 X45.519 Y-3.161
G0 X45.24 Y-3.163
G0 X45.015 Y-16.795
G0 X45.009 Y-17.195
G0 X45.015 Y-16.9
G0 X45.015 Y-16.9
G0 X45.016 Y-17.249
G1 Z0.8
G1 F6600 E1304.29818
G1 F2100 X45.712 Y-17.34 E1304.33467
G1 X46.376 Y-17.616 E1304.37206
G1 X46.946 Y-18.053 E1304.40942
G1 X47.383 Y-18.623 E1304.44678
G1 X47.659 Y-19.287 E1304.4842
G1 X47.752 Y-19.999 E1304.52157
G1 X47.659 Y-20.711 E1304.55894
G1 X47.383 Y-21.375 E1304.59635
G1 X46.946 Y-21.945 E1304.63372
G1 X46.376 Y-22.382 E1304.67108
G1 X45.712 Y-22.658 E1304.70847
G1 X45.016 Y-22.749 E1304.74495
G1 X-45.248 Y-22.739 E1309.43588
G1 X-45.943 Y-22.584 E1309.47293
G1 X-46.581 Y-22.251 E1309.51035
G1 X-47.109 Y-21.765 E1309.54765
G1 X-47.495 Y-21.158 E1309.58501
G1 X-47.709 Y-20.473 E1309.62227
G1 X-47.74 Y-19.756 E1309.65952
G1 X-47.584 Y-19.055 E1309.69678
G1 X-47.251 Y-18.417 E1309.73411
G1 X-46.765 Y-17.889 E1309.77133
G1 X-46.158 Y-17.503 E1309.80864
G1 X-45.472 Y-17.288 E1309.84594
G1 X-44.782 Y-17.259 E1309.88178
G1 X45.016 Y-17.249 E1314.54843
G0 F18000 X45.015 Y-16.9
G0 X44.972 Y-16.836
G0 X45.829 Y-16.904
G0 X46.601 Y-17.224
G0 X47.266 Y-17.733
G0 X47.775 Y-18.398
G0 X48.095 Y-19.17
G0 X48.204 Y-19.999
G0 X48.095 Y-20.828
G0 X47.863 Y-21.298
G0 X53.111 Y-29.399
G0 X53.111 Y-29.399
G0 X53.461 Y-29.399
G1 F2100 X54.71 Y-29.399 E1314.61334
G1 X54.71 Y29.4 E1317.66901
G1 X53.461 Y29.4 E1317.73392
G1 X53.461 Y30.649 E1317.79883
G1 X-53.459 Y30.649 E1323.35535
G1 X-53.459 Y29.4 E1323.42026
G1 X-54.708 Y29.4 E1323.48522
G1 X-54.708 Y-29.399 E1326.54095
G1 X-53.459 Y-29.399 E1326.6058
G1 X-53.459 Y-30.648 E1326.67076
G1 X53.461 Y-30.648 E1332.22723
G1 X53.461 Y-29.399 E1332.29209
G0 F18000 X52.771 Y-29.5
; TYPE:FILL
G1 F2400 X-52.769 Y-29.499 E1337.77689
G0 F18000 X-52.769 Y-28.999
G1 F2400 X52.771 Y-29 E1343.26165
G0 F18000 X54.02 Y-28.5
G1 F2400 X-54.018 Y-28.499 E1348.87627
G0 F18000 X-54.018 Y-27.999
G1 F2400 X54.02 Y-28 E1354.49084
G0 F18000 X54.02 Y-27.5
G1 F2400 X-54.018 Y-27.499 E1360.10546
G0 F18000 X-54.018 Y-26.999
G1 F2400 X54.02 Y-27 E1365.72003
G0 F18000 X54.02 Y-26.5
G1 F2400 X-54.018 Y-26.499 E1371.33466
G0 F18000 X-54.018 Y-25.999
G1 F2400 X54.02 Y-26 E1376.94923
G0 F18000 X54.02 Y-25.5
G1 F2400 X-54.018 Y-25.499 E1382.56385
G0 F18000 X-54.018 Y-24.999
G1 F2400 X54.02 Y-25 E1388.17842
G0 F18000 X54.02 Y-24.5
G1 F2400 X-54.018 Y-24.499 E1393.79304
G0 F18000 X-54.018 Y-23.999
G1 F2400 X54.02 Y-24 E1399.40761
G0 F18000 X54.02 Y-23.5
G1 F2400 X-54.018 Y-23.499 E1405.02224
G0 F18000 X-54.018 Y-22.999
G1 F2400 X-46.638 Y-22.999 E1405.40571
G0 F18000 X-47.329 Y-22.499
G1 F2400 X-54.018 Y-22.499 E1405.75339
G0 F18000 X-54.018 Y-21.999
G1 F2400 X-47.776 Y-21.999 E1406.07773
G0 F18000 X-48.095 Y-21.499
G1 F2400 X-54.018 Y-21.499 E1406.38559
G0 F18000 X-54.018 Y-20.999
G1 F2400 X-48.268 Y-20.999 E1406.68436
G0 F18000 X-48.398 Y-20.499
G1 F2400 X-54.018 Y-20.499 E1406.97648
G0 F18000 X-54.018 Y-19.999
G1 F2400 X-48.42 Y-19.999 E1407.26735
G0 F18000 X-48.39 Y-19.499
G1 F2400 X-54.018 Y-19.499 E1407.55988
G0 F18000 X-54.018 Y-18.999
G1 F2400 X-48.279 Y-18.999 E1407.85808
G0 F18000 X-48.073 Y-18.499
G1 F2400 X-54.018 Y-18.499 E1408.16709
G0 F18000 X-54.018 Y-17.999
G1 F2400 X-47.805 Y-17.999 E1408.48992
G0 F18000 X-47.344 Y-17.499
G1 F2400 X-54.018 Y-17.499 E1408.83681
G0 F18000 X-54.018 Y-16.999
G1 F2400 X-46.652 Y-16.999 E1409.21956
G0 F18000 X-54.018 Y-16.499
G1 F2400 X54.02 Y-16.5 E1414.83413
G0 F18000 X54.02 Y-16
G1 F2400 X-54.018 Y-15.999 E1420.44875
G0 F18000 X-54.018 Y-15.499
G1 F2400 X54.02 Y-15.5 E1426.06332
G0 F18000 X54.02 Y-15
G1 F2400 X-54.018 Y-14.999 E1431.67795
G0 F18000 X-54.018 Y-14.499
G1 F2400 X54.02 Y-14.5 E1437.29252
G0 F18000 X54.02 Y-14
G1 F2400 X-54.018 Y-13.999 E1442.90714
G0 F18000 X-54.018 Y-13.499
G1 F2400 X54.02 Y-13.5 E1448.52171
G0 F18000 X54.02 Y-13
G1 F2400 X-54.018 Y-12.999 E1454.13633
G0 F18000 X-54.018 Y-12.499
G1 F2400 X54.02 Y-12.5 E1459.7509
G0 F18000 X54.02 Y-12
G1 F2400 X-54.018 Y-11.999 E1465.36553
G0 F18000 X-54.018 Y-11.499
G1 F2400 X54.02 Y-11.5 E1470.9801
G0 F18000 X54.02 Y-11
G1 F2400 X-54.018 Y-10.999 E1476.59472
G0 F18000 X-54.018 Y-10.499
G1 F2400 X54.02 Y-10.5 E1482.20929
G0 F18000 X54.02 Y-10
G1 F2400 X-54.018 Y-9.999 E1487.82391
G0 F18000 X-54.018 Y-9.499
G1 F2400 X54.02 Y-9.5 E1493.43848
G0 F18000 X54.02 Y-9
G1 F2400 X-54.018 Y-8.999 E1499.05311
G0 F18000 X-54.018 Y-8.499
G1 F2400 X54.02 Y-8.5 E1504.66768
G0 F18000 X54.02 Y-8
G1 F2400 X-54.018 Y-7.999 E1510.2823
G0 F18000 X-54.018 Y-7.499
G1 F2400 X54.02 Y-7.5 E1515.89687
G0 F18000 X54.02 Y-7
G1 F2400 X-54.018 Y-6.999 E1521.51149
G0 F18000 X-54.018 Y-6.499
G1 F2400 X54.02 Y-6.5 E1527.12606
G0 F18000 X54.02 Y-6
G1 F2400 X-54.018 Y-5.999 E1532.74069
G0 F18000 X-54.018 Y-5.499
G1 F2400 X54.02 Y-5.5 E1538.35526
G0 F18000 X54.02 Y-5
G1 F2400 X-54.018 Y-4.999 E1543.96988
G0 F18000 X-54.018 Y-4.499
G1 F2400 X54.02 Y-4.5 E1549.58445
G0 F18000 X54.02 Y-4
G1 F2400 X-54.018 Y-3.999 E1555.19907
G0 F18000 X-54.018 Y-3.499
G1 F2400 X54.02 Y-3.5 E1560.81364
G0 F18000 X54.02 Y-3
G1 F2400 X46.647 Y-3 E1561.19681
G0 F18000 X47.342 Y-2.5
G1 F2400 X54.02 Y-2.5 E1561.54386
G0 F18000 X54.02 Y-2
G1 F2400 X47.806 Y-2 E1561.86679
G0 F18000 X48.073 Y-1.5
G1 F2400 X54.02 Y-1.5 E1562.17585
G0 F18000 X54.02 Y-1
G1 F2400 X48.278 Y-1 E1562.47426
G0 F18000 X48.394 Y-0.5
G1 F2400 X54.02 Y-0.5 E1562.76664
G0 F18000 X54.02 Y0
G1 F2400 X48.421 Y0 E1563.05761
G0 F18000 X48.404 Y0.499
G1 F2400 X54.02 Y0.499 E1563.34947
G0 F18000 X54.02 Y0.999
G1 F2400 X48.27 Y0.999 E1563.64829
G0 F18000 X48.094 Y1.499
G1 F2400 X54.02 Y1.499 E1563.95626
G0 F18000 X54.02 Y1.999
G1 F2400 X47.781 Y1.999 E1564.28049
G0 F18000 X47.331 Y2.499
G1 F2400 X54.02 Y2.499 E1564.62811
G0 F18000 X54.02 Y2.999
G1 F2400 X46.639 Y2.999 E1565.0117
G0 F18000 X54.02 Y3.499
G0 X54.02 Y3.499
G1 F2400 X-54.018 Y3.5 E1570.62632
G0 F18000 X-54.018 Y3
G1 F2400 X-46.651 Y3 E1571.00912
G0 F18000 X-47.335 Y2.5
G1 F2400 X-54.018 Y2.5 E1571.35648
G0 F18000 X-54.018 Y2
G1 F2400 X-47.772 Y2 E1571.68103
G0 F18000 X-48.093 Y1.5
G1 F2400 X-54.018 Y1.5 E1571.989
G0 F18000 X-54.018 Y1
G1 F2400 X-48.272 Y1 E1572.28756
G0 F18000 X-48.388 Y0.5
G1 F2400 X-54.018 Y0.5 E1572.5802
G0 F18000 X-54.018 Y0
G1 F2400 X-48.429 Y0 E1572.8706
G0 F18000 X-48.383 Y-0.499
G1 F2400 X-54.018 Y-0.499 E1573.1635
G0 F18000 X-54.018 Y-0.999
G1 F2400 X-48.291 Y-0.999 E1573.46107
G0 F18000 X-48.071 Y-1.499
G1 F2400 X-54.018 Y-1.499 E1573.77018
G0 F18000 X-54.018 Y-1.999
G1 F2400 X-47.784 Y-1.999 E1574.0941
G0 F18000 X-47.358 Y-2.499
G1 F2400 X-54.018 Y-2.499 E1574.44027
G0 F18000 X-54.018 Y-2.999
G1 F2400 X-46.669 Y-2.999 E1574.82214
G0 F18000 X-54.018 Y4
G0 X-54.018 Y4
G1 F2400 X54.02 Y3.999 E1580.43671
G0 F18000 X54.02 Y4.499
G1 F2400 X-54.018 Y4.5 E1586.05133
G0 F18000 X-54.018 Y5
G1 F2400 X54.02 Y4.999 E1591.6659
G0 F18000 X54.02 Y5.499
G1 F2400 X-54.018 Y5.5 E1597.28052
G0 F18000 X-54.018 Y6
G1 F2400 X54.02 Y5.999 E1602.89509
G0 F18000 X54.02 Y6.499
G1 F2400 X-54.018 Y6.5 E1608.50972
G0 F18000 X-54.018 Y7
G1 F2400 X54.02 Y6.999 E1614.12429
G0 F18000 X54.02 Y7.499
G1 F2400 X-54.018 Y7.5 E1619.73891
G0 F18000 X-54.018 Y8
G1 F2400 X54.02 Y7.999 E1625.35348
G0 F18000 X54.02 Y8.499
G1 F2400 X-54.018 Y8.5 E1630.9681
G0 F18000 X-54.018 Y9
G1 F2400 X54.02 Y8.999 E1636.58267
G0 F18000 X54.02 Y9.499
G1 F2400 X-54.018 Y9.5 E1642.1973
G0 F18000 X-54.018 Y10
G1 F2400 X54.02 Y9.999 E1647.81187
G0 F18000 X54.02 Y10.499
G1 F2400 X-54.018 Y10.5 E1653.42649
G0 F18000 X-54.018 Y11
G1 F2400 X54.02 Y10.999 E1659.04106
G0 F18000 X54.02 Y11.499
G1 F2400 X-54.018 Y11.5 E1664.65568
G0 F18000 X-54.018 Y12
G1 F2400 X54.02 Y11.999 E1670.27025
G0 F18000 X54.02 Y12.499
G1 F2400 X-54.018 Y12.5 E1675.88488
G0 F18000 X-54.018 Y13
G1 F2400 X54.02 Y12.999 E1681.49945
G0 F18000 X54.02 Y13.499
G1 F2400 X-54.018 Y13.5 E1687.11407
G0 F18000 X-54.018 Y14
G1 F2400 X54.02 Y13.999 E1692.72864
G0 F18000 X54.02 Y14.499
G1 F2400 X-54.018 Y14.5 E1698.34326
G0 F18000 X-54.018 Y15
G1 F2400 X54.02 Y14.999 E1703.95783
G0 F18000 X54.02 Y15.499
G1 F2400 X-54.018 Y15.5 E1709.57246
G0 F18000 X-54.018 Y16
G1 F2400 X54.02 Y15.999 E1715.18703
G0 F18000 X54.02 Y16.499
G1 F2400 X-54.018 Y16.5 E1720.80165
G0 F18000 X-54.018 Y17
G1 F2400 X-46.642 Y17 E1721.18492
G0 F18000 X-47.335 Y17.5
G1 F2400 X-54.018 Y17.5 E1721.53228
G0 F18000 X-54.018 Y18
G1 F2400 X-47.794 Y18 E1721.85568
G0 F18000 X-48.079 Y18.5
G1 F2400 X-54.018 Y18.5 E1722.16438
G0 F18000 X-54.018 Y19
G1 F2400 X-48.271 Y19 E1722.46299
G0 F18000 X-48.402 Y19.5
G1 F2400 X-54.018 Y19.5 E1722.7549
G0 F18000 X-54.018 Y20
G1 F2400 X-48.418 Y20 E1723.04588
G0 F18000 X-48.406 Y20.5
G1 F2400 X-54.018 Y20.5 E1723.33758
G0 F18000 X-54.018 Y21
G1 F2400 X-48.269 Y21 E1723.6363
G0 F18000 X-48.081 Y21.5
G1 F2400 X-54.018 Y21.5 E1723.94489
G0 F18000 X-54.018 Y22
G1 F2400 X-47.788 Y22 E1724.2686
G0 F18000 X-47.332 Y22.5
G1 F2400 X-54.018 Y22.5 E1724.61612
G0 F18000 X-54.018 Y23
G1 F2400 X-46.637 Y23 E1724.99965
G0 F18000 X-54.018 Y23.5
G0 X-54.018 Y23.5
G1 F2400 X54.02 Y23.499 E1730.61422
G0 F18000 X54.02 Y23.999
G1 F2400 X-54.018 Y24 E1736.22884
G0 F18000 X-54.018 Y24.5
G1 F2400 X54.02 Y24.499 E1741.84341
G0 F18000 X54.02 Y24.999
G1 F2400 X-54.018 Y25 E1747.45804
G0 F18000 X-54.018 Y25.5
G1 F2400 X54.02 Y25.499 E1753.07261
G0 F18000 X54.02 Y25.999
G1 F2400 X-54.018 Y26 E1758.68723
G0 F18000 X-54.018 Y26.5
G1 F2400 X54.02 Y26.499 E1764.3018
G0 F18000 X54.02 Y26.999
G1 F2400 X-54.018 Y27 E1769.91642
G0 F18000 X-54.018 Y27.5
G1 F2400 X54.02 Y27.499 E1775.53099
G0 F18000 X54.02 Y27.999
G1 F2400 X-54.018 Y28 E1781.14562
G0 F18000 X-54.018 Y28.5
G1 F2400 X54.02 Y28.499 E1786.76019
G0 F18000 X52.771 Y28.999
G1 F2400 X-52.769 Y29 E1792.24499
G0 F18000 X-52.769 Y29.5
G1 F2400 X52.771 Y29.499 E1797.72974
G0 F18000 X54.02 Y22.999
G0 X54.02 Y22.999
G1 F2400 X46.648 Y22.999 E1798.11286
G0 F18000 X47.336 Y22.499
G1 F2400 X54.02 Y22.499 E1798.46022
G0 F18000 X54.02 Y21.999
G1 F2400 X47.774 Y21.999 E1798.78482
G0 F18000 X48.099 Y21.499
G1 F2400 X54.02 Y21.499 E1799.09253
G0 F18000 X54.02 Y20.999
G1 F2400 X48.271 Y20.999 E1799.3913
G0 F18000 X48.392 Y20.499
G1 F2400 X54.02 Y20.499 E1799.68378
G0 F18000 X54.02 Y19.999
G1 F2400 X48.427 Y19.999 E1799.97444
G0 F18000 X48.385 Y19.499
G1 F2400 X54.02 Y19.499 E1800.26728
G0 F18000 X54.02 Y18.999
G1 F2400 X48.288 Y18.999 E1800.56517
G0 F18000 X48.072 Y18.499
G1 F2400 X54.02 Y18.499 E1800.87428
G0 F18000 X54.02 Y17.999
G1 F2400 X47.792 Y17.999 E1801.19794
G0 F18000 X47.357 Y17.499
G1 F2400 X54.02 Y17.499 E1801.54421
G0 F18000 X54.02 Y16.999
G1 F2400 X46.665 Y16.999 E1801.92644
G1 F6600 E1795.12644
G1 Z1.1
G0 F18000 X46.677 Y2.707
G0 X47.471 Y2.039
G0 X47.916 Y1.331
G0 X48.16 Y0.529
G0 X48.19 Y-0.304
G0 X48.074 Y-0.814
G0 X48.003 Y-1.118
G0 X47.61 Y-1.858
G0 X47.04 Y-2.47
G0 X46.682 Y-2.659
G0 X46.697 Y-17
G0 X46.697 Y-17
G1 Z0.8
G1 F6600 E1802.02644
G1 F2400 X54.02 Y-17 E1802.40701
G0 F18000 X54.02 Y-17.5
G1 F2400 X47.36 Y-17.5 E1802.75313
G0 F18000 X47.776 Y-18
G1 F2400 X54.02 Y-18 E1803.07762
G0 F18000 X54.02 Y-18.5
G1 F2400 X48.08 Y-18.5 E1803.38632
G0 F18000 X48.288 Y-19
G1 F2400 X54.02 Y-19 E1803.6842
G0 F18000 X54.02 Y-19.5
G1 F2400 X48.383 Y-19.5 E1803.97715
G0 F18000 X48.448 Y-20
G1 F2400 X54.02 Y-20 E1804.26672
G0 F18000 X54.02 Y-20.5
G1 F2400 X48.383 Y-20.5 E1804.55967
G0 F18000 X48.286 Y-21
G1 F2400 X54.02 Y-21 E1804.85766
G0 F18000 X54.02 Y-21.5
G1 F2400 X48.079 Y-21.5 E1805.16641
G0 F18000 X47.773 Y-22
G1 F2400 X54.02 Y-22 E1805.49106
G0 F18000 X54.02 Y-22.5
G1 F2400 X47.355 Y-22.5 E1805.83743
G0 F18000 X46.687 Y-23
G1 F2400 X54.02 Y-23 E1806.21852
; LAYER:3
G0 F18000 X54.563 Y-30.288 Z1.05
; TYPE:SUPPORT
G1 F2400 X54.35 Y-30.502 E1806.2374
G1 F6600 E1799.4374
G1 Z1.35
G0 F18000 X55.039 Y30.29
G1 Z1.05
G1 F6600 E1806.3374
G1 F2400 X55.485 Y30.737 E1806.37677
G0 F18000 X54.587 Y29.05
G0 X54.347 Y28.9
G0 X54.347 Y28.9
; TYPE:WALL-INNER
G1 F2400 X52.961 Y28.9 E1806.4488
G1 X52.961 Y30.286 E1806.52083
G1 X-52.959 Y30.286 E1812.02538
G1 X-52.959 Y28.9 E1812.09741
G1 X-54.343 Y28.9 E1812.16939
G1 X-54.343 Y-28.899 E1815.17314
G1 X-52.959 Y-28.899 E1815.24502
G1 X-52.959 Y-30.285 E1815.3171
G1 X52.961 Y-30.285 E1820.8216
G1 X52.961 Y-28.899 E1820.89358
G1 X54.346 Y-28.899 E1820.96555
G1 X54.347 Y28.9 E1823.96925
G0 F18000 X47.44 Y22.157
G0 X47.44 Y22.157
G1 F2400 X47.915 Y21.452 E1824.01343
G1 X48.191 Y20.649 E1824.05756
G1 X48.251 Y19.801 E1824.10174
G1 X48.088 Y18.966 E1824.14595
G1 X47.716 Y18.202 E1824.19011
G1 X47.157 Y17.56 E1824.23435
G1 X46.452 Y17.085 E1824.27853
G1 X45.648 Y16.809 E1824.32271
G1 X44.873 Y16.755 E1824.36308
G1 X-45.437 Y16.773 E1829.0564
G1 X-46.258 Y16.997 E1829.10067
G1 X-46.992 Y17.425 E1829.14488
G1 X-47.591 Y18.029 E1829.18912
G1 X-48.013 Y18.767 E1829.23333
G1 X-48.229 Y19.59 E1829.27756
G1 X-48.226 Y20.439 E1829.32168
G1 X-48.002 Y21.26 E1829.36589
G1 X-47.573 Y21.994 E1829.41005
G1 X-46.97 Y22.592 E1829.45415
G1 X-46.231 Y23.014 E1829.49833
G1 X-45.411 Y23.23 E1829.54235
G1 X45.225 Y23.245 E1834.25255
G1 X46.034 Y23.088 E1834.29538
G1 X46.799 Y22.715 E1834.33961
G1 X47.44 Y22.157 E1834.38378
G0 F18000 X47.419 Y21.971
G0 X47.868 Y21.429
G0 X48.14 Y20.638
G0 X48.198 Y19.804
G0 X48.038 Y18.983
G0 X47.671 Y18.231
G0 X47.122 Y17.6
G0 X46.921 Y17.519
G0 X45.324 Y3.239
G0 X45.324 Y3.239
G1 F2400 X46.139 Y3.051 E1834.42724
G1 X46.89 Y2.652 E1834.47144
G1 X47.511 Y2.073 E1834.51556
G1 X47.963 Y1.352 E1834.55979
G1 X48.212 Y0.539 E1834.60397
G1 X48.242 Y-0.308 E1834.64802
G1 X48.052 Y-1.138 E1834.69232
G1 X47.653 Y-1.888 E1834.73651
G1 X47.074 Y-2.51 E1834.78071
G1 X46.353 Y-2.961 E1834.82494
G1 X45.527 Y-3.214 E1834.86985
G1 X-45.025 Y-3.229 E1839.57574
G1 X-45.679 Y-3.184 E1839.60986
G1 X-46.483 Y-2.897 E1839.65426
G1 X-47.182 Y-2.414 E1839.69842
G1 X-47.733 Y-1.767 E1839.74258
G1 X-48.098 Y-1 E1839.7867
G1 X-48.252 Y-0.163 E1839.83089
G1 X-48.183 Y0.684 E1839.875
G1 X-47.897 Y1.485 E1839.91918
G1 X-47.414 Y2.184 E1839.9633
G1 X-46.766 Y2.736 E1840.0075
G1 X-45.998 Y3.099 E1840.0516
G1 X-45.192 Y3.247 E1840.09414
G1 X45.324 Y3.239 E1844.79811
G1 F6600 E1837.99811
G1 Z1.35
G0 F18000 X45.323 Y3.182
G0 X46.119 Y3.001
G0 X46.86 Y2.609
G0 X47.471 Y2.039
G0 X47.916 Y1.331
G0 X48.16 Y0.529
G0 X48.19 Y-0.303
G0 X48.093 Y-0.735
G0 X48.002 Y-1.119
G0 X47.61 Y-1.858
G0 X47.04 Y-2.47
G0 X46.33 Y-2.914
G0 X45.519 Y-3.161
G0 X45.235 Y-3.162
G0 X45.049 Y-16.749
G0 X45.049 Y-16.749
G1 Z1.05
G1 F6600 E1844.89811
G1 F2400 X45.843 Y-16.853 E1844.93973
G1 X46.628 Y-17.179 E1844.98392
G1 X47.303 Y-17.696 E1845.02814
G1 X47.82 Y-18.371 E1845.07237
G1 X48.146 Y-19.156 E1845.11659
G1 X48.256 Y-19.999 E1845.16082
G1 X48.146 Y-20.842 E1845.20506
G1 X47.82 Y-21.627 E1845.24928
G1 X47.303 Y-22.302 E1845.29351
G1 X46.628 Y-22.819 E1845.33772
G1 X45.843 Y-23.145 E1845.38192
G1 X45.049 Y-23.249 E1845.42354
G1 X-45.303 Y-23.239 E1850.11904
G1 X-46.116 Y-23.058 E1850.16236
G1 X-46.871 Y-22.664 E1850.20665
G1 X-47.496 Y-22.088 E1850.25082
G1 X-47.952 Y-21.371 E1850.29496
G1 X-48.206 Y-20.56 E1850.33909
G1 X-48.243 Y-19.711 E1850.38321
G1 X-48.058 Y-18.882 E1850.42729
G1 X-47.664 Y-18.127 E1850.47148
G1 X-47.088 Y-17.502 E1850.51557
G1 X-46.371 Y-17.046 E1850.55966
G1 X-45.559 Y-16.791 E1850.60383
G1 X-44.793 Y-16.759 E1850.64361
G1 X45.049 Y-16.749 E1855.31256
G0 F18000 X45.016 Y-17.249
; TYPE:WALL-OUTER
G1 F2100 X45.712 Y-17.34 E1855.34904
G1 X46.376 Y-17.616 E1855.38643
G1 X46.946 Y-18.053 E1855.42379
G1 X47.383 Y-18.623 E1855.46116
G1 X47.659 Y-19.287 E1855.49858
G1 X47.752 Y-19.999 E1855.53594
G1 X47.659 Y-20.711 E1855.57331
G1 X47.383 Y-21.375 E1855.61073
G1 X46.946 Y-21.945 E1855.6481
G1 X46.376 Y-22.382 E1855.68545
G1 X45.712 Y-22.658 E1855.72284
G1 X45.016 Y-22.749 E1855.75933
G1 X-45.248 Y-22.739 E1860.45025
G1 X-45.943 Y-22.584 E1860.4873
G1 X-46.581 Y-22.251 E1860.52472
G1 X-47.109 Y-21.765 E1860.56202
G1 X-47.495 Y-21.158 E1860.59939
G1 X-47.709 Y-20.473 E1860.63665
G1 X-47.74 Y-19.756 E1860.6739
G1 X-47.584 Y-19.055 E1860.71116
G1 X-47.251 Y-18.417 E1860.74849
G1 X-46.765 Y-17.889 E1860.78571
G1 X-46.158 Y-17.503 E1860.82302
G1 X-45.472 Y-17.288 E1860.86031
G1 X-44.782 Y-17.259 E1860.89615
G1 X45.016 Y-17.249 E1865.56281
G0 F18000 X45.015 Y-16.9
G0 X45.549 Y-3.164
G0 X45.564 Y-2.764
G0 X45.554 Y-3.048
G0 X45.554 Y-3.048
G0 X45.452 Y-2.714
G1 F2100 X-45.008 Y-2.729 E1870.26392
G1 X-45.576 Y-2.69 E1870.29355
G1 X-46.253 Y-2.448 E1870.33095
G1 X-46.844 Y-2.04 E1870.36828
G1 X-47.31 Y-1.493 E1870.40562
G1 X-47.618 Y-0.845 E1870.44288
G1 X-47.748 Y-0.138 E1870.4802
G1 X-47.69 Y0.578 E1870.51748
G1 X-47.448 Y1.255 E1870.55482
G1 X-47.04 Y1.846 E1870.59211
G1 X-46.493 Y2.312 E1870.62942
G1 X-45.843 Y2.619 E1870.66673
G1 X-45.147 Y2.747 E1870.70346
G1 X45.267 Y2.739 E1875.40213
G1 X45.962 Y2.578 E1875.4392
G1 X46.597 Y2.241 E1875.47656
G1 X47.122 Y1.752 E1875.51385
G1 X47.504 Y1.143 E1875.55121
G1 X47.715 Y0.456 E1875.58855
G1 X47.74 Y-0.261 E1875.62584
G1 X47.579 Y-0.961 E1875.66322
G1 X47.242 Y-1.595 E1875.70058
G1 X46.753 Y-2.121 E1875.73794
G1 X46.144 Y-2.502 E1875.7753
G1 X45.452 Y-2.714 E1875.81293
G1 F6600 E1869.01293
G1 Z1.35
G0 F18000 X45.554 Y-3.048
G0 X45.557 Y-3.162
G0 X45.519 Y-3.161
G0 X46.33 Y-2.914
G0 X47.04 Y-2.47
G0 X47.61 Y-1.858
G0 X48.002 Y-1.119
G0 X48.093 Y-0.735
G0 X48.19 Y-0.303
G0 X48.16 Y0.529
G0 X47.916 Y1.331
G0 X47.471 Y2.039
G0 X46.86 Y2.609
G0 X46.119 Y3.001
G0 X45.343 Y3.176
G0 X44.883 Y16.805
G0 X44.869 Y17.205
G0 X44.88 Y16.907
G0 X44.88 Y16.907
G0 X44.856 Y17.255
G1 Z1.05
G1 F6600 E1875.91293
G1 F2100 X-45.37 Y17.273 E1880.60188
G1 X-46.063 Y17.462 E1880.63926
G1 X-46.683 Y17.824 E1880.67661
G1 X-47.19 Y18.334 E1880.71402
G1 X-47.546 Y18.958 E1880.75138
G1 X-47.729 Y19.653 E1880.78875
G1 X-47.726 Y20.371 E1880.82606
G1 X-47.537 Y21.065 E1880.86343
G1 X-47.174 Y21.685 E1880.90074
G1 X-46.665 Y22.191 E1880.938
G1 X-46.04 Y22.547 E1880.97533
G1 X-45.346 Y22.73 E1881.01258
G1 X45.177 Y22.745 E1885.71692
G1 X45.874 Y22.61 E1885.75381
G1 X46.52 Y22.294 E1885.79119
G1 X47.062 Y21.823 E1885.8285
G1 X47.464 Y21.227 E1885.86586
G1 X47.697 Y20.548 E1885.90317
G1 X47.748 Y19.832 E1885.94048
G1 X47.61 Y19.126 E1885.97786
G1 X47.295 Y18.481 E1886.01516
G1 X46.823 Y17.938 E1886.05255
G1 X46.227 Y17.536 E1886.08991
